P2
# 8-bit pgm - grayscale
495 249
255
245 245 246 248 249 248 249 249 249 249 249 248 248 246 244 243 239 237 236 237 240 241 239 238
241 245 249 249 249 249 249 249 249 249 249 250 249 250 249 249 249 249 248 245 243 243 244 244
242 241 241 243 243 238 231 223 221 217 210 205 199 195 196 197 197 196 196 196 196 196 196 195
189 186 183 181 180 179 179 180 183 189 195 202 211 221 229 233 229 215 206 207 206 202 200 196
197 197 196 195 193 194 196 197 198 200 202 209 221 226 219 214 211 211 210 209 208 206 205 205
207 207 204 200 196 193 191 189 190 188 186 185 184 181 177 175 175 174 174 174 174 173 171 170
168 168 168 168 169 169 171 171 174 175 176 178 179 181 182 183 182 183 185 187 188 191 193 195
205 215 221 225 228 228 230 232 237 242 247 247 243 241 241 241 243 244 245 247 245 242 239 236
235 233 229 228 227 225 221 217 212 198 196 196 195 202 208 213 216 218 222 222 220 219 218 218
217 216 216 217 216 216 217 218 225 224 222 219 214 208 202 199 197 195 195 189 180 178 182 184
181 179 177 174 172 170 167 166 166 162 161 165 168 169 169 171 176 194 193 194 202 202 194 207
206 208 214 218 219 214 207 203 203 209 208 210 215 212 209 216 219 204 200 187 194 194 197 202
204 212 216 214 210 210 211 210 207 203 195 189 183 181 180 179 179 180 180 180 179 180 180 180
183 182 180 180 178 177 178 177 176 176 175 175 174 174 174 174 173 173 173 173 172 172 172 172
172 172 172 171 171 170 170 170 169 169 170 170 170 168 169 169 168 168 168 167 167 167 167 167
165 165 164 164 164 163 163 164 163 164 165 166 168 171 172 172 172 171 169 169 168 167 167 166
164 164 164 166 167 169 171 171 174 174 174 177 181 182 181 180 174 171 167 163 160 159 157 156
155 154 154 154 155 156 156 155 155 155 153 154 155 154 155 153 154 154 154 155 155 154 155 155
159 156 151 149 147 148 147 147 150 149 150 131 140 150 152 155 151 157 150 152 148 141 135 153
146 149 142 143 143 137 143 140 148 118  81  76  64  61 105  99  37  41  38  27  25  30  22  42
 34  35  29  37  17  14  25  23  28  29  30  27  19  11   5
239 238 240 245 248 248 249 249 249 249 247 247 248 248 247 246 242 240 239 240 241 243 244 243
242 246 249 249 249 249 249 249 249 249 250 250 249 249 250 250 250 250 249 248 247 247 246 243
242 244 246 246 245 242 235 227 222 218 213 208 202 198 196 197 196 196 195 195 196 197 197 198
193 189 186 184 182 181 181 181 183 189 195 202 210 218 223 225 216 208 204 205 202 199 198 195
194 194 193 193 191 192 194 195 198 201 204 212 223 227 220 214 211 210 208 206 204 202 200 199
198 198 197 194 191 190 190 189 188 187 185 184 183 180 177 175 175 175 176 176 176 175 173 171
170 169 169 168 169 170 171 172 175 177 180 184 188 192 195 197 194 195 194 193 192 194 196 198
202 210 217 227 237 242 242 241 238 241 244 247 245 241 242 243 243 244 244 246 246 244 242 239
235 234 232 231 230 228 225 222 211 197 195 195 195 201 208 214 221 221 224 226 227 226 224 223
218 214 211 210 211 213 214 215 210 209 205 202 199 197 198 198 208 204 201 194 179 169 167 166
171 171 171 170 167 165 162 163 161 161 166 178 185 186 186 189 199 200 199 175 115 123 124 126
125 123 127 124 115 115 114 103 111 105 112 122 119 119 122 115 115 156 207 196 203 203 203 204
211 214 217 215 214 212 210 207 203 202 199 194 186 181 178 179 180 180 180 180 181 181 180 181
186 185 183 183 182 179 177 177 177 176 176 175 175 175 175 175 175 175 174 174 173 173 173 173
172 171 171 171 171 170 170 170 170 170 170 170 170 170 169 168 169 168 168 168 168 168 168 168
167 167 166 166 165 165 165 165 164 165 165 165 166 167 168 169 168 167 166 166 165 165 164 164
165 164 163 165 166 168 168 167 168 169 170 171 174 175 174 174 169 167 165 163 161 160 158 157
155 153 153 152 154 157 157 156 155 155 154 154 155 154 155 154 154 154 153 153 153 154 155 155
156 154 151 151 150 149 147 146 147 151 122  94 112 141 139 161 158 153 126 137 137 117  96 131
128 155 149 145 144 136 138 144 119  51  66  87  60  48  46  39  51  32  30  31  31  29  32  35
 24  21  29  30  10  12  19  11  16  18  20  24  20   7   0
236 234 236 241 248 249 249 249 249 249 249 249 249 249 247 246 248 245 243 243 243 244 244 243
243 247 249 249 249 248 249 249 248 249 250 250 249 248 249 249 250 249 249 249 249 250 246 242
241 246 248 247 245 244 238 231 223 219 215 211 206 201 199 199 196 195 194 194 196 197 198 199
196 192 189 186 185 183 183 183 186 191 196 202 208 214 218 218 209 205 205 205 200 197 195 193
191 192 192 191 190 192 194 196 198 203 206 213 223 226 220 215 211 209 206 203 201 199 197 196
193 194 194 191 190 189 191 190 186 185 184 183 182 180 177 174 176 176 177 177 177 176 173 171
171 169 168 168 168 169 171 172 174 176 180 185 190 194 197 198 197 199 202 204 203 201 197 195
201 204 209 219 235 243 240 238 237 238 243 248 247 243 243 246 246 244 244 246 247 246 245 243
236 235 234 233 233 232 230 229 217 204 203 203 204 210 219 224 228 226 227 229 232 231 228 225
217 210 205 207 212 211 205 200 190 188 186 183 182 185 188 192 194 190 192 191 181 172 166 165
163 164 166 165 163 161 159 160 160 162 172 186 194 194 194 197 207 204 222 172  22  34  50  36
 41  35  43  40  28  38  48  32  69  33  44  59  38  50  65  35  19 118 224 206 203 207 210 213
212 214 214 215 216 213 210 207 199 203 203 198 188 180 178 180 181 181 181 181 181 182 182 181
185 186 187 186 184 180 178 175 178 177 176 176 175 175 175 175 174 175 175 175 175 175 175 175
173 173 172 172 172 171 171 170 170 170 170 170 170 170 169 169 168 169 168 168 167 168 168 168
168 168 167 166 166 165 165 165 165 164 163 164 163 164 165 167 166 165 164 164 163 163 164 163
165 164 164 164 166 166 167 165 166 165 166 168 171 172 170 169 167 166 165 164 163 160 160 158
155 154 153 154 158 162 163 159 156 155 153 153 154 155 154 153 155 155 153 154 153 154 155 156
157 160 162 166 167 163 158 155 137 147  90  54  80 127 122 164 165 148 111 102  93 114  86  56
 96 156 156 152 150 136 129 142  91  45  27  34  40  31  23  39  47  29  23  29  31  26  34  41
 22  16  17  21  20  12  11  14  15  10   7   8  10   5   1
236 230 229 237 244 247 245 245 248 248 248 248 248 249 249 249 248 248 248 248 249 249 248 247
244 247 249 249 249 249 249 248 249 249 249 249 249 249 249 250 249 249 249 249 250 249 246 241
241 246 250 245 240 242 239 231 224 222 218 214 211 208 206 203 200 197 195 195 195 195 199 203
204 204 201 195 191 189 187 184 187 191 195 199 203 208 210 210 208 206 203 201 200 197 194 191
190 190 191 191 192 194 196 198 199 204 210 215 218 218 215 212 205 202 197 195 195 194 193 191
189 188 187 187 188 190 190 190 188 187 185 183 181 180 178 176 176 175 174 174 173 172 171 171
171 170 169 169 169 168 170 172 174 174 177 182 187 194 201 205 208 208 209 214 217 213 207 207
207 210 214 226 239 239 235 239 238 229 235 242 241 241 240 241 242 237 245 247 248 246 251 240
241 239 234 233 236 235 231 231 223 217 214 218 216 216 219 209 203 223 232 239 232 238 226 234
218 208 206 207 205 202 199 193 184 181 177 174 174 174 175 174 171 174 175 173 170 164 160 156
158 162 157 161 154 157 155 159 157 162 173 194 205 202 200 206 208 215 226 184  36  34  71  41
 71  48  56  42  26  45  65  39  90  50  55  68  43  65  75  45  21 120 221 205 207 204 208 214
212 216 219 217 214 213 211 208 204 202 197 197 197 195 189 184 183 182 183 186 189 186 188 193
195 191 188 187 186 183 180 178 177 177 178 179 179 178 177 177 176 176 174 174 174 174 174 174
175 174 173 173 173 173 172 171 172 172 171 172 172 171 171 170 169 168 168 168 169 169 169 169
168 167 167 167 167 167 166 166 163 164 165 167 167 167 166 165 164 166 165 162 166 166 162 160
164 165 165 162 164 165 166 164 163 161 165 169 167 167 166 166 165 166 159 164 157 160 160 158
158 153 158 173 187 194 181 182 175 162 158 157 154 156 154 156 159 158 160 158 158 158 160 171
174 177 184 188 184 188 186 155 128 140  92  64  70  76  95 150 173 165 132  78 127 112  62  47
 65 125 140 136 151 136 115 124  47  32  29  40  33  32  29  29  20  35  28  28  28  21  27  31
 33  38  24  14  27  20  15  13  13   9   4   2   1   0   0
237 232 232 237 240 239 237 236 245 247 248 250 250 249 249 249 250 250 250 249 249 249 249 249
246 248 249 247 248 249 249 249 248 249 249 249 250 249 249 249 250 249 248 246 249 249 249 246
244 248 250 245 239 240 239 232 226 222 216 213 210 208 207 204 200 198 197 196 196 199 203 207
208 208 205 199 193 190 187 186 188 191 195 198 202 206 208 208 206 204 202 201 199 197 194 192
190 190 191 192 194 196 197 199 204 207 210 211 211 211 209 206 200 196 192 190 191 191 192 191
187 186 186 186 188 189 190 190 187 186 185 183 181 179 177 175 174 173 172 172 171 171 170 169
169 169 169 169 169 168 169 171 172 174 177 182 188 194 202 208 223 225 226 229 230 225 220 219
219 223 226 232 240 242 238 234 224 231 232 233 238 236 236 243 243 246 249 243 250 248 241 248
244 242 239 236 237 239 238 234 238 236 235 217 215 205 141  87 108 233 235 226 237 235 229 224
218 208 205 207 203 199 196 191 182 180 176 173 171 171 169 170 170 170 168 165 163 159 158 158
158 155 159 162 164 169 163 166 172 185 202 215 225 219 226 228 226 228 242 183  48  32  44  52
 41  38  39  38  37  39  47  48  65  41  49  62  48  60  61  44  36 123 220 207 212 209 211 215
215 217 217 215 214 212 208 206 203 202 201 202 203 204 200 195 187 188 187 186 190 196 199 197
195 194 191 191 189 185 182 181 177 178 178 178 178 176 175 175 176 176 176 176 175 175 175 175
173 173 172 171 172 172 171 171 171 172 172 171 170 170 169 169 169 168 167 169 168 169 170 169
169 169 168 167 167 168 168 168 166 166 167 167 166 166 165 165 165 166 165 162 162 163 164 166
164 165 164 163 162 163 164 162 167 165 159 167 168 167 164 161 167 156 164 161 154 157 162 159
152 163 201 202 209 201 188 183 184 174 170 163 156 158 155 159 166 165 167 167 174 162 173 186
188 191 187 190 189 178 183 162  90 114 130  88  66  84  90 131 153 150  90  39 105 120  44  49
 66 100  79 106 146 106  76  73  42  18  16  35  38  33  29  29  27  38  29  36  36  21  29  35
 38  43  31  16  17  10  13  17  12   9   5   2   2   2   2
240 237 235 234 231 227 227 227 237 241 246 249 248 248 249 249 248 248 248 248 249 249 249 249
248 248 247 245 244 246 248 249 249 249 249 249 249 249 249 248 245 246 245 245 247 249 249 248
245 248 249 243 239 240 240 234 226 221 214 210 207 207 207 205 200 199 199 198 198 201 206 211
212 213 210 203 195 190 189 188 188 191 194 197 200 204 205 205 203 202 200 200 199 197 195 193
189 190 192 193 194 196 198 199 205 208 209 207 204 203 201 199 193 190 186 184 186 188 190 190
186 185 185 185 186 187 188 188 186 185 184 183 181 178 175 173 171 171 170 170 170 170 168 168
168 167 168 169 169 168 168 170 171 173 176 180 185 192 203 211 225 231 233 234 235 233 230 229
231 233 234 233 237 244 243 234 234 228 216 222 231 231 237 239 240 246 244 251 249 244 248 242
246 240 240 242 240 239 240 240 249 227 213 228 236 243 248 217 229 243 228 236 232 229 231 230
219 209 206 206 199 194 191 185 177 174 172 170 167 166 164 163 164 164 162 160 156 156 155 156
150 147 151 119 102 106 103 107  92 100 106 105 106  97 107 100 106  94  91  79  47  53  47  44
 44  53  42  43  48  46  45  48  47  45  49  48  38  42  43  49  29 124 226 210 216 216 216 211
216 216 216 216 213 208 203 201 201 201 202 203 204 203 200 194 187 189 187 184 192 200 202 196
195 195 194 194 191 186 183 182 181 181 181 180 179 180 179 179 177 176 176 175 176 176 176 175
177 177 177 177 177 176 175 174 172 171 172 171 169 170 170 169 169 169 169 168 169 169 169 168
169 168 168 169 168 168 168 168 168 169 168 167 166 165 165 165 165 164 166 166 162 161 163 163
165 163 162 164 164 163 162 162 161 159 165 165 163 167 156 166 162 161 163 159 161 153 143 146
151 174 200 207 200 201 203 181 175 174 166 178 175 159 168 170 165 168 168 175 171 178 188 182
187 194 188 186 193 172 157 160  87  66 105 111  82  84 100 106  99  64  71  45  52 109  64  54
122  92  77 100 132 139  94  58  30  18  20  24  27  24  26  22  31  41  28  29  35  31  38  32
 33  30  18  10  11   8  11   9   5   6   3   2   2   6   8
243 240 236 228 220 216 218 220 227 233 240 244 245 247 249 250 248 249 249 249 249 249 249 249
248 247 244 241 240 243 245 247 248 247 246 246 246 247 248 249 248 248 247 245 246 248 249 249
245 245 246 244 242 243 240 233 222 218 211 207 205 203 205 205 201 203 203 202 202 204 208 213
216 216 214 206 197 190 188 189 189 191 194 196 199 202 203 203 201 201 200 200 199 198 196 195
189 190 191 191 193 195 198 199 203 206 208 206 201 198 195 193 188 185 182 181 182 184 187 187
185 184 184 184 185 185 185 185 185 184 183 182 180 177 174 172 170 169 169 169 169 169 168 168
168 167 167 168 167 166 167 169 170 172 175 178 182 190 203 214 224 234 238 237 239 240 239 240
239 236 237 235 234 239 239 228 218 219 218 201 146 125 177 217 229 228 244 250 242 250 243 246
240 239 241 242 241 244 245 240 227 208 227 247 237 233 238 241 236 230 238 233 223 236 226 225
220 211 209 205 194 187 184 178 173 171 168 165 163 161 160 159 159 159 159 157 156 154 153 152
152 152 153  70  24  25  22  23  29  25  22  32  34  33  36  24  22  27  37  35  38  43  35  38
 48  52  41  47  36  31  32  24  27  28  27  26  31  35  28  30  22 115 217 202 207 209 213 212
209 209 209 209 207 204 202 203 204 206 206 207 207 205 199 195 197 193 190 192 196 197 195 192
192 192 192 192 189 185 182 182 178 179 179 180 180 179 177 177 178 176 176 175 175 176 177 176
176 177 178 178 177 176 173 171 172 173 171 170 171 171 171 172 170 170 170 170 169 169 169 168
168 168 168 169 168 169 169 169 168 168 167 167 167 167 167 168 170 165 168 170 167 165 165 163
167 164 163 165 165 164 162 164 165 169 159 162 162 160 159 156 158 156 161 154 119 109 114 110
 82 154 211 204 208 208 188 195 178 182 174 175 176 175 180 177 178 175 171 176 176 179 179 183
186 183 188 180 178 170 125 138  63  44  54 116 104  80 130  94  36  50  28  31  35  36  59  42
 65  92  98  91  69 104 100  70  46  24  15  16  29  32  31  20  34  45  37  20  16  21  29  27
 25  19  12  12  16  15  14   3   2   2   1   3   1   6  10
243 241 234 223 212 209 214 218 224 229 235 240 242 244 247 250 247 248 249 249 248 247 247 247
247 245 242 238 238 240 243 244 244 243 243 244 243 244 245 245 249 247 244 240 241 244 246 247
245 243 244 246 245 244 239 229 218 215 209 204 201 201 202 204 203 205 206 206 206 207 212 215
217 218 216 209 200 192 188 188 189 192 194 196 198 201 202 201 200 200 199 199 199 198 197 196
191 191 191 191 192 195 199 201 205 207 208 204 199 194 190 188 185 183 180 180 180 182 182 182
182 182 183 183 183 183 183 183 183 182 182 181 180 177 174 172 171 170 169 169 169 169 169 168
169 167 166 166 165 165 167 169 171 173 175 177 180 188 203 215 225 236 243 242 244 245 246 247
242 235 232 232 228 225 219 210 207 201 199 198 166 156 201 227 229 224 203 228 250 245 242 249
238 243 244 241 245 251 245 227 211 235 247 241 244 241 227 230 224 226 214 220 229 231 226 223
221 213 210 204 190 182 178 172 169 166 164 161 159 158 158 157 155 156 156 155 154 152 150 148
146 149 156  67  24  35  33  32  34  33  36  81  84 100  92  81  41  35  69  59  61  67  50  70
 51  51  53  71  48  31  37  35  36  33  35  35  37  36  33  37  28 108 208 202 205 198 197 193
197 199 200 199 197 197 201 204 201 203 205 205 205 204 200 196 195 193 191 193 195 196 194 194
188 188 187 186 184 183 182 182 179 181 182 184 185 183 181 179 178 178 177 177 176 176 177 178
178 179 182 183 184 181 178 176 177 175 173 173 171 171 171 171 171 170 171 170 169 169 168 169
168 168 170 170 171 171 171 170 167 169 169 170 170 169 169 168 168 166 167 167 166 166 168 168
167 166 166 167 166 165 164 165 164 163 166 163 164 163 162 165 159 160 146  99  70  61  51  46
 68 166 192 200 176 204 201 192 195 186 190 177 174 177 165 177 173 178 180 169 183 179 171 182
185 172 177 177 160 170 124 114  64  29  55  87 101  87  66  61  36  22  25  20  28  28  36  30
 49 121  96  71  59  91  74  68  45  18   8  15  30  29  36  41  48  33  24  12  15  23  17  18
 15  18  17  21  13  10   9   3   4   3   1   6   1   7  12
239 239 234 223 213 211 216 219 223 227 231 234 236 237 239 241 246 248 249 250 249 247 247 246
246 244 241 237 237 240 242 242 240 241 241 241 240 239 239 238 235 237 239 241 244 246 246 244
246 243 244 247 247 245 239 229 220 216 210 204 201 200 202 204 203 206 209 212 213 217 219 222
220 220 219 214 207 197 191 189 190 192 194 196 198 200 200 200 198 198 198 198 198 197 196 195
192 192 193 193 195 198 201 204 210 211 209 204 198 193 189 186 183 182 179 178 178 178 179 179
180 181 182 183 182 182 182 183 182 181 181 180 179 177 174 173 173 172 170 169 169 169 168 168
169 167 166 165 165 165 167 170 173 175 178 179 182 189 202 212 224 236 246 247 247 246 245 245
243 230 220 215 212 207 202 200 193 194 188 195 202 201 209 212 218 223 213 196 214 248 245 243
248 245 242 246 249 240 226 218 233 252 244 239 243 236 232 222 212 214 204 212 219 225 235 227
219 213 209 199 185 176 173 168 165 162 159 157 156 155 154 154 154 153 152 149 149 148 148 147
148 146 155  70  25  31  29  32  33  31  34  84  66  86  65  61  42  23  47  46  42  40  37  56
 29  35  36  45  37  27  30  33  32  28  34  32  28  25  28  35  22 104 202 189 189 191 195 190
189 195 200 199 195 193 191 189 193 194 195 196 198 198 197 194 194 195 193 190 191 195 196 192
186 185 184 181 181 183 184 184 185 187 189 192 192 191 187 186 180 179 178 178 177 177 177 178
182 185 188 190 190 188 185 184 180 179 176 174 173 172 170 171 171 172 170 171 169 170 169 171
169 169 171 172 173 172 171 172 168 169 170 170 171 169 168 167 165 171 172 170 169 167 165 168
166 169 169 167 165 166 166 164 165 160 161 167 169 154 166 161 164 166 120  25  44  51  34  64
 74 112 105  90  89 175 197 193 194 195 187 182 180 177 175 180 179 174 167 162 144 172 175 163
169 183 162 158 138 135  89  59  45  33 109 133 100  75  44  31  35  24  22  22  27  23  19  18
 51  98 101 101  45  42  42  39  26  18  16  18  23  27  41  55  30  31  39  16   4   9  10  21
  8  14  17  18   7   2   2   0   5   2   2   9   3  15  20
232 236 237 230 222 220 219 218 222 224 227 229 231 230 230 230 240 243 247 249 250 249 248 248
243 242 240 237 237 239 240 239 238 237 234 231 230 230 230 230 225 229 234 240 245 248 244 241
245 242 243 246 247 245 241 235 228 222 213 206 202 202 203 204 205 211 216 220 223 226 227 227
226 225 224 222 214 204 196 192 191 193 195 195 197 198 198 197 196 196 196 196 195 193 192 192
192 193 194 196 198 201 204 206 212 212 210 206 202 198 193 190 184 182 179 176 176 176 177 177
183 184 185 184 183 182 181 182 181 181 180 179 178 177 175 174 174 173 171 169 169 168 168 167
167 166 165 166 166 166 168 171 174 176 179 182 186 191 199 206 217 231 245 250 251 248 244 243
244 229 210 201 199 197 196 199 194 200 193 189 194 197 200 206 213 215 217 219 209 200 226 247
247 246 243 245 242 223 215 230 250 238 249 248 241 238 226 227 225 216 208 206 221 226 218 229
212 207 202 193 178 170 167 164 160 158 156 153 153 152 152 151 151 149 147 147 147 146 145 145
148 148 159  77  24  29  29  35  34  30  38  88  62  94  78  87  55  27  25  31  34  30  30  27
 29  33  32  27  30  33  33  30  35  31  34  38  65  77  61  34  23 107 211 202 201 197 199 193
201 207 210 207 202 200 196 191 185 185 185 187 192 199 202 202 199 198 196 195 195 193 191 187
186 184 183 182 184 186 188 187 186 188 191 192 192 190 186 184 183 182 180 179 178 178 178 179
180 181 183 183 182 181 180 180 179 179 176 174 174 172 171 171 172 172 171 170 170 171 173 174
172 174 175 176 175 175 173 171 170 170 172 171 172 171 171 172 167 176 172 167 173 174 167 170
169 173 173 169 166 168 167 165 166 177 163 165 137  80 145 156 166 160 108  39  37  39  36  61
 48  70  59  40  90 132 180 183 184 192 177 170 176 174 166 147 140 179 160 101  62 150 178 101
115 153 144 132 107  96  73  40  17  35  87  94  93  94  49  44  52  65  45  35  39  24  22  18
 64  81  45  67  68  47  44  42  25  29  26  25  32  45  45  42  25  36  35  17   2   4   9   7
 10  15  11  16   8   4   3   2   4   4   3   9   6  27  33
225 233 238 236 230 226 221 217 223 224 227 228 230 228 227 225 223 227 232 237 240 241 241 242
241 240 239 236 236 238 238 237 237 232 225 219 217 217 220 222 221 221 221 223 227 231 233 231
245 241 242 245 245 246 245 243 236 227 215 207 204 205 205 206 211 216 221 225 229 231 231 229
230 228 227 227 221 210 199 194 192 194 195 195 196 197 196 195 194 194 194 193 192 191 190 189
190 192 195 198 201 203 205 207 208 211 212 211 210 206 200 195 187 184 180 176 175 176 178 179
186 186 187 185 183 181 178 178 181 180 179 178 178 177 176 175 175 173 171 169 169 168 167 166
165 164 165 167 167 168 169 172 173 175 180 183 188 191 196 200 203 218 237 247 249 244 239 238
243 233 213 202 202 198 193 194 192 186 189 193 196 203 205 205 212 217 218 212 223 210 206 220
229 251 250 235 226 219 228 250 245 249 246 245 244 240 236 228 223 224 225 212 207 215 218 214
205 199 197 187 172 164 163 161 156 155 153 152 152 150 149 147 148 147 147 147 147 146 144 143
141 149 162  83  28  35  33  29  32  29  41  87  58  98  85 101  51  27  35  30  29  39  30  33
 34  29  37  33  32  29  31  30  31  34  28  24  72 105  77  26  28  69 137 124 117 104 118 136
136 137 132 122 121 126 129 127 128 128 128 133 143 155 163 167 179 175 180 192 198 193 189 193
186 185 183 182 185 190 192 191 190 191 193 193 192 191 187 185 184 183 182 180 179 178 178 178
181 181 180 179 177 176 175 176 176 176 176 174 174 174 172 172 172 171 172 171 172 173 174 176
175 176 177 178 178 175 173 172 171 170 170 172 173 173 174 176 164 167 151 145 163 172 169 170
171 177 176 171 168 169 170 165 160 100  99  69  53  31  64 103 160 135  37  16  18  25  33  59
 41  30  49  99 103 153 192 188 179 143 161 174 181 150  80  81  62 124 127  63  60  85 130  67
112 134 164 141  76  70  84  42  24  10  48 100  91  80  55  19  41  65  62  32  64  54  21  23
 30  26  46  63  80  69  37  32  23  32  32  36  37  42  34  31  16  22  16  15   7   2  15  11
  9  16  11  14   6   4   1   2   5   8   5   9   8  36  38
218 225 233 235 236 235 228 220 223 224 224 227 229 228 226 223 220 223 223 222 224 230 234 236
236 237 238 236 235 235 234 233 231 228 222 217 215 215 216 217 212 213 213 214 216 217 217 215
234 234 236 243 250 248 247 250 239 228 219 217 217 216 215 216 219 222 227 230 231 232 233 235
239 234 232 235 235 223 208 202 199 198 197 198 197 194 194 194 192 193 194 193 190 187 186 185
184 187 190 192 195 198 202 205 203 208 211 215 218 219 212 203 194 188 183 180 177 175 179 183
191 191 186 186 181 176 179 180 180 180 180 180 179 179 177 176 177 175 172 170 169 168 167 166
165 165 164 164 164 166 168 169 173 173 175 179 188 194 195 194 202 206 223 238 243 246 248 244
238 225 214 212 210 203 203 207 202 199 197 199 205 212 215 216 213 216 213 208 212 221 221 214
223 213 196 225 231 226 247 248 245 247 247 245 244 243 238 232 224 223 218 213 210 213 211 204
191 188 191 185 168 162 164 159 155 153 153 154 155 153 150 148 147 147 145 143 142 143 144 143
149 149 167  85  21  38  34  32  31  33  25  64  86  97  83  63  28  31  31  32  32  27  36  27
 31  33  32  35  30  35  32  31  29  34  33  49  93  65  51  28  28  67 135 138 115  99 108  93
 95 113 105  77  75  91  78  72  84  91  68  62  74  89  72  25  24  35 143 198 203 190 193 196
189 189 188 188 192 194 194 192 190 190 190 189 186 184 183 181 183 182 181 181 181 179 178 178
180 180 179 179 178 177 177 179 175 174 176 176 177 176 171 175 173 172 171 172 176 175 176 181
178 180 172 175 177 174 176 169 171 171 165 171 173 172 129 121  81  86  99  83 144 169 175 173
172 159 136 166 163 155 149 168 145  55  80  37  28  21  32  41  67  47  37  25  10   5  12  33
 33  31  90  53  41  66 127 138 110  48  64 152 142 103  45  47  43  57  74  76  84  53  60  53
130 123  95  78  76  23  29  39  33  19  44  84  83  64  33  23  34  57  34  34  57  45  30  23
 15  30  21  24  40  36  44  21  11  31  36  35  47  47  43  21   5  15  17   6   1   4  13  14
 21   9  13   5   2   8   2   1   0  12  14  13  21  35  41
213 218 224 227 232 238 239 236 226 226 225 227 229 230 230 230 226 227 226 226 227 231 234 235
235 235 236 236 235 233 229 226 220 219 217 217 217 216 213 210 210 211 213 215 216 216 214 212
219 224 227 235 246 250 247 245 241 233 226 227 230 231 230 230 230 231 233 234 234 234 236 237
238 237 237 239 239 228 215 210 203 202 200 199 197 195 194 194 194 193 192 190 186 184 183 183
182 184 187 189 191 194 198 201 202 206 209 212 216 219 216 211 200 193 186 183 181 179 180 182
187 189 186 189 185 180 181 179 181 181 181 180 180 181 180 180 184 181 178 175 172 170 169 168
166 165 164 163 164 165 166 167 171 171 172 178 185 190 195 195 201 205 218 232 240 243 243 241
233 224 219 224 229 224 217 213 214 212 213 216 223 229 231 233 221 218 213 211 219 230 231 226
219 215 184 232 229 245 249 250 250 249 245 240 239 240 236 232 223 213 207 208 209 209 202 192
184 182 185 180 166 159 159 154 156 155 156 157 156 152 151 150 146 146 147 145 146 144 145 146
149 155 171  89  23  36  28  28  30  33  33  25  27  26  33  27  28  27  30  33  27  28  29  36
 34  25  27  31  29  27  31  31  40  23  47  97  44  27  37  33  20  93 208 199 197 196 177 167
155 169 177 180 176 158 133 151 159 169 163 174 165 132 147  39   8  47 195 196 192 191 194 189
192 191 192 193 194 196 195 192 190 188 187 187 188 189 187 184 184 183 181 181 180 179 179 180
178 177 178 177 177 177 176 177 176 178 172 172 171 177 179 175 179 176 176 174 176 177 180 183
175 180 177 179 172 173 175 174 175 164 161 157 171 157  65  62  49  42  93 102 165 164 138 112
103  70 104 170 155 145  71 115  80  47  69  47  27  31  35  38  36  28  43  33  17   5  15  27
 28  23  39  41  45  26  61  61  21  16  61 144  80  70  62  43  31  42  72  75  92  49  53  40
 76  67  60  55  81  26  30  26  26  18  17  37  73  77  34  28  47  15  31  75  48  31  38  33
 32  40  23  47  44  36  32  23  29  39  44  44  46  42  39  14   7  12  13   8   3   4   8  12
 15   5  10   9   2   0   1   8   8   1  12  25  24  14  14
205 210 219 227 235 242 244 243 239 238 236 234 232 233 234 236 234 232 231 232 234 236 237 239
238 235 234 237 237 231 224 219 213 213 216 219 220 217 210 205 207 209 213 216 217 214 209 207
214 220 224 229 242 249 244 235 237 232 228 231 234 234 233 232 236 235 235 235 237 239 241 242
241 243 241 239 237 229 218 212 208 205 202 200 198 196 195 196 196 195 193 190 186 183 180 179
179 180 183 185 187 190 193 196 197 200 203 205 208 213 215 214 208 199 190 187 187 185 184 183
188 189 187 191 190 185 184 180 181 180 179 179 181 182 183 184 188 186 181 177 175 172 170 169
167 166 165 164 163 163 164 164 168 169 172 178 183 191 198 201 204 207 215 227 239 242 240 239
232 229 227 231 234 232 230 229 228 227 226 228 232 234 234 234 232 230 226 225 230 237 239 237
232 210 171 225 239 241 245 245 248 244 237 231 232 236 237 234 223 207 199 204 206 199 191 185
179 178 179 175 164 158 158 155 159 160 161 161 157 151 148 147 148 145 144 145 144 144 146 150
151 165 184 103  27  32  28  35  30  24  27  25  32  29  28  26  27  36  30  28  36  30  24  24
 32  42  45  31  34  27  26  26  40  29  30  46  27  28  30  26  25  87 193 212 187 171 152 174
153 156 171 168 149 126 158 142 157 167 171 154 148 167 155  49   8  40 198 190 187 183 188 195
194 194 194 194 195 197 195 192 188 187 188 192 198 202 199 198 188 185 184 185 184 182 182 181
180 180 180 179 179 179 178 178 178 181 176 185 177 177 179 176 179 178 182 183 181 181 180 177
180 176 176 182 177 175 165 169 172 175 145 156 179 171  82  89  43  28  37  32  47  70  69  60
 29 102 154 166 144  95  30  47  41  28  62  74  42  32  35  31  47  37  45  29  21  11  20  17
 32  39  26  47  59  22  26  23  20  18  27  53  32  79  89  47  40  41  45  50  52  33  39  40
 44  46  47  40  67  24  24  18  18  22  19  24  60  67  27  30  33  25  24  33  23  39  37  37
 35  31  24  73  61  35  19  19  41  39  42  44  42  39  45  23   3   3   5   5   4   1   2   6
  9   4   7   9   3   0   6  16  13   5  20  25  21  13   6
198 203 211 222 231 239 241 242 250 249 246 242 237 237 239 241 240 237 236 239 241 242 242 244
244 239 237 240 240 232 222 216 217 215 215 218 220 217 209 204 204 209 215 220 219 214 209 206
214 221 224 229 240 244 236 228 236 233 231 234 237 237 236 235 237 235 235 237 241 243 244 245
242 244 240 235 234 230 222 217 212 208 202 200 199 198 197 197 194 192 190 188 184 181 177 175
177 178 180 182 185 187 190 192 193 195 197 198 200 205 209 210 209 201 192 189 188 188 187 187
192 192 188 190 190 187 186 182 181 179 178 178 180 181 184 186 189 187 184 180 177 174 171 169
169 167 164 163 163 162 162 163 167 169 173 179 185 189 196 202 207 210 213 224 238 242 239 240
230 230 228 228 230 232 236 239 239 237 235 233 235 237 236 235 239 240 241 238 235 235 236 238
242 224 172 235 238 242 237 244 238 235 229 223 222 226 227 225 218 204 198 200 195 188 184 182
179 177 176 172 164 160 162 161 163 163 164 164 160 154 149 148 149 148 150 154 156 156 158 162
180 190 205 115  20  32  53  76  42  43  37  48  38  46  38  45  38  52  54  49  51  40  68  40
 31  83  81  46  58  62  53  56  76  37  30  26  33  27  32  32  21  79 211 206 189 173 182 179
160 157 171 149 127 167 168 151 158 171 162 148 175 180 162  43  15  45 182 185 182 185 189 191
195 194 194 194 195 197 195 194 193 194 196 201 207 209 205 202 194 191 192 192 192 189 184 183
181 180 179 179 179 179 179 178 180 181 175 181 179 183 179 182 181 180 183 184 180 183 186 183
184 177 185 181 169 178 179 174 177 181 151 152 163 166 155 170  73  51  22  34  23  34  47  51
 29  72 103  72 112 104  52  28  31  34  49  43  42  34  35  32  39  39  34  10   6   3  16  26
 15  26  12  17  34  33  28  31  21  14  16   6  21  70  45  29  25  27  26  40  34  28  24  23
 26  39  35  30  38  27  23  18  17  16  15  15  20  18  14  30  33  30  26  24  24  42  39  32
 37  27  29  65  58  27  31  42  33  35  43  50  46  33  33  15   8   8   8  11   8   4   3   6
  4   7   6   5   4   8  16  18  10  13  22  13  13  22  13
194 196 199 204 214 226 237 246 249 249 248 245 242 242 245 248 244 241 241 244 246 246 245 247
249 244 241 241 241 234 224 218 218 214 213 216 216 213 208 203 201 207 217 223 223 217 213 212
215 218 221 228 236 236 231 229 233 232 232 236 240 242 242 242 240 239 237 239 242 245 246 245
240 243 239 234 235 238 235 231 218 211 205 201 200 199 198 197 195 193 189 186 183 181 179 177
177 178 178 179 181 184 187 189 191 193 195 196 197 200 203 206 207 200 193 188 187 186 187 189
191 192 187 189 189 188 188 184 181 178 176 176 177 178 182 185 190 189 188 186 181 176 172 170
171 167 164 163 162 161 161 162 166 169 174 182 186 189 194 198 208 211 212 221 235 238 236 237
228 226 224 226 231 236 237 236 235 235 235 238 240 241 241 240 239 241 243 241 237 235 236 239
231 236 190 232 234 237 237 237 235 235 230 221 214 212 212 210 212 201 194 191 185 180 179 178
177 176 176 173 167 165 166 166 166 166 167 169 168 165 161 160 153 158 167 177 181 179 177 177
185 187 206 123  17  32  66  88  47  70  56  67  51  70  70  68  72  51  52  56  56  59  94  38
 32  85  77  46  55  68  60  68  75  35  34  39  32  25  26  35  22  77 210 198 175 191 179 176
165 162 156 134 170 184 156 153 166 158 136 174 176 168 159  47   8  40 175 187 182 188 192 195
197 196 195 194 195 196 197 198 202 202 203 205 204 204 201 199 201 199 196 195 194 191 187 187
186 186 184 185 185 187 188 189 185 189 185 180 182 189 177 180 185 185 187 186 183 183 182 180
178 184 177 182 195 143 113 170 156 150 141 104 116 114 122  87  37  41  22  15  15  27  46  37
 28  47  58  47 104 114  50  42  35  17  40  39  41  41  47  33  36  44  27   7   9   5   3  15
 23  28  13  12  21  36  23  19  14  18  25   7  26 106  51  14  15   9   9  11  15  13  20  17
 16  26  17  20  29  36  19  13  23  14  10  19  20  15  25  33  36  24  33  44  37  24  32  29
 17  23  32  43  39  23  38  38  28  33  35  37  35  20  19  13  12  14  15  12   7   4   2   4
  2   7   5   4   5   9  16  19  12  12   9   7   9  11   9
192 191 192 195 202 214 230 244 248 249 249 248 246 245 248 250 249 248 248 249 249 249 247 248
250 247 243 241 240 235 228 222 218 212 211 213 213 210 205 202 199 204 214 223 225 222 219 219
220 220 223 229 234 232 231 234 232 231 233 236 240 242 242 242 240 238 235 237 240 243 246 245
240 243 239 236 240 245 243 242 228 219 210 205 204 202 199 197 196 192 186 183 180 180 180 179
176 176 176 177 178 180 183 184 187 189 192 193 194 196 198 201 202 199 193 188 185 184 185 187
185 187 184 186 188 188 190 186 183 179 177 176 176 176 180 184 190 190 190 189 184 180 176 174
175 170 166 165 164 162 163 165 165 167 177 188 196 198 202 205 212 213 215 223 231 234 232 232
230 228 227 227 227 230 232 234 236 238 238 239 239 238 237 235 236 236 235 236 238 240 240 240
235 235 192 216 235 225 237 232 234 236 233 223 214 210 209 207 207 197 189 184 180 179 178 174
175 177 178 177 174 171 170 170 171 170 170 173 174 172 172 170 168 175 181 188 191 189 186 183
181 181 199 126  22  29  43  47  39  54  43  50  45  48  46  32  38  32  36  38  28  29  39  32
 26  42  38  33  28  34  28  31  32  24  23  19  25  29  21  25  16  78 205 195 211 215 213 195
177 172 152 189 192 193 182 168 163 152 183 186 194 177 162  57  17  35 169 184 185 190 193 202
198 194 193 192 193 194 197 199 199 200 202 201 201 201 203 205 203 199 195 190 188 187 188 189
193 192 191 191 195 198 200 201 196 195 198 193 190 186 185 193 181 183 182 182 185 183 182 185
186 184 181 176 156 100  60  68  94 160 131  60  52  53  76  46  25  24  18  14  13  21  22  32
 21  30  34  44  53  67  69  42  31   9  10  12  22  21  21  40  35  44  23  21  37  28  15  21
 16  16   7  20  20  24  21  15  16   4  10   7  27  76  50  47  15   8   5  10   6   7   8   6
 18  17  15  18  28  27  12  12  17  19  21  30  46  43  36  26  21  29  36  32  36  21  24  17
 13  22  12  11  13  27  32  18  15  28  34  38  40  20  16  10   5   7   9   4   0   0   0   1
  1   4   5   6   6   5  11  24  21  15   6   8   7   1   4
190 189 192 194 199 207 224 237 250 250 250 249 248 248 248 249 250 250 250 250 248 248 248 247
247 247 245 240 239 237 232 227 219 212 208 209 208 205 203 202 203 204 211 221 228 227 223 221
223 225 227 233 235 231 233 237 238 239 241 244 246 247 245 244 242 238 233 232 233 238 243 245
240 244 244 242 245 247 245 242 237 226 216 210 209 206 202 200 193 189 184 182 180 180 179 177
176 176 176 176 176 177 177 178 182 183 186 188 189 190 192 194 196 195 191 188 185 183 184 184
182 184 181 183 186 188 192 191 187 183 179 179 178 176 178 182 189 190 191 191 189 187 185 185
181 175 170 169 168 166 167 169 169 171 181 196 208 213 216 220 219 218 222 228 229 229 229 227
229 228 227 224 220 219 225 232 238 236 234 232 229 227 226 226 231 231 231 232 234 237 235 231
235 239 181 221 227 228 231 235 232 233 228 219 212 209 208 207 198 190 184 182 179 176 174 171
175 177 178 177 176 174 171 172 172 171 172 174 176 176 177 178 185 188 188 186 184 184 183 181
181 175 179 112  22  28  25  23  26  27  25  29  28  21  27  30  29  38  35  36  45  41  30  43
 41  37  41  46  42  43  43  40  47  39  46  43  42  41  47  45  45  59 117 146 139 119 124 133
118  93 124 136 122 124 130 112 102 124 134 131 136 145 132  54  28  39 143 176 179 193 192 193
193 190 187 186 187 188 191 195 192 193 195 196 196 198 202 204 197 193 188 183 180 179 181 186
189 189 190 192 194 196 196 196 198 191 192 192 187 184 197 171 188 192 187 185 188 182 179 190
172 165 160 157  97  59  54  67  74 154 131 101  81  62  82  60  38  34  22  11   8  34  21  14
 20  19  24  18  21  24  35  40  22   5  10  10   7  15  27  25  38  42  32  29  36  18  13  21
 24  17   9  13   7   4  14  13   8   3  12   1  24  45  32  34  34  19   7  19   3   8   3   8
 10   8  16  13  21  13   8  19  15  19  28  21  34  40  24  12  12  11  32  36  38  34  25   7
 10  15   7  19  25  35  26  15  30  35  34  34  31  19  22  12   2   4   5   3   1   2   2   3
  2   2   7   5   9  10  12  27  27  19  14   7   4   3   2
188 187 188 191 194 203 222 239 248 249 249 249 249 249 249 250 246 249 250 247 245 246 246 244
244 247 246 240 238 238 236 231 222 214 206 204 201 199 199 201 205 203 207 218 227 227 223 219
221 225 228 231 234 234 236 241 242 243 246 249 250 250 249 247 249 243 234 229 229 233 237 241
237 244 247 247 249 248 245 243 241 231 218 213 212 210 206 203 198 196 194 194 193 191 187 183
178 177 176 176 175 175 175 175 178 181 183 185 186 186 187 188 191 190 189 188 186 185 184 183
184 184 179 180 183 188 196 197 190 186 182 181 179 177 179 182 189 191 193 193 193 194 195 196
189 181 175 173 171 169 170 172 176 178 186 201 215 221 224 225 222 220 226 230 226 225 225 221
223 219 218 220 220 218 219 222 223 220 216 212 211 212 217 220 226 230 232 229 227 226 220 215
211 232 189 217 226 221 231 230 233 231 222 211 203 199 198 198 188 181 181 181 176 170 170 171
173 175 174 172 173 172 170 173 170 170 173 176 178 180 184 188 189 193 192 186 184 185 183 179
172 175 176 123  58  71  67  68  76  74  76  78  80  85  85  87  83  88  86  88  91  86  92  84
 87  89  91  83  87  89  94  90  85  89  84  86  83  88  83  83  86  74 125 136 114 109 112 110
113 114 108  86  87  84  81  88  87  82  68  70  72  75  66  22  16  11  85 177 180 178 181 196
188 184 182 181 181 182 185 190 188 189 191 192 191 189 189 189 188 187 184 180 175 173 176 180
190 188 189 190 193 193 192 190 187 188 188 187 186 188 185  82  91 112 131 155 180 180 174 186
157 103  70 103  89 114 109  81 103  91 134 151 112  40  57  32  29  26  28  18  19  18  26  11
 21  20  21  17  14  18  20  41  23   2   2   2   8   7  31  39  35  24  17  20  31  11  14  13
 14  10  13   5   3   5   8   4   2   2  17  10   8  36  27  37  34   8   7  10   8   1   2   7
  6  10  22  16  15  11   5  16  34  30  51  30  29  42  24  12   5   5  25  30  38  43  21  14
 13  12  10  30  32  21  26  46  33  33  35  35  29  21  27  11   5   3   4   3   2   0   0   0
  2   3   8   2  11  25  19  27  29  15  15   4   3   7   0
186 186 186 186 190 199 218 234 246 247 248 248 247 247 247 249 249 248 247 247 246 244 242 239
243 238 243 248 230 233 235 232 221 207 202 198 194 196 195 194 197 211 223 222 222 226 219 218
221 227 227 228 232 233 235 241 245 249 248 248 250 249 248 250 246 249 236 224 226 229 227 229
226 228 234 238 241 244 245 243 243 243 232 220 219 216 212 212 207 208 207 205 204 202 195 189
183 179 174 174 173 173 173 174 176 176 178 181 181 184 186 187 185 187 188 188 189 193 195 193
191 190 189 184 183 190 198 196 196 191 190 189 183 180 181 184 196 198 197 192 191 196 204 208
192 188 183 181 179 179 179 181 183 187 197 206 215 220 221 222 221 221 223 227 233 234 229 221
218 216 216 218 217 213 215 220 219 215 214 212 209 210 218 223 229 232 235 230 219 213 210 204
203 213 178 209 223 218 222 222 218 221 213 199 192 194 195 188 182 179 177 174 170 167 167 169
168 168 169 169 169 170 172 172 172 173 174 175 177 182 188 193 194 192 188 183 179 178 179 180
180 163 171 123  70  90  87  83  84  81  88  82  83  89  77  67  83  69  83  74  63  83  84  63
 77  60  76  72  75  72  65  82  84  82  81  80  80  82  74  79  76 100 219 228 225 226 218 219
210 205 199 195 189 182 177 175 170 171 176 176 170 165 163  55   0  15 141 168 168 170 178 184
188 183 178 178 179 178 181 185 182 185 186 183 177 175 177 175 176 178 178 174 172 172 175 178
183 183 178 185 187 182 187 187 182 192 185 184 193 174  84  70  51  54  74 101 124 141 143 180
183 114  52  75  87  80  90  97  59  21  65 111  69  35  37  22  17  13  17  17  16  30  16  11
 26  39  38  36  17  14  30  45  25  13   3   3   4   7  16  24  17  10  32  33  19  14   4  10
  6   9   3   0   3   5   7  12  17  15  20  12   7  18  43  45  43  17  15  18  13   2  11  12
 30  40  20   9  20  13   6   5  17  51  47  39  40  42  21  12  23  26  24  36  24  34  31  19
 19  16   5  17  28  17  20  38  37  25  30  39  31  43  33   6  10   7   0   1   5   1   1   0
  0   5   5   2  17  27  16  14   8   5  10  10   5   5   2
189 187 185 185 186 196 212 228 242 244 246 246 246 246 247 248 249 249 248 246 242 239 237 236
235 242 244 238 229 229 227 226 214 205 205 202 198 199 195 193 198 212 228 233 235 233 225 225
223 226 227 228 230 232 233 236 242 247 250 249 250 250 248 249 247 248 234 219 219 219 214 215
210 213 216 222 230 237 239 241 248 248 240 231 229 224 217 215 213 212 210 207 204 202 196 191
186 181 175 173 173 172 173 173 172 173 174 176 178 180 184 186 183 186 188 189 191 195 196 198
201 200 197 190 186 191 196 194 197 195 192 188 182 183 188 190 197 198 197 194 195 200 204 204
192 188 183 181 181 183 184 185 189 192 200 211 219 223 222 219 220 222 226 231 239 238 231 220
218 218 220 223 222 218 216 218 223 221 221 220 217 217 219 218 220 217 218 217 207 199 199 204
199 204 164 194 219 216 216 212 207 203 195 189 189 192 188 184 180 177 174 171 168 165 165 167
166 166 166 166 166 168 172 175 174 173 173 173 175 178 182 185 190 188 185 182 179 178 178 178
176 165 170 113  75  81  78  82  83  80  85  85  87  87  66  49  63  54  69  67  63  81  78  60
 69  59  53  76  58  76  58  86  80  81  82  77  75  79  78  82  79  95 200 209 210 205 209 196
193 189 183 177 173 168 165 163 161 160 160 158 157 160 167  70   7  19 138 164 163 166 174 181
179 177 176 176 177 176 176 176 178 179 179 178 177 176 174 171 179 173 175 176 171 173 178 179
182 186 183 181 185 189 188 183 182 167 158 152 188 159  54  37  60  52  54  46  37  68 133 135
135 121  89  65  94  83  31  56  54  27  26  40  36  25  17   5  14  17   9  17  31  26  11  29
 43  61  53  44  49  43  42  45  28  15   7   6   3   2   2   3   8  23  37  22  10   8   2   5
  7   9   3   5   3   4  30  44  51  27  12  11  33  43  49  54  37  12   8  10   8   5  16  19
 22  27  12   4  13   9   4  11  21  44  47  38  36  38  19  16  23  23  23  26  27  30  36  27
 22  17   9  19  28  22  19  25  28  37  47  45  26  34  31   9  21  18   7   2   0   0   0   0
  1   0   4  14  23  14   1   4   2   5  14  12   6   4   0
188 185 183 183 186 192 205 216 230 232 236 239 239 240 239 241 243 245 248 246 239 234 231 231
231 241 233 218 221 220 216 217 208 201 203 202 201 203 200 199 207 214 229 238 242 239 231 234
229 228 229 229 229 230 230 228 236 245 250 249 250 250 247 247 248 246 231 216 212 209 205 205
203 208 207 212 224 233 236 242 243 246 242 236 233 227 219 214 218 216 212 207 204 202 198 195
189 182 176 173 173 173 172 172 167 168 169 171 174 177 181 184 186 188 191 194 194 195 198 203
206 207 206 198 190 192 197 198 195 197 194 188 185 186 188 190 196 196 195 194 199 203 203 200
195 192 189 188 190 194 198 199 201 203 204 204 205 209 215 218 224 226 230 237 242 240 229 219
216 220 224 227 226 224 222 221 226 224 224 223 221 221 217 209 199 196 199 204 200 195 198 202
199 202 156 177 213 216 215 211 202 192 183 183 186 183 179 177 175 173 171 168 165 162 162 163
164 163 163 164 165 166 171 178 176 174 173 173 174 175 176 176 175 173 171 170 168 167 165 165
162 156 160 117  79  92  83  79  84  81  84  84  84  85  77  71  85  77  84  79  78  89  85  73
 80  85  75  79  69  90  79  82  85  85  86  80  82  81  80  76  76  87 211 209 204 202 201 197
190 183 176 171 168 164 161 160 156 156 154 153 155 156 166  75  13  19 134 160 158 163 168 174
174 174 174 174 175 174 172 170 171 173 171 169 169 169 172 178 176 176 175 173 170 170 177 187
185 188 188 183 181 182 181 185 164 121 157 151 165 116  37  48  32  37  39  33  44  29  48 115
102 137  96  45  72  61  38  28  52  25   4  11  27  21   9   9   5  16   9  23  41  27  25  57
 56  46  43  40  42  35  41  35  20  11   5   7   5   4   3   2   4  32  37  18   8   5   1   3
  9  11   3  10   2   6  41  43  30  14  21  21  26  34  39  29  22   6   2   2   2   0   8   9
 16  21  16  10   9   5   3  21  25  36  47  39  34  40  24  29  25  22  30  51  53  29  17  14
 31  28  27  23  23  19  16  19  36  49  50  48  32  35  38  23  22  15   6   4   0   0   5   0
  1   5   4  12  16   8   2   4   2   5  12   7   4   5   2
185 183 183 185 188 191 197 203 215 219 224 227 229 228 228 226 229 235 240 242 236 229 225 223
230 233 220 203 216 221 228 231 217 206 202 202 204 204 203 209 215 216 228 239 242 235 228 234
238 233 233 234 231 232 232 227 233 245 250 248 249 250 248 246 245 241 226 213 209 206 203 203
204 209 207 210 225 235 237 245 244 247 246 244 243 238 229 221 223 219 215 210 206 203 200 198
191 185 179 176 176 175 173 171 168 168 168 170 172 175 180 184 187 190 193 195 195 194 201 209
216 220 220 209 197 195 201 203 202 203 199 193 190 188 190 193 197 197 197 195 196 199 201 200
193 192 193 194 199 205 208 209 209 206 201 194 191 197 209 219 226 228 232 236 238 235 227 219
215 220 225 225 225 226 228 228 228 226 225 223 222 224 219 208 187 186 188 187 187 191 194 192
193 200 153 161 201 205 206 207 195 190 185 183 180 176 173 173 169 167 165 164 162 160 160 161
161 161 161 163 164 164 170 177 176 174 172 172 173 173 172 170 167 165 163 163 162 160 158 158
157 160 164 123  52  72  77  75  75  75  76  74  74  74  74  79  72  68  71  68  69  77  75  74
 73  70  70  70  76  72  73  71  70  68  69  67  71  65  77  75  69  86 197 201 200 200 192 193
183 178 172 167 165 162 160 157 154 156 155 154 155 152 159  73  14  18 133 165 160 165 171 175
175 176 175 172 173 174 174 171 170 171 169 172 179 178 176 178 180 178 179 178 174 177 182 185
183 183 181 186 191 186 181 174 148 127 127 147 138  62  73  41  39  33  28  36  38  40  60  84
 79  58  99  48  30  51  36   9  21  17  10   7  10  20  17   8  15  23  30  41  39  30  26  34
 53  34  36  42  40  37  38  22  21  13   7   6   2   3   4   6   7  24  26  23  15   4   2   1
  7   7   1   2   3  25  53  33  18   8  18  23  22  29  43  23  17   9   7   6   5   0   3   4
 11  14  17  17  10   8   7  29  39  39  48  42  34  35  29  38  48  38  30  49  45  27  15  22
 20  13  15  10  10  19  23  27  46  50  37  42  35  33  40  41  31  11   2   5   0   0   0   0
  1   5   1   4   7   3   6   4   3   3   5   2   3   3   1
183 182 182 185 187 189 193 196 203 205 211 215 217 216 214 214 217 221 227 229 227 223 218 215
218 211 204 196 208 222 242 248 232 213 202 203 204 200 200 213 218 221 235 243 239 226 220 232
243 237 237 237 235 236 235 229 237 247 250 247 249 249 248 246 238 232 220 210 206 204 204 204
199 206 204 209 225 235 238 247 249 249 249 249 249 247 239 230 223 220 214 210 207 204 201 199
196 192 187 185 182 180 176 172 168 167 166 167 168 170 176 181 189 189 193 196 196 198 206 215
222 225 227 221 212 211 212 210 208 208 202 199 200 197 199 207 206 208 207 204 200 200 202 205
202 203 205 207 212 216 216 214 208 202 196 195 200 209 216 221 228 232 234 233 232 229 226 223
217 223 226 224 223 225 229 230 226 225 222 220 222 226 221 207 191 185 176 173 176 189 199 200
192 200 155 154 194 194 195 196 187 187 184 179 176 171 169 168 165 163 161 161 159 158 157 158
159 160 162 164 163 164 170 177 177 175 172 172 171 170 168 166 164 161 160 160 159 158 158 160
158 161 163 137  76  89  89  88  90  97 105 116 124 122 119 119 141 145 152 156 160 162 159 160
158 157 150 157 154 150 150 152 151 151 153 151 151 140 175 189 190 191 203 195 190 182 184 174
172 169 165 162 161 159 157 155 154 156 153 152 153 152 163  82  14  18 138 177 172 178 179 183
179 178 176 173 174 175 175 173 174 175 173 174 175 175 177 182 183 175 179 182 175 182 184 170
179 185 179 182 180 178 186 177 149 120 138 142 119  59  53  37  45  28  31  37  41  35  39  71
 68  45  67  45  39  28  28  25   7  10  11   3   1   6  15  12   4   3  19  21  20  31  29  24
 36  34  23  23  37  47  27   9  18  15  12   7   1   1   3   6   9  15  19  28  16   1   3   0
  1   1   2   1   5  31  40  14  11   6   2  13  31  25  34  25  13  13   8   6   3   3   4  12
 17  18  23  27  20  21  20  42  50  46  44  41  34  26  28  33  40  44  37  43  42  38  28  23
 24   6   3   4  13  32  40  42  45  50  34  41  34  26  35  47  30   9   1   3   0   0   0   1
  1   5   3  13  14   5   6   4   1   0   2   2   2   1   1
179 180 180 182 183 187 190 192 192 196 200 203 205 204 204 202 209 211 212 213 212 210 207 205
203 197 196 193 192 203 226 236 224 206 197 199 202 195 195 211 222 226 237 236 225 212 214 233
246 242 238 236 234 233 231 228 242 249 250 249 249 250 247 245 232 226 217 211 206 203 203 202
199 205 205 210 222 233 239 245 249 248 249 249 246 245 240 231 217 213 209 208 208 205 202 200
200 199 195 192 189 187 182 178 175 173 173 175 175 177 183 190 199 201 204 205 205 207 212 217
223 223 224 221 218 217 211 202 195 201 202 205 211 209 208 214 221 225 225 220 213 210 213 217
218 219 219 219 221 222 219 213 210 208 206 208 213 220 226 231 234 238 238 234 229 226 225 225
222 225 226 223 221 221 222 221 222 223 223 224 224 225 220 210 196 180 171 171 176 183 193 199
188 192 154 149 194 190 188 186 182 182 179 175 171 170 167 162 163 160 159 159 158 156 155 156
158 159 163 164 164 169 173 177 180 177 173 171 169 168 165 164 159 157 156 156 156 156 159 164
170 172 180 184 186 190 182 182 186 196 197 200 199 191 187 187 196 202 209 213 214 210 203 203
196 196 187 183 177 180 180 176 172 170 171 167 163 140 179 190 185 192 186 183 182 178 173 170
168 167 165 161 159 157 155 153 152 154 155 156 156 158 173  88  13  20 145 188 180 186 186 188
181 181 179 178 177 177 176 175 175 174 174 173 171 174 181 181 180 184 179 172 176 177 173 176
171 173 173 181 175 176 188 177 156 154 145 134 134  76  34  28  42  42  74  31  29  38  38  64
 98  59  55  36  28  23  26  21  19  21  13   8  10   7  10  21  10  11  25  16  19  28  25  33
 31  26  21  27  34  45  27  15  11  11  13   8   3   2   4   4   8  14  24  27  10   1   5   1
  6   2   4   1   1  13  17   7  14  13  10  23  37  33  35  17   8  12   6   4   3   3   3  13
 31  35  38  40  22  21  26  46  42  39  35  35  36  29  35  37  42  42  44  38  42  33  35  26
 24   7   2   2   8  24  31  33  35  43  31  32  28  24  27  32  11   4   5   3   0   2   2   2
  1   9  14  15  14  12  11   3   0   3   4   2   5   6   8
174 174 174 176 179 183 186 187 186 188 189 190 192 193 195 197 202 203 203 201 200 198 197 197
200 197 192 190 185 190 201 208 200 191 186 189 193 193 194 209 220 218 219 213 204 199 204 223
243 241 235 233 235 235 233 234 247 250 250 250 249 248 243 242 234 228 222 219 213 208 206 203
204 207 209 213 220 230 238 242 250 249 250 249 245 244 243 235 220 215 209 208 208 205 201 199
197 197 195 192 192 191 188 185 188 186 188 191 191 193 200 208 215 217 219 218 217 216 216 215
221 220 218 210 201 197 191 182 182 196 202 205 216 219 217 218 230 232 234 233 231 228 229 230
224 224 223 221 221 222 218 212 214 217 218 216 214 215 221 226 231 235 236 233 229 226 226 225
222 220 216 213 213 210 207 205 213 214 217 216 213 213 209 201 189 178 172 174 172 170 173 174
176 179 146 140 183 179 179 176 179 178 175 171 169 167 165 161 160 158 157 158 158 156 155 156
159 163 165 165 168 175 181 183 183 180 174 169 165 163 162 160 159 156 156 157 158 160 166 174
185 191 193 191 201 196 195 203 196 203 190 180 179 175 183 190 191 196 199 201 201 197 194 192
188 176 175 173 175 166 165 166 165 161 163 160 159 128 160 156 167 170 186 174 172 171 163 171
166 167 164 160 156 155 155 155 156 157 162 164 165 168 183  95  17  24 149 196 184 189 188 191
186 183 181 181 180 178 178 178 178 171 173 175 174 182 183 169 177 179 175 174 180 176 173 179
185 179 190 183 177 188 159 110 139 128 143 130  80  56  71  33  29  45  56  28  38  38  42  33
 41  34  27  20  33  39  25  24  21  34  24   7  10  17  15  14   1   9  22  17  26  25  22  27
 19   8  17  34  36  36  24  17  17  17  15   9   2   2   5   5   4  20  29  26  13   5   5   2
 28  18   1   1   4  12  28  31  33  20  18  16  28  40  35   9  15  19   8   6   7   8   4  17
 33  41  38  40  18  18  24  36  27  23  25  26  37  35  37  38  40  37  46  43  39  18  23  20
 19  14   8   8  12  21  30  28  18  23  15  15  19  28  24  21  12  10  10   4   0   1   0   0
  3  14  19   7   2   9   9   3   5  10   9   3  12  21  22
166 167 171 174 176 179 180 181 186 185 183 183 186 190 193 195 199 200 201 199 196 194 193 192
193 193 182 183 182 188 186 189 185 183 182 182 188 190 193 208 213 205 199 195 194 194 196 205
238 238 234 234 241 245 245 248 247 249 250 249 250 246 240 238 239 233 230 229 222 215 211 206
203 205 208 212 217 227 238 241 249 249 250 250 243 244 244 238 234 226 218 214 211 205 198 194
191 192 191 190 190 191 190 189 187 186 189 192 193 196 203 212 220 224 225 224 223 222 219 214
205 208 207 195 182 179 182 182 187 203 203 199 213 226 228 227 227 229 233 237 240 238 236 234
231 229 226 222 224 226 224 219 214 216 217 217 214 212 210 209 216 222 226 229 229 229 229 228
218 210 203 200 199 197 192 188 190 190 191 190 186 184 181 177 177 175 176 175 173 175 175 172
172 174 144 134 172 165 169 169 171 171 171 169 165 162 163 165 158 156 155 157 158 157 157 156
160 165 167 168 172 182 189 190 185 182 175 168 162 159 157 156 156 154 154 156 158 162 170 181
187 197 198 203 201 214 216 213 209 207 183 172 176 177 184 188 193 197 199 202 204 200 193 186
180 180 176 171 165 167 152 142 149 152 159 157 158 128 164 157 161 159 168 164 168 163 167 158
164 166 166 163 161 163 167 168 174 173 177 178 177 184 202 112  22  29 154 202 186 189 188 192
189 185 182 182 181 179 178 181 175 174 177 163 142 152 174 176 174 140 158 187 175 179 181 149
110 132 162 124 116 161 130  60  82  45  83  96  76  56  56  66  44  31  40  33  40  47  41  37
 27  35  20  26  22  17  19  26  21  24  20  11   5   8  13  15  17  14  13  14  29  35  42  32
 19  14  14  17  41  41  28  31  23  20  14   7   2   6  14  17   1  21  29  24  19  11   1   1
 35  28   3  10  25  29  40  33  38  30  29  17  35  41  21  24  25  24   6   1   3   8   8  25
 34  35  27  37  27  34  37  34  21  15  22  19  32  35  25  28  31  34  40  38  22  13  18  17
 17  16   6   6  11  17  23  13   9  10   6   8  18  35  33  35  28  16   9   2   0   0   0   3
 20  19  25  14   2   2   3   8   8  15  15  11  23  32  22
157 160 162 165 165 168 170 172 178 179 180 179 179 182 185 187 192 193 192 189 186 185 186 189
190 186 183 180 178 179 181 181 179 178 178 180 184 188 190 191 192 191 189 189 190 189 191 197
230 242 234 240 241 248 250 249 247 246 248 248 244 237 234 234 236 239 236 234 233 221 208 205
204 204 207 212 218 226 236 244 247 249 246 241 239 240 239 237 238 234 232 226 215 209 206 198
195 193 190 187 186 188 188 186 184 184 186 187 189 193 198 200 207 208 210 211 210 211 210 209
203 203 199 191 183 179 179 180 186 193 193 195 204 219 232 230 220 220 225 236 244 244 242 242
242 235 230 226 225 228 228 225 219 217 214 212 212 209 206 207 213 218 222 224 224 226 231 237
226 211 200 191 186 188 184 183 183 181 179 178 176 175 175 175 173 172 178 177 175 178 175 173
173 176 147 122 165 163 162 161 166 165 163 163 165 167 165 164 164 160 162 166 165 165 166 164
162 164 168 166 171 177 181 190 185 181 173 166 162 160 158 154 156 153 154 157 159 164 168 167
177 186 190 187 189 206 215 212 210 202 190 181 181 186 191 192 192 191 191 196 196 192 189 181
177 175 171 166 162 160 157 154 154 141 142 152 153 131 149 158 157 158 156 162 161 158 166 162
169 169 172 175 179 182 184 185 197 197 198 196 197 189 209 114  20  25 152 200 184 190 189 189
186 192 191 187 168 182 161 144 116 151 182 144  35  70 128 100 100  61  63 164 176 178 127  78
 42  56  72  49  59  74  77  61  66  21  30  34  44  36  54  53  28  38  48  36  44  36  37  29
 22  22  14  14  15  18  10  11   8  22  28  14  12  16  17   7  24  33  27  18  25  17  22  19
 22  22  22  24  40  30  19  19  10   6  18   9   2   6  17  10  10  22  24  14  12   1   5   1
 23  34  26  39  45  39  30  32  40  17  16  23  35  34  31  23  25  20   8   3   4   2  13  23
 24  25  29  25  24  28  28  30  26  28  31  28  33  21  18  19  22  37  49  39  26  26  23  23
 18  18   9   6   5   6  12   6  10   5   7  18  26  32  36  35  27  13   8   6   3   0   0   2
 19   7  15  11  14  10   3   7   2  11  15  17  27  22  10
154 156 159 160 161 163 165 166 166 171 174 174 174 174 175 174 178 182 185 185 183 180 178 178
185 182 179 179 179 178 178 179 178 177 176 178 181 184 185 186 185 185 184 187 189 188 189 197
226 245 241 239 240 248 249 246 242 243 246 246 243 238 237 238 240 241 235 231 230 221 210 206
202 203 205 210 218 227 235 238 244 247 245 234 224 222 226 230 236 233 231 228 221 215 209 203
200 198 194 190 189 190 189 186 185 184 184 183 184 185 187 189 193 194 194 195 195 194 193 192
191 188 185 183 180 180 179 180 183 189 191 196 204 214 222 218 215 215 221 232 241 242 241 240
239 237 229 220 218 221 222 222 224 220 215 211 210 207 208 213 218 219 218 218 217 219 223 226
217 204 197 188 182 183 179 178 178 177 175 174 175 175 174 173 171 173 175 177 187 188 176 174
173 175 149 122 168 165 164 163 165 164 166 166 167 167 166 166 167 171 174 166 155 155 164 168
163 161 157 173 173 159 163 164 157 169 176 172 160 153 154 158 156 154 156 159 160 162 163 161
163 164 172 176 174 194 202 211 205 203 198 193 189 189 187 185 189 190 188 186 179 173 176 175
179 176 171 164 159 157 155 153 152 147 145 140 137 125 149 151 160 156 156 163 165 166 173 175
180 183 186 187 187 188 191 195 195 198 201 200 197 185 196 121  24  22 148 193 182 187 189 186
187 187 180 200 131 107 111  52  68  94  80  68  76 102  69  40  31  29  39  39 121 149  84  55
 56  51  39  41  44  39  48  48  52  32  37  29  27  32  45  41  37  33  32  25  25  37  42  30
 15  10   6  11  13  11   9  12   8  13  24  23  24  16  16  15  23  31  31  26  22  13  12  10
  9  14  17  29  31  10   9  14   6   8  17   8  11  21  28  26  22  12  29  18   2   9  21  17
 30  48  44  41  29  20  23  32  32  26  21  25  38  36  28   4  20  23   8   6  10   7   5  13
 14  17  22  25  27  30  20  14  14  22  31  25  24  25  23  18  34  45  42  34  26  21  25  21
 19  15   6   9  10   7   4   7   5   5   2   9  26  36  37  40  34  19  11   4   1   1   3  10
 11   8  20  11   8   5   2   8  12   5   3  13  28   8   1
151 153 155 156 155 157 159 161 160 164 167 169 169 170 169 168 170 172 173 172 171 171 172 174
178 177 177 176 176 176 176 174 174 173 174 173 176 178 180 181 180 183 183 186 189 187 190 196
217 246 247 239 239 248 248 243 236 238 243 245 243 241 243 245 243 243 232 225 226 225 220 218
209 208 204 204 211 223 230 231 244 248 243 229 216 214 222 229 233 227 222 220 222 220 218 219
215 210 203 197 195 193 188 185 183 183 182 182 182 182 183 183 181 182 183 183 184 184 185 185
184 181 179 179 180 181 185 189 198 202 202 206 212 216 219 214 210 211 218 229 237 239 239 238
239 238 225 210 207 210 214 220 227 223 215 210 209 207 210 219 219 217 213 212 211 212 213 213
211 199 194 187 180 179 175 174 174 173 172 172 171 172 170 169 169 174 173 176 194 199 185 187
189 186 158 118 165 160 160 162 162 163 163 168 168 169 171 174 179 186 188 179 169 170 170 164
172 177 175 172 160 160 171 174 182 179 173 167 163 161 158 154 156 154 155 157 157 159 160 157
162 162 170 166 163 181 188 199 201 202 200 196 191 187 183 182 177 180 178 175 170 167 174 175
167 164 160 157 155 155 155 155 153 149 143 137 132 124 158 169 172 171 178 185 186 188 193 199
188 190 192 191 189 189 191 193 197 201 198 191 189 186 192 121  22  24 139 195 186 184 181 192
202 157  65 124  92  67  52  47  76  36  31  50  52  59  44  36  20  24  28  26  40  58  72  35
 54  46  28  26  24  24  35  40  45  32  40  45  34  22  24  33  38  31  23  24  16  40  45  29
 15   4   5  14  18   9   9  15  12   7  12  14  16   7   9  15  12  20  24  28  32  41  30  22
  7  17  17  31  19   2   7  13   6  15  20  12  23  29  23  20   7  17  39  36  28  43  46  44
 23  42  49  49  36  32  34  40  24  34  24  25  30  25  25   5   8  22  11  17  28  27  13  15
 24  20  19  15  19  27  24  20  13  16  31  33  20  19  14  14  15  24  18  21  17  12  22  18
 18  15   3   8  14  18   4   5   0   1   1   6  21  34  33  27  28  18  12   5   3   3   0   9
 16  12  22  12   5   1   3  15  21  16  11  16  34  11   6
153 154 155 155 154 155 157 158 160 164 166 166 166 166 167 167 168 167 165 162 161 164 169 173
173 173 172 173 173 174 172 172 173 172 172 172 173 175 177 178 179 181 183 186 188 188 188 194
208 241 250 241 240 247 247 243 231 234 239 243 245 247 249 250 245 242 226 214 218 224 225 227
223 219 209 202 207 221 231 235 241 237 229 218 210 211 216 217 223 218 211 213 223 226 228 234
234 229 220 209 201 195 189 187 184 183 183 182 182 182 182 182 172 173 174 176 177 179 180 181
179 177 178 178 177 181 192 204 218 221 219 222 225 224 226 223 213 212 213 217 223 226 230 233
233 231 215 201 200 203 208 220 227 226 220 215 215 217 219 224 226 225 223 223 224 224 223 221
212 199 193 187 181 179 173 171 169 168 169 168 168 169 169 168 169 172 175 176 189 197 196 202
215 205 175 119 168 164 165 170 171 172 176 186 189 190 190 194 192 192 192 187 186 187 179 165
165 174 191 177 162 178 180 182 176 175 172 165 160 157 155 154 157 155 157 159 159 160 160 156
161 153 159 166 178 179 178 190 197 199 199 195 190 186 181 178 171 175 172 172 171 166 165 162
156 156 155 154 157 160 162 164 163 159 156 156 150 135 174 190 191 189 196 197 194 196 190 193
197 197 196 196 197 197 196 193 194 195 193 191 190 182 191 119  28  23 143 189 186 193 199 170
164 113  45  92  77  39  51  22  30  44  54  50  56  65  50  36  27  29  19  15   8  11  18  33
 42  40  37  19  16  28  31  36  29  26  36  40  37  25  19  26  31  28  22  25  15  30  31  21
 21   7  13  20  20   7  10  14  14   9   7   2   3   1   5   8  11  25  20  13  23  44  17   2
  5  22  30  37  21  14  13   7   1   6  12  14  22  25  14   9  17  27  18  30  47  58  53  44
 38  44  41  42  37  40  33  30  33  26  11  17  33  27  22   9  18  27  10  13  19  28  16  15
 11  11  11   3   3  10   9  10  10   8  27  36  18  19  15  20  31  37  33  35  24  10  13  11
 17  13   3   3   8  31  14   1   4   1   4   7   9  20  26  17  22  16  10   5   5   3   0   3
 15   7  13   7   3   1   4  20   7  11   7  12  21   3   1
157 157 157 156 157 157 158 159 160 163 162 162 162 163 164 164 163 162 162 162 163 165 166 167
169 170 170 170 171 170 170 170 171 171 171 171 172 174 176 178 177 180 181 183 186 186 187 191
203 231 250 244 243 244 243 243 234 235 239 244 248 250 249 248 243 237 219 206 209 216 218 220
222 220 212 202 203 215 225 229 230 223 214 207 207 208 206 204 209 207 206 213 228 233 234 238
241 238 229 217 205 197 194 193 188 186 184 182 179 177 175 174 171 171 171 171 172 173 173 173
173 173 175 177 178 181 193 205 214 222 225 231 230 225 224 220 210 206 201 198 198 203 211 219
211 210 200 195 200 201 205 219 231 232 226 220 224 231 232 231 234 235 236 238 238 237 236 235
219 203 194 188 182 180 173 170 169 168 167 168 169 170 170 169 174 171 180 183 185 199 209 212
228 219 197 132 191 190 193 197 189 190 196 207 211 208 201 200 193 191 189 185 181 181 180 175
168 163 176 186 181 188 176 175 169 172 173 168 161 158 158 160 155 154 157 160 163 168 171 168
164 175 171 171 176 183 190 198 196 197 196 195 192 186 178 172 168 174 169 167 166 160 158 155
159 160 161 163 166 168 174 177 174 182 182 178 168 150 185 194 184 180 186 185 190 201 197 194
195 197 198 198 198 199 197 193 194 188 187 190 185 173 196 130  26  18 135 211 162 168 155 112
 61  56  59  53  52  47  32  38  56  50  52  60  60  53  54  45  44  37  41   8   5  14  15  31
 36  33  38  19  20  23  29  31  22  15  17  18  30  24  21  26  33  29  24  23  22  24  25  25
 20  12  19  21  17   4   6   7   8   7   8   3   5   4   6   3   7  28  12   4  16  38   9   5
 12  24  39  36  18  24  14   7   3   1  12  22  24  25  17  13  23  18  13  38  50  47  39  35
 40  41  42  48  46  46  33  28  23  17  16  24  30  22  14  19  23  30  22  28  24  33  21   7
  8  10  12   8   7  10   7   7   6  10  24  30  15  22  22  22  20  21  24  26  19   9   6  10
 11   7   3   2   0  26  19   1   0   0   0   1   5  17  31  39  29  16   8   2   4   5   2   5
  5   6  14   9   8   5  12  22  11  17  10  27  26  12   6
158 159 157 157 157 158 158 159 159 161 161 161 160 162 161 159 159 159 159 160 161 162 163 163
167 167 168 167 167 167 168 169 169 169 169 170 171 173 175 176 176 180 180 182 185 187 188 191
200 221 248 248 245 241 240 242 238 240 241 244 248 249 247 243 237 233 217 206 208 209 207 208
215 217 215 207 204 208 211 211 212 208 204 203 203 204 204 203 206 205 207 214 226 234 237 239
236 233 228 219 209 199 197 197 188 185 183 179 176 174 172 170 173 172 172 171 170 170 169 170
172 171 171 175 177 179 183 187 195 207 218 228 227 217 209 200 190 190 188 186 185 189 196 201
197 201 204 209 216 217 219 227 235 236 229 222 227 236 238 237 237 238 239 240 239 239 238 237
226 206 196 187 182 180 172 170 169 168 167 167 168 171 172 171 178 174 190 198 200 214 226 223
224 223 214 146 216 218 219 219 212 208 208 211 212 206 200 195 193 186 184 181 176 174 176 177
180 175 163 189 190 186 184 176 177 172 168 165 166 166 160 154 156 153 153 155 162 179 192 195
188 189 184 190 184 200 200 198 196 193 188 185 184 181 174 169 168 176 171 164 161 155 157 160
157 160 164 168 170 171 176 181 183 183 181 183 173 150 189 201 195 193 193 184 177 184 188 191
190 195 198 194 187 184 184 184 184 185 183 182 183 186 196 121  26  17  75 129  76  87  74  71
 63  51  45  54  35  57  50  58  67  53  46  57  49  29  32  34  33  44  29   8   9   2  12  25
 20  27  27  17  26  26  42  32  25  14  13  13  30  25  20  23  28  22  19  22  31  29  31  36
 19  15  17  15  11   3   4   3   3   1   4   2   7   2   3   2  21  34  12   9  27  36   8  10
 21  27  47  37  17  17   5   5   4   3  18  34  30  26  18  17  26  20  15  17  28  29  20  37
 30  39  49  54  46  40  28  34  26  14  11  21  29  28  12  10  18  21  15  19  13  25  26  13
 12   7   6   4   7  12   7   6   8  10  14  22  18  13  15  21  24  16  17  16  14   6   0   5
  5   1   2   2   0  12  15   7   3   9   2   0   5   6  15  36  36  16   7   4   3   5   4   6
  2  15  27  17  13  12  17  14  13  20  10  22  19  20  11
160 159 158 156 157 158 159 160 159 161 161 161 160 159 158 156 159 157 155 156 158 161 163 164
163 164 166 166 166 166 166 167 165 166 168 168 169 171 173 175 177 179 179 181 184 184 187 192
196 212 246 250 246 242 242 241 241 243 244 244 245 246 246 245 237 234 222 212 209 204 198 198
208 211 212 208 204 203 200 198 194 194 194 195 197 199 200 201 207 207 211 216 222 231 236 234
228 225 222 216 210 201 195 193 186 183 180 176 175 173 172 171 166 165 166 165 163 164 165 164
169 170 171 173 174 174 174 173 184 197 210 222 225 217 206 193 183 183 182 182 185 188 193 195
204 214 226 233 238 239 239 239 237 235 228 225 227 232 235 237 238 239 240 241 242 239 236 233
228 208 198 188 182 178 171 170 168 167 166 165 166 170 170 172 176 180 200 211 216 224 227 226
219 221 220 145 222 227 229 226 228 224 217 214 209 206 200 197 192 186 183 182 179 177 177 175
176 186 168 190 189 188 195 185 185 187 188 187 183 180 174 170 167 163 161 162 170 189 204 208
210 148 165 200 201 204 200 201 189 185 177 171 170 170 167 163 170 177 168 158 155 149 151 154
149 156 166 172 173 171 172 176 178 175 169 181 176 147 188 204 190 191 191 187 178 174 188 196
191 199 200 193 184 180 180 181 172 182 185 187 190 195 156  79  28  21  49  51  54  55  53  47
 66  52  66  66  52  62  50  44  44  25  30  51  37  20  18  18  19  13   4   5   8   5   2  18
  6  18  18  14  23  29  44  34  24  28  28  22  29  35  23  15  13   7   9  15  22  25  33  36
 26  23  16  12   8   5   1   2   3   1   3   1   4   1   4   6  14  19   5  13  29  31  11   9
 17  26  47  40  25  13   2   1   2  10  19  30  27  24  15  24  25  14   7   9  27  22   7  16
 45  48  43  29  20  19  12  22  19  17  16  27  22  17  13  13  14  23  22  21  19  25  26  19
 19   9   9  13  18  18   7   4   6   7   6  22  31   9  10  23  19  15  11  16  14   6   4   6
  3   4   0   3   6  10  12  12   0   0   2   5   5  10  24  38  33  10   6   7   3   4   8   9
 11  19  22  12   9   5  10   5  13  18  10   7   6  14   7
160 159 158 157 157 158 159 159 161 161 159 158 157 157 156 155 154 154 154 155 156 160 161 161
161 163 164 165 165 165 166 166 164 165 166 167 167 168 171 172 175 178 178 176 179 181 183 189
192 207 244 250 247 244 245 242 240 243 244 243 241 244 246 248 242 239 226 215 208 198 189 190
192 196 197 195 193 193 192 190 193 192 191 193 196 198 199 198 203 208 216 221 223 231 233 225
224 221 218 214 210 200 191 187 187 182 179 176 174 171 171 169 168 167 165 163 162 163 163 164
162 166 170 170 169 170 172 174 182 195 207 220 228 226 220 207 197 192 184 180 182 188 195 200
204 221 236 239 238 239 239 232 238 233 230 230 231 230 232 239 236 236 238 240 241 237 230 224
228 209 199 190 182 176 171 170 167 166 164 163 165 167 170 170 173 187 206 214 217 217 213 215
219 220 219 138 218 226 229 227 226 225 222 218 212 206 199 192 190 187 185 181 176 176 178 178
180 185 169 183 185 195 204 209 206 202 193 184 178 178 179 178 180 180 181 184 187 195 200 198
170  91 135 131 121 134 173 186 175 174 171 167 166 165 160 155 154 162 154 150 154 151 148 147
147 158 174 183 181 174 169 169 168 176 176 184 179 154 187 189 193 188 184 194 191 181 188 188
191 195 195 191 186 186 187 187 187 186 183 191 182 173 106  59  32  14  38  73  39  31  24  39
 55  67  48  66  57  41  37  47  45  22  37  51  27  15   7   4   3   2   9   1   2   3   5   7
  5   9  20  15  14  24  26  33  30  29  30  39  35  31  17  24  15   4   8  13   8  17  34  35
 35  30  15  11   7   6   0   2   2   5  10   5   8  11  16  12  10  23  18  27  29  26  18   8
 20  27  34  22  16  11  18  18  29  37  31  26  23  20  13  32  42  10  12  36  32  12  35  51
 45  42  22   9  13  25  14  18  15  13  10  33  26  13  13  10  14  25  18   9  14  20  32  38
 26  16  13  16  19  16   8   8   8  20  14  26  41  12   8  10   8  13  11  19  15   0   3   2
  3  10   0   1  20  20  17  15  22   2  13  18   1  12  37  30  32   7   3   7   0   3  12  15
 28  19  10   5   8   2   9   9  21  12   9   6   4   5   3
156 155 155 155 155 155 156 157 158 158 158 157 156 155 154 153 154 153 152 152 153 155 156 157
160 160 163 164 164 164 164 164 162 162 163 163 166 167 170 172 174 176 176 175 178 180 184 188
193 201 240 250 248 243 244 239 240 240 238 236 236 239 243 245 239 237 232 223 210 198 189 184
188 184 185 185 183 184 188 189 191 191 192 193 195 197 197 197 202 219 222 217 226 234 234 236
231 230 226 219 212 206 196 187 184 184 181 181 177 174 174 168 166 165 164 162 162 161 163 163
162 163 164 166 167 167 169 171 178 185 204 219 225 225 224 222 216 216 202 190 191 191 196 211
221 220 232 234 232 225 228 224 229 230 231 225 230 230 228 230 233 230 235 230 231 234 224 219
218 212 198 187 183 176 169 171 166 165 164 163 164 168 176 181 182 190 200 209 211 213 216 219
218 214 222 144 207 226 228 225 222 228 227 222 220 215 203 195 193 188 186 186 182 181 180 178
177 197 178 180 194 197 207 208 202 201 188 181 183 177 184 180 189 192 186 190 195 189 196 174
 93  55 107  72  56  65 123 142 117 124 164 167 159 161 158 155 151 153 156 151 160 159 161 156
152 162 174 178 172 166 161 155 168 167 175 176 164 144 175 189 192 190 193 191 192 178 193 178
175 186 184 186 188 179 183 184 183 182 184 186 150  87  81  73  26  18  38  68  73  44  19  16
 44  37  38  51  43  30  39  59  45  12  37  53  25  10   3   1   2   2   4   5   6   8   8   8
  5   1  12   7  20  21  18  27  24  36  27  28  16   8   8  13  11   9   4   7  34  26  32  30
 27  15   3  16  19   4   5   5   3  10  22  17  13   7  21  24  36  29  20  26   8  14   8   2
 13  35  32  19  22  15  24  19  29  21  23  32  20  19  26  39  48  37  29  19  19  12  38  42
 31  21  10   7   5  30  22  17  19  12  10  27  24  10  14   6  14   9  17   9  10  16  25  18
 18  22  25  26  27  19   5   4  10  25  18  12  25  22   7   2   3   8   6   1   0   2   5  12
  5   0   5   9   5  23  19   7  16  16   8  11   7  25  45  39  29  12   4   4   4   1   1  12
 27  30  10   1   0   0   3  17  17  19  18   1   5   7   7
155 155 155 154 154 155 155 155 157 157 157 156 155 154 153 153 152 152 152 152 152 153 155 156
157 158 159 162 162 163 163 163 162 161 162 162 165 166 168 170 173 175 176 177 180 181 182 185
191 200 232 244 248 249 243 229 226 224 224 228 236 244 248 245 242 233 226 220 210 199 193 191
187 187 189 188 186 189 192 190 194 194 194 193 193 195 196 197 204 224 231 229 234 237 237 239
234 231 224 216 212 211 208 205 195 192 188 189 183 179 178 173 171 167 164 163 163 164 164 165
166 165 167 171 173 173 172 170 177 186 205 219 221 218 221 223 216 220 215 206 202 199 205 220
232 238 234 226 222 211 216 205 212 220 236 231 229 223 225 228 228 230 234 234 229 232 222 219
210 209 203 192 183 176 173 176 176 175 178 183 187 190 190 193 199 198 200 204 211 216 217 216
212 213 228 147 203 232 223 225 229 221 220 226 224 210 205 211 195 193 193 193 191 180 180 185
183 194 181 201 198 213 217 203 203 196 203 197 187 191 193 207 201 196 202 191 195 197 192 168
136  61 101  87  62  67  81  82  79  52  98 166 163 154 159 155 156 155 151 154 161 167 167 168
162 165 169 166 158 155 158 158 164 164 166 164 157 138 169 189 188 185 188 184 184 164 179 172
171 171 163 163 171 171 167 170 179 183 196 163  80  62  53  56  30  14  36  64  64  56  32  13
 12  15  36  41  31  42  53  42  20  15  47  41  25  15   5   2   3   2   2   4   8  11  10   9
  9   6  12  10  21  22  22  32  33  27  24  29  25  17  14   1   9   6   5   7  29  30  27  15
  9   8   5  16  14   1   3   3   9   9  20  11   9   5  20  28  30  18  12  22  17  18  12  10
 12  23  25  23  18   8  19  18  22  17  22  30  28  24  30  35  47  33  17  13  12  13  36  40
 38  14   3   3   9  36  20  18  20  21  19  30  21   9  14   7   7  19  11  10   9  17  30  13
 24  15  10  20  27  20  13  13   9  25  21  20  40  21   1   8  13   8   0   0  11  18  14   9
  6   8   9   9  11  28  19   7  14  11  10  15  17  36  39  32  26  12   6   4   2   0   0  11
 29  27   6   1   1   1   1  13   8  13  16   2   4   3   1
156 155 155 154 154 155 155 156 155 155 155 154 154 153 152 152 151 151 150 150 151 152 153 154
156 156 156 158 159 160 162 162 160 160 160 162 162 164 166 169 172 174 175 178 181 181 182 184
187 193 215 227 240 251 244 222 208 204 202 212 229 243 246 243 240 230 220 216 209 198 191 192
191 191 192 190 187 192 194 191 199 199 199 198 197 197 199 201 209 226 235 237 243 245 242 241
232 230 226 219 217 217 215 212 211 209 206 208 206 202 203 202 187 182 175 171 172 172 172 171
173 174 175 177 178 177 179 181 188 197 210 217 215 213 215 218 212 221 222 220 219 216 220 232
233 233 222 214 215 208 209 203 206 212 214 225 221 211 204 207 210 214 220 227 227 232 224 223
217 219 219 213 205 201 202 202 195 191 189 194 196 193 191 190 184 190 196 201 206 210 211 210
221 216 221 149 196 229 219 229 222 226 227 223 221 220 217 213 214 214 213 202 202 192 196 201
203 200 183 196 209 203 209 211 216 209 212 198 203 197 204 193 201 199 199 197 191 197 207 169
 74  66  66  67  67  57  44  43  80  95 141 167 161 158 162 153 151 154 148 158 166 173 162 162
156 158 156 153 153 160 162 155 153 154 155 158 156 136 154 172 172 173 179 174 175 153 165 166
165 163 155 153 163 176 178 183 192 190 194 140  53  55  38  56  27  16  29  43  45  59  39  16
 14   6  26  36  32  41  38  20  13  29  52  26  23  16   2   1   2   1   2   4   6   7   7   8
 15  14  12  10  19  20  23  31  23  11  21  32  35  29  32  10   5   4   7   4  14  32  31  15
  6   8   3   6   6   8  24  30  24  15  21   9   6   6  11  16  19  13  12  20  28  31  21  10
 18  26  33  35  26  12  16  11  15  15  26  27  27  18  23  25  28  23  15  23  25  29  37  30
 22   4   4   2   8  34  16  17  20  24  25  28  19  14  19  12  13  21  10  19  18  18  20  13
 20  11   3  10  13   7  12  12   7  29  45  38  37  24  14   9   5   2   2   9  17  21  17   8
  2   9   4   8  14  22  13   6  14   9  12  18  31  48  32  25  20  10   5   0   0   0   2  12
 25  23   5   3   2   1   0   9   2   8  14   4   2   1   0
154 154 153 153 153 154 154 155 153 153 153 152 152 151 150 150 150 150 149 150 150 152 153 154
155 155 155 156 158 159 161 162 158 159 159 160 161 162 164 166 171 173 173 175 180 181 182 186
187 189 199 208 220 234 230 211 195 191 191 203 224 242 250 249 246 238 231 226 220 210 204 203
205 200 198 194 192 192 197 197 198 197 198 198 198 199 201 204 213 221 224 229 238 241 236 230
228 229 230 231 229 225 217 211 205 204 202 202 196 191 193 189 182 177 171 167 166 166 166 165
165 169 173 173 174 178 189 202 215 217 221 219 216 219 222 220 221 225 224 226 228 228 225 229
237 225 214 205 205 200 194 202 197 203 209 208 217 208 208 202 200 206 216 227 231 232 227 227
230 225 226 224 222 225 225 216 201 191 185 185 185 180 177 178 183 190 197 199 201 206 209 210
199 210 216 145 182 224 222 220 223 224 225 224 221 219 215 210 203 203 198 183 203 206 208 202
192 196 186 183 209 197 203 205 199 202 198 207 178 167 165 199 204 201 186 194 194 194 196 191
108  24  23  63  58  45  34  45  73 165 194 125 132 144 156 171 169 181 180 181 181 179 170 172
177 170 169 173 173 169 166 161 176 169 169 169 155 132 151 174 165 167 168 171 176 168 170 169
165 168 168 181 185 180 184 196 172 181 149  79  53  63  49  52  26  21  25  31  37  48  28  30
 32  29  35  25  30  46  31  17  17  45  49  22  18  14   9   7   6   6   6   6   4   2   4   9
 16  21  14   9  12  15  18  22  13   9  21  31  33  36  40  21   9   2   7   4   8  34  35  18
  6   7   4   5   7  11  26  32  36  19  14   8   5  16   8  12   5  16  23  13  14  19  21  10
 17  23  20  16  15  13  20  20  14  15  23  22  21  17  19  19  49  41  23  22  22  32  42  32
 13   8  12   9   9  28  15  12  14  16  17  23  24  28  35  29  38  28  16  14  14  15   9  15
 10  12   5  10   9   9  25  20  18  28  38  20  10  10  19  10   4   2   3   3   1   8  19  21
 22  14   0   5   4   5  11  14  11  20  24  21  21  28  18  16   7   2   4   2   3   1   0   1
 10  16   4   1   0   0   0   1   0   3   8   1   0   0   0
152 152 152 151 152 153 153 154 152 151 151 150 150 150 149 149 150 150 150 150 151 151 152 153
154 153 155 156 158 159 160 160 157 158 158 159 159 160 162 165 168 170 172 175 179 179 178 183
188 192 197 203 205 210 206 193 187 188 191 204 221 238 247 248 248 247 244 238 232 230 227 224
225 216 211 210 204 200 203 205 202 199 196 198 200 201 203 205 215 215 215 220 229 233 229 224
227 229 229 230 229 224 218 211 210 210 206 203 194 185 183 179 176 173 170 167 166 166 167 166
164 169 174 174 175 182 198 211 225 229 226 217 212 220 227 225 226 225 221 221 225 226 225 225
223 227 216 208 213 219 213 205 202 195 197 181 144 188 192 198 204 209 216 224 233 234 235 231
231 225 222 224 226 228 224 213 203 193 187 187 186 183 182 185 186 187 189 193 199 203 201 195
199 204 220 143 163 212 214 222 225 221 221 222 219 217 214 208 204 200 192 176 198 205 210 205
199 194 183 192 198 196 199 202 202 205 204 166 125 126 106 166 193 193 202 193 202 163 102 122
 60  37  58  70  48  26  24  43  51 147 151  81  79  60  70 100  94 124 154 159 159 150 150 151
150 136 137 146 137 121 123 137 120 124 149 163 139 106 110 120 112 110  98 104 111 117 106  95
 80  84  91 129 130  99  86  92  77  78  59  43  71  60  36  49  32  22  24  35  38  36  22  37
 44  41  40  21  23  37  23  17  16  52  40  26  16  21  31  22   8   6   6   7   5   2   5  10
 14  23  15   8   9  14  15  15  37  34  24  19  19  33  32  28  18   3   3   4  13  37  30   9
  2   4   4   7   7   7  18  26  30  16   5  10   3  26  15  24  20  16  15   7  12  17  21  11
 17  24  14   9  14  17  20  30  16  18  16  17  15  19  17  20  41  40  31  25  24  27  30  12
  6   3   4  12  20  31  23  13  21  19  18  21  24  28  34  33  29  28  30  21  23  19   8   1
 16  16   7  11  12  14  29  22  34  25  17  14  20  11   8  15   6   2   2   1   0   5  16  20
 16   8   6  20  12  12  22  18  27  37  23  17  15  18  10   2   3   0   0   0   2   3   0   0
  4  16   7   4   0   4   1   0   0   0   4   2   1   4   1
150 150 149 150 150 151 152 153 151 151 150 150 149 149 149 149 149 150 150 150 151 152 153 153
155 154 155 157 159 160 160 160 157 158 158 158 158 159 161 163 163 168 171 175 178 176 177 183
188 199 206 217 213 210 205 199 199 204 210 216 225 233 239 241 247 250 249 244 240 241 241 239
234 225 221 220 215 209 209 210 206 202 198 198 198 198 200 202 205 206 210 217 221 225 227 227
225 221 219 216 215 215 214 214 219 222 220 214 200 190 186 178 173 173 170 168 165 164 165 165
168 171 177 184 191 199 209 217 222 228 227 216 206 209 219 220 222 220 216 212 210 212 214 214
214 216 205 210 181 151 185 225 148 131 158 134  57 119 150 202 223 219 214 218 231 237 237 227
224 221 219 221 221 220 216 210 205 200 197 197 195 190 187 187 192 190 188 187 186 186 186 186
202 192 215 146 158 226 215 222 225 218 217 216 206 199 189 177 193 202 209 201 199 187 191 199
203 203 188 178 205 207 213 216 212 205 181  99  95 101  87  92 101 125 173 161 161 105  37  14
 37  31  49  52  38  25  34  19  29  82  84  76  52  20  34  41  27  43  66  64  65  66  79  82
 73  68  71  73  66  63  67  74  71  66  81  94  84  67  66  67  62  67  62  64  62  72  64  57
 61  57  36  46  48  46  41  41  64  61  53  42  57  62  35  51  34  21  23  25  24  26  28  25
 26  17  23  28  32  38  29  19  29  55  30  25  20  34  39  14   7   1   1   3   5   4   4   8
 14  20  15  10  10  17  17  19  34  37  28  22  19  22  10  12  18   6   3   3  18  32  27   9
  2   2   4   3   1   4  18  35  19  15   7  20   6  26  15  24  34   8   5  15  25  23  26  19
 17  18  12  14  16  12  10  22  21  30  25  21   9  10  10  18  33  32  25  20  18  15  22  10
  1   2   8  28  37  34  29  19  21  20  19  18  19  20  23  27  27  26  18  18  24  17  29  19
 18  14   6   9   6   3  15  21  24  13  13  27  27  12   3   6   3   2   6   7   5   4   8  10
 12   6   5   9   1  18  35  29  26  32  11   7  11  17  11   0   4   0   0   4   9  13   8   6
  9  17   8   6   7  12   7   0   0   1   9  14  12  17  13
148 148 148 148 149 151 152 152 151 151 151 150 150 150 150 150 151 151 151 152 153 154 155 155
157 155 155 157 158 159 158 158 158 157 157 157 158 159 161 161 162 166 169 174 177 178 183 190
199 214 222 236 233 232 229 222 227 230 233 237 239 241 240 239 249 250 250 249 247 242 237 232
220 216 216 215 213 214 214 212 206 205 205 206 202 197 196 198 195 201 211 221 221 221 223 224
226 220 215 210 209 210 212 213 231 238 236 228 214 202 196 183 176 173 171 169 168 168 168 168
172 178 186 197 206 212 217 220 221 222 224 220 206 199 203 208 211 209 205 200 193 193 194 194
192 188 201 203 125  49  70 151 113  80  97  68  54  66  93 119 190 208 211 228 227 234 228 220
218 216 213 211 209 206 206 210 200 196 193 193 191 186 181 178 179 179 179 179 177 179 188 198
193 192 199 140 119 186 156 136 156 136 133 140 127 103  93  92  96 110 131 136 125 106 104 112
161 188 169 116 158 158 155 147 133 133  90  66  57  54  57  51  45  64  78  64  58  46  56  36
 30  28  76  49  20  19  19  19  20  34  43  52  30  21  36  30  19  26  43  53  54  57  66  67
 65  71  72  68  68  76  74  65  76  68  57  54  63  63  53  49  43  56  75  76  69  70  75  76
 59  64  47  27  27  56  49  45  66  51  53  58  55  53  26  51  34  20  19  21  25  20  27  21
 32  34  35  34  36  33  21  11  49  53  23  15  16  26  22   4   7   2   2   4   3   1   3  10
 18  18  17  15  13  19  14  25  35  23  11   5   7  10   6  15  11  11   7   5  25  28  28  16
  2   2   4   3   1   4  12  25  19  19  12  21   7  13   8  14  17   3  12  21  19  27  38  31
 32  24  20  20  10  15  24  35  25  36  35  24  13   7   8  18  36  32  24  33  21  14  17  13
 10  20  36  43  39  30  21  13   7   8  10  12  16  22  22  27  19  16  10  21  24  19  30  24
 10  10   7   6   4   2  10  23  22  19  23  29  10  14  15  10  11   9   5   1   0   0   2   9
  7   9  11   8   3  19  18  10   1   9   6   4   1   4   5   7   3   2  10  19  24  21   7   0
 10  11   1   3   3   6   3   0   0   2  13  22  17  22  17
146 146 147 147 149 150 151 152 152 152 151 151 151 151 151 151 153 153 153 154 155 156 157 157
158 157 157 158 159 160 157 156 158 158 158 157 157 157 160 162 163 165 167 171 175 180 190 203
218 235 238 249 246 247 244 235 239 241 242 242 243 244 242 240 245 245 247 249 244 232 218 210
203 204 204 202 205 214 219 215 215 219 225 227 221 211 206 206 207 213 225 236 234 229 226 225
231 228 224 220 218 215 213 211 226 238 242 236 226 219 215 204 203 199 197 198 201 204 205 205
201 206 213 217 217 214 213 216 214 209 213 215 206 190 188 190 189 187 186 185 186 190 192 189
190 191 194 132  70  65  45  57  77  96  55  40  39  42  53  72  95 157 199 240 219 225 217 222
223 217 209 203 202 197 197 208 196 192 188 187 187 187 185 183 182 181 182 181 170 148 130 122
175 158 134 115  64  91  81  84  94  84  84  86  80  84  90  89  88  80  76  76  77  80  82  82
 84  87  65  37  60  58  68  85  84  87  78  69  53  34  43  40  38  55  50  47  39  32  29  53
 22  25  53  40  31  23  17  14  18  10  33  32  32  31  23  29  18  23  42  61  48  47  51  55
 57  57  62  68  69  68  68  66  54  63  49  38  54  58  40  38  29  36  65  63  54  41  46  40
 25  33  33  12  13  56  56  73  56  49  43  41  47  48  28  40  38  18  15  40  58  15  15  35
 32  36  28  34  38  12  12  49  57  45  21   6   6   4   3  11  12  13  14  15   5   1   6  19
 24  16  16  18  14  17   9  28  39  12   8  14  31  24  11   8   7  13   9   9  39  33  27  10
  2   1   1   1   5  15  22  30  25  20   9  12   4   5  11  15  14   9  12  10  14  49  61  34
 40  30  31  24   1  12  24  23  27  30  29  22  26  19  20  22  26  21  14  37  23  14  12  19
 10  24  42  29  18  20  13   5   9  10   8   9  16  22  18  15  15  11  12  12   5  17  16   8
 11  12  10   3   5   8   7  10  10  22  13  11   2  10   2   5  18  12   2   0   2   2   0   2
  3   8  12  13  15  24  13  10   7   2   4   8   8  13   0   0  20  13  15  16  17  12   2   0
 12  10   1   5   1   0   1   2   0   1  10  17   7   9   3
142 143 144 145 146 147 149 150 151 149 149 148 148 148 150 152 156 155 156 155 156 157 157 156
158 157 157 158 161 159 158 156 158 158 159 159 160 161 163 164 169 170 177 184 187 192 205 220
229 233 240 242 245 248 249 246 245 244 241 236 236 239 242 242 244 245 241 239 238 227 215 212
204 199 198 195 199 208 212 227 232 236 240 237 233 229 219 217 213 222 226 232 233 225 226 230
236 230 229 221 220 224 220 223 227 229 234 244 223 220 217 213 215 221 225 222 221 222 221 216
215 222 220 212 205 198 195 197 195 191 188 146 129 164 181 184 182 183 179 182 183 181 183 186
188 190 126  60  41  42  48  41  38  65  57  29  25  33  37  44  54  64 112 153 225 223 117 137
167 132 184 193 180 160 132 199 193 186 195 164 134 142 147 162 114 123 113 124 111  82  88  88
 98  97 101  90  60  87  86  91  87  84  88  82  88  85  83  85  85  87  83  83  82  84  78  85
 77  70  58  45  38  43  42  75  87  90  86  72  41  26  35  31  29  26  47  40  44  23  18  46
 32  30  25  29  27  25   9  11  14  15  11  28  39  20  13  20  21  24  43  59  49  37  41  46
 40  44  41  46  63  59  53  56  62  53  64  53  59  51  57  67  62  69  51  56  40  39  21  17
 22  21  33  20  28  51  61  58  51  55  44  39  49  40  29  42  36  17  26  39  48  36  24  22
 29  22  20  42  22   2  18  67  55  34  15   4   1   1   3  15  31  24  12  21   1   2   8  16
 24  24  19  17  14  11  11  17  37  27  23  18  29  24  13   9   3   9  19  11  41  17   1   3
  0   3   0   1   4  12  13  22  16   8  11   5   2   7   6  21  34  14   8   7  22  56  41  25
 25  25  32  25  20   7   8  11  19  23  24  19  12  15  29  29  31  21  13   7  14   9  15  28
 26  27  31  22  23  14  22  16  11  19  10   8  12  14  18  14  10  10  11   6   3   4   5  12
 19  14  15  26  35  23  32  33  28  24  18   6   2   7   9  11  14   5   1   2   1   0   1   2
  0   1   2   4   7   8   7   3   3   2   2   5   6   5   5   4   8   8  12  20  10   9   5   1
  1   0  11   4   7   3   0   6   4   7   8  15  25  12   0
142 142 143 144 146 147 148 148 148 148 148 149 149 148 149 152 153 156 157 159 159 161 161 161
162 160 160 161 162 160 158 157 154 156 161 169 173 175 182 189 202 203 205 212 219 225 230 234
238 238 240 242 243 246 248 246 247 246 242 238 237 240 243 244 237 241 244 245 239 227 224 232
219 218 222 219 216 220 209 219 225 203 228 217 219 227 222 228 221 220 219 225 223 219 225 238
230 234 228 232 223 217 227 217 227 226 231 219 215 214 211 212 214 210 214 221 219 211 210 218
221 206 201 192 190 182 185 184 177 157 143  81  89  90 141 179 180 184 184 188 190 188 186 185
188 170  91  52  43  40  39  28  25  33  31  31  33  24  21  35  35  40  46  61 113 123  80  78
 76  88 112 102  92 101  99 114 133 122 126 104  80  79  79  87  75  73  75  76  77  78  78  80
 78  81  84  70  56  87  86  84  91  85  86  83  85  81  80  86  81  76  81  81  77  78  79  74
 79  68  50  40  42  48  39  65  87  83  57  34  27  23  25  16  26  34  51  48  37  24  18  35
 53  40  26  20  22  19   9  13   8  18  12  11  18  18  18  20  35  28  32  37  30  26  27  24
 33  21  31  31  37  41  44  46  51  45  56  48  52  57  64  62  70  77  68  54  54  47  48  48
 31  19  29  31  45  51  53  57  53  44  41  32  52  35  15  41  43  18  29  52  40  21  38  40
 34  17  24  48  18   3  21  50  34  17   6   1   1   2   2   7  19  23  15  16   5   7  10  18
 23  22  18  16  13  11  12  16  18  18  18  12  18  15   8   8   8  11   8  10  20  18   9   4
  7   4   0   4   0   1   8  26  24  13  12   5   3   4   2  12  15   1  11  29  21  26  29  28
 36  31  32  24  21  15  23  30  19  22  19  18  13  13  21  23  32  33  24   6   5   2   8   9
 11  22  23  26  37  33  31  26  17  15   4  10  22  26  30  27  18   8   3   0   0   0   0   9
  7  21  22  28  24  18  14  28  16  13  11   5   2   4   8  16  22   9   1   1   1   0   0   0
  3   4   5   5   6   8   5   2   4   3   4   7   7   6   6   6   8   5   7  18  10   8   2   0
  3   7   1  10   6   3   8  17  12  21  13   7  14  16  10
142 141 141 142 144 146 145 145 148 147 147 148 149 149 150 152 156 157 160 159 159 158 159 159
163 162 163 166 168 170 172 174 180 179 180 185 186 187 199 212 229 234 236 235 235 237 241 241
236 239 246 249 248 247 249 249 247 246 245 242 241 242 242 242 237 242 244 240 236 232 231 235
241 240 244 234 224 222 210 217 193  77 171 211 204 196 159 156 197 197 202 206 206 206 209 221
233 233 235 231 224 219 210 203 201 203 205 207 208 209 203 207 208 209 217 223 221 215 214 219
212 199 200 189 189 183 186 171 127  90  79 100  85  90  71 135 173 170 156 145 139 136 137 135
114 116  66  57  45  32  33  30  29  30  31  32  33  29  26  33  43  45  40  45  70  77  87  81
 84  86  79  83  89  88  92  83  82  76  85  86  79  78  78  78  79  75  82  79  77  83  80  78
 83  84  83  77  59  88  87  81  79  82  85  80  77  82  78  77  78  76  78  79  79  80  84  81
 80  63  46  40  40  45  28  45  81  84  56  21  21  15  19  20  13  31  28  35  34  30  16  22
 41  37  32  18  16  13  12  14   9   9   9   9  16  21  17  19  20  15  16  17  16  19  25  25
 23  25  21  18  10  33  20  29  31  47  46  28  39  51  43  50  62  56  51  46  73  58  53  44
 33  40  60  62  70  70  58  56  51  48  50  31  46  33   7  50  48  19  27  39  25  22  43  42
 38  16  14  34  15   7  11  43  32  10   1   0   0   2   2   5  10  27  23  18  16  16  16  19
 23  23  19  14  14  13  13  16  19  16  14  18  25  25  10  10  12  15   7   8  13  21  13   5
  5   1   0   6   0   3  10  21  22  10   3   3   3   1   0   2   4  11  34  34  18  24  41  32
 22  21  22  19  17  14  22  29  28  27  21  23  21  15  15  17  16  25  23   4   1   1   3   2
  4  20  19  23  35  34  26  25   5   6   7  22  37  39  40  40  26   9   0   0   3   1   0   8
 28  33  17  16  29  30   4   4   6   3   8  10   6   4   9  24   7   0   0   2   1   1   2   3
  0   2   4   5   7   7   6   2   4   4   4   5   6   4   4   6   5   6   8  10   1   1   1   4
  0   7   5  14   4   0   6  13   9  23  18   8  15  20  11
142 142 142 143 144 144 144 144 145 144 143 144 144 146 149 151 154 157 160 160 161 163 165 165
166 165 167 170 175 179 187 191 194 195 197 199 199 200 211 224 232 235 238 236 231 231 235 239
236 235 238 241 237 235 234 233 235 235 237 240 242 241 238 234 228 229 232 239 240 236 236 241
244 244 245 236 229 213 216 223 207  85 170 209 151 105  72  43 170 182 194 192 192 201 212 226
234 230 234 223 219 215 198 202 196 196 194 197 194 195 203 207 204 207 211 215 218 219 210 202
198 193 191 181 180 178 179 172 136  88  63  85  87  65  74  68  87  92  83  78  76  76  76  74
 81  84  56  49  42  33  31  29  22  27  28  22  18  21  25  23  30  37  32  33  56  66  74  82
 81  79  78  82  85  85  84  83  85  80  80  81  80  78  78  73  77  74  71  75  72  69  72  67
 66  63  55  67  54  85  87  86  87  85  81  80  76  86  81  81  78  73  68  78  74  66  67  76
 67  61  65  57  31  30  25  48  73  78  63  32  27  14  11  13  21  24  26  49  33  18  24  44
 30  41  46  21  14  13  20  22  17   7   8   8  12  15  12  18  12   9  10  12  11  13  18  19
 22  11  17  13  57 100  84  20  36  36  24  20  34  37  25  50  55  38  23  35  60  50  39  40
 48  64  70  52  52  58  50  45  48  56  50  29  22  29   9  49  49  16  25  20  24  36  36  44
 43  19  14  34  22  13   7  37  35   8   0   3   3   1   1   4   4  15  14   6  11  13  28  32
 22  25  21  15  15  15  15  16  19  10  10  31  43  39  21  27  12  16  10   3  19  25  13  16
 13   8   1   2   4  21  22  15  20   9   0   4   8   5   4   1   0  24  37  31  32  31  36  20
  7   8  11  12  11   9  13  19  34  30  23  28  30  18  13  16   7  10  12   7   4   1   3   4
  2  16  19  18  26  29  35  34  22  20  17  21  21  17  15  18  26  12   3   0   0   0   0  10
 32  39  34  12  22  15   2   7   2   4   6   1   8  22  16   4  12   5   3   3   0   0   0   1
  0   2   3   5   7   8   5   2   4   3   3   3   2   1   2   3   1   4   5   1   0   1   2   0
  1   7  21  11   4   2   9  16   8  17  21  26  32  25  11
139 140 141 141 139 140 141 142 142 141 142 143 145 146 150 154 154 157 159 159 161 163 165 166
167 165 165 167 171 177 185 191 201 207 212 214 214 215 217 220 220 220 223 229 231 231 235 239
238 229 223 223 223 222 222 220 222 224 230 237 242 240 232 225 223 219 228 241 238 226 225 234
241 238 238 243 254 219 214 198 171  68  83  82  51  33  20  52 183 187 190 193 205 218 223 225
225 225 220 224 215 203 206 196 190 193 200 188 193 192 177 181 202 204 207 210 209 202 197 194
195 192 186 190 180 156 131 136 134  79  52  81  85  62  67  43  57  72  76  79  82  84  85  81
 87  75  65  48  44  37  29  24  21  19  24  29  24  23  25  23  34  25  46  47  20  50  83  77
 75  76  80  77  78  83  80  81  81  82  78  77  76  75  78  73  72  72  68  74  75  71  66  53
 62  64  44  45  53  75  78  84  83  77  79  87  80  80  74  79  67  76  72  64  66  62  67  65
 69  61  76  65  30  26  30  41  39  57  60  33  16   8   9   8   6  10  35  48  19  11  30  29
 27  27  26   6   3   7  11   8   4   2   8   6   5   9   8  14  10   4   4  12  17  19  19  18
 26  35  41  49  70  46  50  68  80  72  59  40  29  49  42  34  46  50  48  66  71  56  46  56
 66  68  61  51  52  58  57  61  53  58  41  23  12  24  20  44  47  14  27  30  37  39  35  48
 40  19  23  36  12  11  15  32  37  13   5   2   2  10  17  18   2   5  12  12  13  13  27  26
 21  25  23  16  16  14  13  15  11  11  16  37  40  33  21  37  12   6  12   6  17  29  17  31
 32  20   3   0   4  27  26  13  24  16   7  13  16  12   8   3   5  27  32  28  33  34  37  15
  8   8   7   7   6   7  17  26  29  25  17  23  27  17  15  19  12   7   5   7   4   2   2   3
  6   8  16  14  19  21  35  29  19  17  17  17  22  25  21  23  17  10   4   1   4  10  17  32
 27  24  21   8  17  20  10   2  10   0   5  19  23  12   5  15  26  12   2   0   0   1   1   0
  2   3   4   4   5   5   4   0   2   2   2   2   1   1   2   5   4   2   0   0   0   0   1   0
  3   0  10   8   6   0   4   7   4   4   8  21  28  16   4
141 142 142 141 140 141 142 144 138 139 141 144 146 147 151 153 158 160 162 164 167 171 173 173
177 174 173 176 181 187 194 200 211 215 216 213 210 210 208 204 207 210 219 228 230 227 231 238
240 238 238 234 225 220 221 222 221 221 225 232 235 230 220 213 212 210 215 222 228 235 240 237
238 230 211 180 152  89  84  72  55  62  55  57  52  35  29  44 189 192 187 194 209 219 223 219
223 219 215 215 210 209 211 203 208 194 192 200 198 200 115 128 208 208 201 193 191 194 183 167
172 168 142 134 118  93  58  57  63  58  71  51  47  60  57  60  66  78  80  78  78  78  80  79
 73  57  68  51  47  33  25  28  18  14  17  23  24  23  22  20  18  29  35  40  25  36  62  79
 83  80  73  76  77  73  74  73  79  82  78  73  70  69  71  69  69  71  74  70  68  64  53  53
 58  79  61  38  51  58  73  80  96  94  98  91  69  64  66  73  83  68  72  62  58  55  84  68
 56  43  58  46  31  32  34  34  40  63  76  53  29  34  40  38  61  70  83  73  77  90  97  98
100  85  78  73  75  74  62  49  39  34  31  29  31  31  27  34  32  35  45  64  82  92 101 108
114 139 140 156  98  42  26  46  53  45  52  64  66  71  72  94 104 111 108 104  95  74  63  58
 57  61  58  54  46  44  41  47  55  53  40  23  16  10  26  45  42  18  26  37  37  31  40  30
 20  24  32  29  14  13  18  29  29  21  14   2   2  19  26  21   8   7  18  24  24  17  27  21
 19  22  21  16  15  13   9  12   8  15  24  32  35  31  24  32  13   1  13  22  12  30  21  27
 27  17   4   3   5  16  13  10  20  14  11  11  13  11   6   3   4  10  16  19  15  21  34  15
 10   9   6   6   3   7  16  28  27  23  15  19  20  15  17  22  14   8   1   2   1   6   5   4
  8   2  12  10  13   9  20   6   0   2   7   8  14  21  17  20  17   8   2   4  22  34  31  32
 11  12  15  16   8  11   6   5   0   4  18  14  12  14  12  14  12   4   0   0   0   1   2   1
  1   1   1   0   2   4   4   2   0   0   0   1   2   2   6   9  12   7   4   2   3   0   8  24
 28  16   2  24  17   3  11  13   7   5   8  17  23  18   9
144 142 140 140 142 144 145 145 149 149 150 153 155 157 161 165 177 181 184 190 195 202 203 203
199 197 194 196 198 203 205 208 201 200 198 195 194 195 195 194 199 205 214 218 216 213 217 223
233 240 247 242 227 217 215 214 216 217 218 221 219 214 207 202 208 211 215 217 215 211 191 161
132 107  80  61  63  52  59  59  74  62  53  56  57  45  24  32 170 195 196 197 201 202 201 181
140 189 211 201 217 212 186 210 152 119 105 136 127 151  76  85 149 170 170 138 108  98  94  88
 83  91  82  82  83  80  55  43  65  70  48  47  56  63  55  63  64  76  78  79  81  80  82  81
 69  49  50  40  36  28  22  22  23  23  22  20  21  23  23  21  25  21  24  43  53  57  66  72
 68  76  74  70  65  65  72  74  64  67  69  68  70  70  70  73  72  72  69  68  65  53  57  83
 99  98  75  49  45  87 156 172 147 116  98  83  71  68  77  86  87 129  98  62  92 104 101  97
 86  82  98  85 101 111 119 124 133 144 150 148 143 164 164 165 154  98  65  68 133 168 152 158
159 154 157 154 149 152 142 133 131 136 128 121 119 114 115 122 126 131 135 140 145 146 149 152
153 150 140 136 113  53  32  38  57  73  79  83  89  81  69 103  89  94  96  99 101  91  75  53
 36  47  46  40  28  38  50  55  44  49  40  24  22   6  17  40  36  23  20  25  29  27  37  21
 15  35  39  32  37  24  18  21  18  20  18   6   5  13  11   6  14  11  11  17  21  17  26  28
 17  17  17  16  15  10   7  10   5  10  22  28  42  40  29  27  11   2  12  27  13  19  17  13
 11   9   6  14  12  11   7  13  11  10  12   6   3   6   1   2   5   0   7  27  25  26  29  24
 10   9   5   9   5   8  10  15  21  20  18  19  15  14  20  22  16  10   2   3   1   7   6   4
  3   2   8  10  12   9  14   5   3   1   3   2  11  22  23  30  18   6   0   4  23  30  20  12
 17  13  10  16   7   5   3   4   2   0   4   5   9  14   7   2   1   2   5   4   0   0   2   6
  4   4   2   1   2   5   4   4   1   0   0   1   3   6   8  10  11  14  18  13  13   6  20  38
 41  27   6  25  16   1  12  13   1   1   3   7  13  14  10
180 176 172 173 177 181 180 179 178 175 173 175 176 181 188 193 207 208 210 212 216 217 215 211
211 207 202 199 198 195 193 191 192 189 188 190 191 190 190 193 196 198 199 200 203 205 204 202
206 211 217 219 217 216 214 207 204 203 204 205 204 201 199 198 190 164 141 122 101  84  74  67
 67  65  68  62  61  63  59  67  63  66  65  60  55  48  32  24 167 202 200 206 217 204 153  71
 52 198 238 224 230 150  75 101  79  47  43  49  36  61  52  29  63  73  79  78  77  81  81  75
 73  72  71  72  75  69  56  46  41  54  38  28  31  42  43  62  70  77  76  77  79  79  82  83
 63  52  48  41  28  22  22  20  23  24  26  26  22  19  19  23  20  16  36  39  49  59  66  73
 77  62  65  66  67  66  60  69  69  79  96 109 112  97  76  70  72  75  65  96  97  57  66  93
 83  59  55  72  41 104 180 170 154  77  45  66  92  88  87  93  96  92  77 114 115 116 113 123
120 108 109  99 156 177 173 169 169 169 160 160 145 145 131 144 134  78  70  66  99 155 151 148
143 153 144 108  66  64  66  65  86 135 153 143 139 137 142 140 138 142 138 136 142 141 133 126
122 118 119 106  86  80  86  88  80  82  81  76  82  72  61  81  79  77  75  87  87  95  93  82
 62  61  50  41  26  35  46  49  42  51  40  29  31  21  14  36  34  22  17  16  31  27  28  42
 45  39  31  25  30  16  21  17  34  29  18   5   1   3   7  18  18  21  17  23  29  18  12  14
 15  15  16  16  15  10   6   8   9  10  22  32  46  34  17  13   5   7   5  10  14   6  14   7
 10  13  12  20  17  15  13  24  15  14  19   8   1   5   0   3   0   8   2   5  18  40  32  23
 15  12   7  13   9  12   8  10   6  10  16  20  14  13  21  21  24  16   9  15   4   4   1   2
  2   6   5   8   8   4   7  10  16   4   2   5  20  28  18  16   7   2   1   2  12  19  20  27
 34  19   4   5  13   0   4   3  12  14  18  13   9   8   4   5   5   3   4   4   2   6  16  22
 17  15  11   7   6   7   5   4   1   1   0   1   3   6   7   7   4  15  24  20  28  27  27  25
 23  19  32  39  31  12   9   1   2   0   0   1   8  14  14
216 214 212 209 203 194 187 183 180 181 178 176 179 183 192 202 209 207 201 201 200 193 193 194
184 184 186 187 190 193 191 189 187 185 185 184 186 188 188 187 190 187 192 191 191 193 196 204
199 203 200 205 209 205 204 202 200 195 193 193 197 197 187 106  78  75  74  70  63  65  71  69
 63  67  69  68  66  65  63  60  66  56  46  39  36  38  30  17  85 128 154 198 171 133  51  22
 37 135 181 173 143  83  43  48  46  27  28  21  26  32  55  51  54  62  67  66  67  72  69  61
 49  47  55  60  73  77  56  45  31  36  26  17  26  25  22  39  67  79  78  73  76  84  84  76
 61  52  55  42  24  17  24  20  26  25  20  24  19  21  18  20  25  20  24  26  30  37  45  56
 66  57  52  67  66  43  69  94 137 131 120 139 135  97  91  57  62  62  58  87  91  77  90  78
 52  42  59  82  48  96 165 153 135  88  95  71 103 115 121 132 117 124 127 121  72  75  79  90
 37  29  10  42 124 143 156 158 178 117  27  36  24  28   7  53 101  47  59  43  54 150 148 146
149 130 108  54   1  65  69  16  45 100 125 137 118 130 141 136 138 135 132 141 128 125 118 117
111 109 109 101  88  79  75  77  73  71  65  67  72  63  61  74  73  73  73  74  76  78  78  76
 87  72  41  41  36  37  34  37  53  50  35  37  29  24  20  40  41  18  22  37  34  40  38  55
 34  16  11  28  24  27  13  29  34  16  12  17   8   2  14  25  11  16  19  21  23  19  17  13
 13  14  15  14  11   7   6   5   7   8  17  39  25  25  19  17   5   6   4  11   9  10   5  13
 11   7   9  19   5   2   9  24  11   7   5   2   4   0   3   0   1   5   0  15  18  17  32  15
 22  34  26  35  28  20  17   3   3   6  16   9   7  13  12  28  24  20  15  11   9   7   5   3
  3   4   9  12   8   2  15  13  27  30   5  20  42  36  23  21  12   7   9  17  21  19  22  29
 16   8  10   9  17   3  10   8  22  20  14   6   1   1   1   1   0   5  15  12   1   8   2   4
  6   7  10  11   8   7  12  19   4   0   0   4   4   5  11  11  17  20  23  25  22  16  13  11
 16  20  38  24  17  17  12   8   1   0   0   0   1   3   3
215 210 204 200 195 189 183 180 179 178 176 174 173 171 173 177 180 183 180 184 189 188 191 193
196 196 195 196 196 194 192 189 191 189 185 184 185 184 184 184 187 187 188 191 194 194 192 191
195 199 200 202 202 199 198 198 189 197 196 199 192 197 189  88  69  71  76  78  77  78  78  76
 74  74  74  71  67  63  59  55  48  48  53  57  52  40  28  20  60 100 100 105  99  77  27  22
 38  42  56  85  72  52  46  46  46  42  48  56  56  52  50  48  55  61  60  53  49  52  53  50
 46  53  39  50  60  49  57  55  39  19  17  24  17  14  15  17  30  58  73  80  81  79  83  76
 55  46  54  34  14  20  15  16  10  19  16  20  17  16  25  14  13  25  24  24  22  28  23  37
 49  51  50  53  63  49  44  90 144 127 101 111 104  76  79  67  81 113 119 120 118 126 134  99
110 108 118 130  69 123 136 115  92 111  96  54  99 127  99  73  53  57  60  35  43  31  44  46
 24  33  24  10  82  65 120 130 128  89  39  52  52  66  45  49  78  58  79  88  77 117 125 124
130 117 108  76  93 156 134 119 122 129 120 120 107 111 118 119 109 120 125 113 127 108 112 118
111 109 108  98  88  85  78  75  72  77  75  69  72  68  62  64  61  65  70  71  69  68  70  72
 78  72  68  50  24  27  27  18  34  36  38  26  28  22  20  38  47  18  20  30  38  41  31  29
 14  13  10  33  27  24  26  13  18  14  13  11   7   8  12  12  14  28  22  16  21  19  17  16
 14  13   9   9   9   9   7   5   6   4  16  39  25  18  14  17  15   7   5  17  25   7  16  26
 13   9  15  16   6   2  10  16   8   5   2   4   6   0   1   0   0  12   7  20  18  25  34  23
 15  24  24  30  22  18  18   5   4   8  18  10   8  13   8  16  19  15   9   7  10  10   5   0
  6   4   2   3   5   2  12  20  19  19  14  11  24  19  32  35  26  27  42  43  20   7  10  14
 16  12   6   6   7   4   7   5   7   5   2   0   1   3   4   1  17  17  13   9   6   8   3   2
  1   0   3   4   4   5  12  19   4   0   0   0   3   8  15  19  26  23  22  22  16  10   7   7
  8  26  44  13   0   8   7   0   1   0   0   1   2   3   2
203 196 190 187 186 183 181 180 182 184 185 185 184 183 186 194 191 198 196 201 209 213 217 219
210 208 208 209 208 201 195 193 189 187 183 182 182 182 183 183 182 184 183 184 186 191 196 196
195 194 194 193 193 194 192 191 197 189 188 189 196 195 198  92  72  74  73  74  80  87  90  92
 88  85  78  70  66  65  64  62  65  64  63  57  46  33  22  20  59  93  83  80  84  72  26  19
 22  13  43  91  72  61  59  48  52  58  54  60  54  54  44  46  48  41  39  43  47  46  42  38
 33  33  28  34  48  51  57  60  43  23  11  11  12  13  12   7  12  34  50  63  73  80  82  73
 60  46  46  35  28  29  42  28  37  51  35  11  18  11  13  17  23  24  19  19  19  24  17  21
 26  40  57  58  51  59  53  64  89  82  76  88  81  58  53  62 101 102  96  89  70  74 122 156
166 192 191 190  70  91 126 102  59  78  63  42  37  33  30  33  36  35  36  30  42  52  54  10
 10  31  12   5  18  77 125 148 125  79  86 105  79  92  95  63  65 123 119 134 130 130 129 125
124 131 114  57 126 160  87  67  51  45  42  45  39  33  32  30  26  30  13  28  77 125 105  97
100  99 101 103 103 100  93  85  79  77  72  73  77  73  68  68  67  65  63  62  63  64  64  62
 68  64  82  68  39  26  23  22  16  18  30  20  22  10  12  41  58  24  21  23  32  33  31  27
 22  30  31  36  20  17  29   8  30  26  14   5   7  14  12   5  12  31  20   7  13  16  13  14
 11   8   5   5   8   8   5   2   5   6  21  31  19   9   8   8   7   6   7  29  37   9  10  10
 10   7  13   9   7   0   7   4   3   4   0   9   9   2   0   1   1  15   5   7   3  27  44  52
 22  18  27  27  19  19  22   5   0   9  22  14   9   9   4   5  12  11   9   6   8  11   9   5
  4   6   5   3   1   0   2  20  15  13  20  14  22  16  23  15  27  25  36  38  18  10  15   9
  7  10   0   3   0   9   7   4   1   1   0   0   0   2   6  10   9   8   8  16  29  22  10   1
  0   0   0   0   0   0   6  10   1   0   0   0   2   3   7  14  18  16  16  18  17  10   6   6
  7  15  25   7   4   5   0   0   3   2   1   1   1   1   0
188 184 181 180 180 179 179 179 182 191 197 198 195 192 200 214 209 216 214 216 219 223 225 223
214 212 212 217 217 211 204 201 195 190 186 183 180 182 182 181 181 185 185 188 188 188 192 190
190 189 194 194 194 198 193 191 191 200 210 209 209 202 192 105  72  79  81  84  91  93  91  92
 88  85  78  71  66  62  54  50  49  53  48  42  37  34  28  20  47  87  92  95  73  60  21  17
 19  18  33  59  60  63  66  64  67  68  58  55  41  47  43  41  36  23  23  38  46  37  30  30
 29  28  30  25  32  53  57  46  16  17  12  16  17   8   7  16   7  19  41  55  71  81  63  41
 39  46  89  51  54  42  49  81 100  95  72  18   9  17  11  19  16  18  20  12  13  19  20  18
 14  11  35  86  95 115 140 116 141 159 132 163 159 127 148 147 137 136 144 148 125  98  97 109
106 107  89  75  37  48  45  32  40  33  32  45  38  37  47  43  42  54  44  57  59  69  52  15
 26  18  29  20  12  50 122 136 133 100  98  95  86  90  96  93  64  93 123 107 121 129 123 122
119 115 109  67 131  79   5   4   5   6  13   7   8  10  11   5  13  10  24  13  22 115 137 118
106 100  93  95 100  99 101 104  98  90  79  74  75  71  70  75  67  64  62  62  65  69  67  65
 68  89 103  99  92  88  76  68  51  51  42  32  18   7   3  27  48  17  14  19  22  21  22  25
 28  25  41  30  26  31  26  18  30  26  13   6  10  10   6   6  21  31  18   5   8  13  13  10
 11   9   7   9  12  12   8   3   4   9  22  19  11   7   9   2   6  11   5  18  20  18  10   5
  7   4  10  10   9   4   5   0   1   5   0  10   8   4   0   2   2  13  14  18  22  44  48  54
 38  18  22  12   5  16  26  14   0   6  22  17   9  12  15  22  11   6   2   2   5   8  10  11
  3   3   5   5   0   8   8  21  27  22  16  22  22  34  23  16  24  15  16  18  15  17  16   6
  9  13   1   5   0   5   2   0   5   6   4   0   0   1  11  22  15  11   2  10  30  19  12   4
  0   0   0   1   0   0   0   0   0   1   1   1   4   1   6  19  22  17  14  15  12   6   1   1
  8   3   6   7  16   7   0   2   2   2   1   0   0   0   0
182 180 177 176 175 175 176 178 179 191 201 205 204 199 204 214 224 231 228 226 228 226 227 223
212 208 208 213 216 212 208 208 199 194 188 182 178 176 176 176 182 180 181 187 191 194 198 200
203 203 207 205 204 207 212 212 215 215 211 203 159 117  94  83  79  89  94  97 101  97  90  89
 88  84  77  70  67  64  61  55  59  60  53  41  39  36  28  20  45  79  74  61  39  36  13  14
 17  14  16  26  59  61  59  69  62  53  52  49  35  32  30  21  28  21  20  29  29  22  20  25
 24  32  27  28  23  38  69  49  17  18  11   8   7   9  16   9   4   5  30  32  45  66  46  31
 26  73  81  27  68  78  74  88  72  69  86  53   2   9  17  10  23  15  20  22  12   7   4   9
 70  87 100 131 141 143 174 158 161 162 137 145 146 137 137 141 119 107  86  65  51  49  43  33
 29  28  28  25  38  43  50  39  40  50  49  37  38  44  51  56  58  68  65  68  77  95  79  16
 48  62  56  54  10  22 112 127 130 105  97  91  93  96  82  74  76  96 119 127 122 119 111 114
123 131  74  47 185 133  71  60  42  51  66  55  55  48  36  14  25  30  44  50  36  72  97 123
128 124 106  92  85  83  89  93  96 104 105  94  85  81  76  71  68  71  73  70  67  67  65  64
 66  80  71  84  91 107 113 110 109 118 107 104  98  97  86  79  79  56  44  41  28  25  18  15
 18  17  43  33  31  23  13  29  24  25  14   5  10  13  17  28  36  29  16  10   8  15  21  13
  8   8   8   8  10  11   9   4   3   6  14   6   9  10  17  10   8  11  10   7  14  34  23  16
 11   5   9  20  13   9   4   1   1   7   2   7   3   4   2   2   5   7  15  26  40  44  26  18
 24  10  18   7   2  11  21  13   6   6  13  12   5   6  15  25  27  10   0   3  10  10  10  12
  9   0   0   4   5  31  32  23  20  22   9  19  19  30  10  12  16  17  15  15  17  17  10   5
  8   8   2   2   0   0   4   5   6   5   5   2   0   2  13  24  19  14   1   5  20  10   6   2
  0   0   0   1   2   0   0   0   1   1   0   1   5   5  17  39  30  19  12   9   6   3   2   3
  2   4   8   2   9   5   0   0   1   2   1   0   0   1   1
179 177 174 173 173 174 178 184 193 200 205 208 209 209 209 213 220 229 228 226 225 223 223 221
217 211 207 207 208 207 205 204 197 196 194 192 187 186 187 190 198 201 212 213 210 206 198 202
201 202 202 209 212 214 213 201 171 133 120 122 144 110  89  98  94  96  96  95  94  94  94  95
 86  82  73  67  65  63  59  56  49  45  36  28  29  25  26  33  56  77  62  32  39  32  15  11
 11  13  17  14  45  50  55  65  58  38  40  42  32  23  28  21  22  23  22  20  23  29  29  25
 24  19  27  31  30  48  67  63  47  46  21  10  12   7   8   8  19  12  32  31  38  56  34  23
 33  72  24  20  64  88 100  67  47  44  63  79  33  10  18  15  32  56  36  17  22  52  68 109
157 152 124  95 102 114 127 107  97  96  74  69  66  52  42  38  32  30  30  36  40  39  41  45
 45  42  43  47  38  38  72  43  47  52  56  47  59  58  56  69  72  79  99 112 113 128 107  28
 45  81  81  78  58  66 105 103 104  64  44  34  34  30  16  19  33  78 125 122 115 129 114 120
 80  84  70  99 150  58  51  56  40  41  41  30  24  15  13   1   5   8  12  29   5  37  61  10
 92 119 123 121 116 105  93  74  84  86  92  95  97  97  92  87  71  73  70  68  68  70  71  69
 64  52  27  44  31  37  57  53  72  78  85  92 100 110 110 105 106 103 102 102  85  88  83  77
 65  58  58  51  45  18  16  40  33  33  18   4  13  26  31  36  29  17   9   9   7  13  23  15
  8   9   7   5   4   6   6   4   5   1   5   3   7   8  17  19   6   5  19   9  24  35  24  16
 11   5   7  23  14   8   1   1   6   8   4   4   0   4  11   9  22  15  19  23  28  23  16  13
  7   9  22  12   5  10  13  10  10   2   6  11   7   4   6   7  26  13   2   5   9   9  11  15
 11   1   6  10   8  32  35  14  13  18  16  25  35  30  12   6   7  16  14  10  14  11   5  11
  3   0   0   0   2   0  11  17   7   5   5   6   5   4   8  14   5   4   1   7  18  12   5   0
  1   0   0   0   0   0   0   1   0   0   0   0   3   6  15  30  19  13   6   4   5   6   7   8
  1   4   6   0   2   0   0   0   5   7   4   0   0   0   1
178 176 174 173 174 176 179 184 201 207 204 201 203 207 206 203 218 227 227 226 224 219 220 220
220 217 214 211 208 207 206 205 205 209 213 214 211 210 213 215 221 219 226 215 211 219 210 211
210 208 197 199 186 168 157 128  87  88  98  86 126 108  99  89  96  97  99  99  97  97  95  90
 92  88  80  72  64  57  48  41  35  38  32  30  35  30  27  33  42  60  60  46  51  29  12  10
  6  12  13  10  41  61  63  65  57  36  26  20  15  12  19  18  17  18  16  17  30  44  42  34
 31  14  27  31  46  55  35  41  61  63  57  71  67  31  36  70  72  46  38  33  32  39  31  25
 33  33  21  44  44  50  68  88  88  65  43  63  66  42  33  33  40  39  95 150 165 178 185 176
133 114  99  79  65  61  54  47  36  32  44  32  36  41  30  43  42  42  38  44  49  43  42  40
 45  46  49  38  41  53  61  66  66  64  69  67  73  83  99 108 122 124 120 129 127 124 116 122
117 119 117 121 123 132 119 127  56   1  17  28  14  21  37  31   1  48 116 110 112  97 118  66
  3   7  46 138 127  27  17  16  23  21  19  17  11   5   8   8   5   8  16  16  21  34  77  52
 84 108 108 108 115 117 123 117  98  84  78  81  84  87  92  98  98  93  84  77  75  72  66  59
 59  58  47  49  35  43  53  36  50  31  38  42  37  54  53  66  72  74  86  96  90  89  94  94
101  71  41  47  48  21  17  22  25  30  18   9  17  27  23  13  15  13  10  11  10  13  19  15
 14  13  10   7   8  10   8   5   5   2   1   1   5   7  14  17  10   9  15   5  13  17  12  10
  7   0   7  21  17   8   5   6  13   6   4   3   1   5  22  20  16  13  13  18   8   5   7  12
 10  20  20  10   6  13  14  19  11   2   4  13  13  12  13   6   4   3   2   2   1   0   4   9
  3   5  14  13   8  16  23   5   5   6   6  10  25  23  26  10  11  11   7   3   3   3   0   2
  5   3   0   0   2   0   5   8   8   8  12  14   9   3   4  10  10   4   0   1   7  14   5   0
  2   1   0   0   0   0   0   0   0   0   0   0   3  10  14  11  13  10   6   2   3   5   4   1
  5   0   1   1   4   0   2   0   6   7   4   0   0   2   4
181 176 175 174 174 175 176 179 182 192 196 196 199 203 203 201 221 229 229 228 224 217 217 219
216 220 221 218 215 215 215 214 215 221 227 227 222 218 216 217 225 220 231 222 221 216 163 129
163 159 135 124 102  91 107  95  91  99  86  91 101  91  85  94  98  97 100 102 101 101  98  90
 79  68  50  35  28  28  30  31  29  34  28  24  34  37  33  30  41  36  44  63  58  35  16  11
  9  13  11  15  46  66  62  70  66  56  35  18  16  19  17  11  15  14  13  18  28  38  44  46
 27  21  17  25  52  45  15  15  26  36  54  80  78  74  96 103  72  46  32  35  29  22  24  19
 33  49  22  16  22  33  58  92  68  60  47  38  53  54  47  40  42 116 173 140 140 110  88  61
 46  44  38  34  28  33  28  31  37  39  43  40  45  38  40  41  38  45  40  45  48  42  46  44
 51  63  60  63  61  54  70  71  75  79  86 102 110 117 124 125 128 125 128 120 124 124 125 125
122 125 128 121 120 118 117 121  63  30  49  39  40  43  51  48  52  65  84  95  97  94 101  98
 77  69  92 166 104  41  35  27  25  27  23  31  27  15  20  14  15  19  16  27  24  29  48  93
 98 111 102 108 113 106 111 112 122 121 117 104  88  78  78  76  88  92  96  95  94  91  86  80
 68  65  51  42  40  40  48  51  65  39  46  53  34  62  28  30  38  16  13  27  41  47  74  90
 90  62  43  56  47  18  11  11  16  23  19  11  11  15  16  14  12  23  23  21  20  15  13  11
  9  10   9   6   7   7   4   0   1   4   3   0   1   9  14  13   8  14   8   6   1   4   1   1
  5   0  11  20  23  13  16  15  21   6   6   4   2   6  30  30  16  14   9  20   7  10  11  11
  5  21  16  14  16  22  14  16  20  10   5   6   2   3   9   2   0   0   2   1   1   3   1   0
  0   5   6   5   9   8  18   7   5   7   6   5   5   9  27  10   9   3   3   2   1   1   2   0
  0   1   0   1   2   0   3   0   4  10  19  20  10   0   4  15  14   6   1   0   0  16   5   0
  0   0   1   1   0   0   0   0   1   1   0   0   5  23  29  17  14  12   4   0   0   4   4   3
  6   2   5   5   3   0   4   0   1   2   1   0   1   7  12
189 197 181 179 176 179 178 175 182 185 188 202 217 220 221 218 221 229 228 224 233 228 225 228
219 225 226 231 225 227 222 222 226 227 233 222 227 222 223 200 195 173 158 126 119 123  93  85
 85  86  85  82  85  92  90  92  87  90  89  88  91  92  90  91  91 102  98  86  80  63  54  43
 33  49  42  38  39  28  23  32  37  31  18  66  75  85  60  44  40  29  26  35  37  34  16  10
  6  12  21  14  46  62  47  49  59  64  65  37  21  15  18  12  18  11  26  19  37  32  41  45
 35  20  35  54  63  40  19  12  29  26  28  63  55  63  69  56  43  42  25  30  20  17  25  23
 36  39  37  20  17  20  35  38  37  43  48  53  57  62  63  61  58  55  44  31  28  32  33  33
 35  39  38  36  36  38  37  37  36  41  43  40  39  43  44  41  44  45  47  50  53  55  55  55
 33  45  58  67  72  78  89  98 108 117 126 130 129 127 128 127 123 125 126 125 125 125 123 122
121 121 122 121 119 115 112 110 106  99  95 100 107 112 114 117 112 121 122 112 109 114 116 113
123 107 128  88  46  43  35  26  19  17  23  15  21  35  24  18  23  24  22  28  44  48  41  36
 92 112 104  99 105 103 106 108 108 107 110 117 121 118 107  95  81  76  74  80  87  90  90  90
 89  88  87  86  78  68  60  55  59  53  51  53  55  52  48  48  47  35  33  38  25  32  36  29
 60  58  39  48  44  17  12   8  26  25  20  12   7   8  14  21  20  24  20  22  29  21   8  11
  4   6   6   5   3   2   2   2   5   3   6   8   5   5   6   1  18  10   4   4   5   4   1   0
  2   0   9  14  15  14  10  19  10  10  10   6  18  35  26  19  19  15  11   6   9  18  39  27
 19  19  18  16  16  16  12   8  13  10   5   1   0   4   7   8   5   4   2   1   2   1   0   0
  0  11  12   1   5   2   6  12   9   8   8   4   2   7   8   0   7   1   5   2   0   0   0   1
  0   0   0   2   1   0   2   6   3  10  13   5   0   0   4   7   6   5   2   1   3   6   5   1
  0   0   0   0   1   0   0   0   2   0   0   0   3  17  27  25  15   8   2   1   4   7   8   9
  5  18  12   4   3   8   2   2   1   7   9   2   0   7  11
207 200 191 194 196 195 198 191 191 195 199 208 219 222 223 224 235 223 224 232 226 221 227 233
229 232 232 232 232 233 217 200 209 223 215 197 163 150 127  99  87  82  83  81  85  91  85  92
 87  89  90  87  86  88  88  89  90  89  87  88  89  83  79  80  86  63  32  28  27  23  26  27
 51  46  52  66  59  47  60  75  84  74  44  84  83  85  55  28  31  17  14  24  22  23  12   3
  6   9  13  15  47  55  35  29  46  46  58  55  58  28  25  26  34  23  35  27  23  32  36  30
 22  16  45  56  54  34  15  23  26  30  23  36  58  36  33  38  49  44  27  28  19  22  30  32
 32  34  36  27  31  37  51  56  53  51  48  44  40  38  33  29  32  33  34  34  36  38  40  44
 38  41  40  38  36  37  38  41  44  43  41  41  43  45  47  47  52  57  62  64  64  63  65  66
 63  74  88  99 105 111 120 126 130 127 125 123 125 127 126 123 123 123 125 125 123 118 116 118
120 120 119 117 114 111 107 105 102 102 104 105 108 110 112 111 115 122 123 115 111 114 115 112
111  99  72 114 101  59  44  32  24  19  14  19  27  28  28  24  26  20  18  22  38  41  27  18
 79 113 104 100 103  99 101 100 103 104 104 104 106 111 117 121 121 113  98  83  71  68  76  87
 88  89  89  90  87  84  81  81  71  62  54  53  55  54  50  48  56  45  45  46  37  38  38  32
 39  44  36  26  36  22  25  20  20  17  12   5   2   6  15  26  15  17  12  14  19  15   7   8
  4   4   4   4   4   5   5   5   5   7   9  14  19  17  13   9  12  13   9   2   1   4   4   0
  2   2   9   9   9   6   1   8  14  11  12  24  47  56  36  21  20  18  18  11  10  21  29  20
 23  17  17  22  20  12   9  13   2   2   2   2   6  11  15  17  20  12   4   1   0   0   0   5
  1   8  10   2   5   1   6  15  18   9   6   6   2   1   3   2   8   2   2   0   0   0   0   0
  0   0   0   2   2   0   1   4   5   8   8   4   0   0   2   2   3   3   1   0   2   3   2   0
  0   0   0   0   0   0   0   0   0   1   2   0   0   8  15  17  12   6   2   1   1   1   4   6
 13  13   8   7  17  29  13   2   0   5  13  12   5   3   4
208 206 206 202 209 202 212 212 210 209 205 205 220 235 231 225 226 226 221 218 214 223 229 233
236 243 232 205 182 156 126 104 118 130 117 109  82  88  83  77  84  86  86  88  87  81  83  92
 88  89  89  90  87  84  86  88  85  85  85  85  88  85  79  78  70  59  29  28  29  33  43  41
 46  45  59  76  71  64  79  91  94  85  37  72  71  71  49  15  17  17  13  10  11  33  48  41
 27  20  13  23  50  47  28  24  21  33  39  53  55  54  38  33  48  33  17  17  32  50  80 100
124 105 112 108  56  14  23  15  29  24  22  21  28  10  25  35  38  35  29  30  30  43  53  56
 59  60  63  57  55  45  39  33  24  24  24  27  32  38  39  39  34  32  36  41  39  32  32  38
 33  37  41  40  38  37  38  37  52  48  48  52  56  57  58  59  67  60  54  55  67  81  92  97
 95 103 114 121 125 127 129 129 126 126 124 122 122 123 124 123 126 126 128 130 126 119 118 122
118 117 114 111 107 104 101 100 101 107 110 110 111 115 115 114 114 117 118 114 112 113 114 113
119  86  49  85  75  34  27  22  21  19  19  59  84  79  79  67  15  21  25  25  24  20  17  14
 57 112 106 104 103  99  99  98  94  98 102 102 100  99 102 106 108 114 122 126 117  99  81  70
 69  73  80  84  88  90  87  85  85  84  81  77  71  62  60  61  51  47  49  49  45  42  43  39
 42  45  37  22  40  38  40  35  37  38  34  29  20  16  15  15  22  17  10   7   7   3   1   1
  3   4   7   9  11   9   4   1   6  11  13  15  19  17  14  17  17  15  10   7  12  18  15   8
  6  11  14  12  14  12   8  13   5  17  23  31  39  30  24  26  18  16  19   9   8  24  18  15
 14  12  11  10   8   7   6   6   7   7   5   3   6   9  12  12   9   8  14  22  19   7   0   0
  5   8  10   5   6   2   5  13  26  16  11  11   4   0   0   1   4   4   4   7   4   0   1   0
  1   0   0   3   5   4   4   5   6   4   3   1   0   0   0   0   0   1   1   0   0   1   0   0
  0   0   1   0   0   0   0   1   0   1   0   0   5   9   9   9   5   1   0   2   3   3  11  21
 19  17  19  17  16  26  16  13   5   7  12  12   4   1   4
204 216 216 204 211 203 208 217 204 198 200 208 217 220 220 230 227 218 224 210 218 206 222 226
197 211 166  97  92  93  90  93  87  87  85  84  85  83  86  84  72  83  88  86  88  90  88  86
 84  83  82  86  86  84  86  85  79  87  89  87  85  77  61  48  51  53  33  36  68  77  83  76
 44  57  55  53  61  68  71  68  80  80  38  78  77  74  55  15  20  21  31  53  64  65  68  65
 57  39  21  30  45  32  27  29  31  35  42  51  54  39  52  36  68 108 136 161 194 187 181 134
 90  71  86 130 106  44  25  15  15  17  28  33   7   7  26  24  55  58  65  67  63  64  54  46
 39  35  29  26  25  26  31  34  31  30  29  31  35  39  41  40  42  39  38  39  34  29  33  41
 36  34  35  37  40  43  47  46  60  58  57  59  61  63  67  70  74  82  92  97  99 100 104 108
119 122 125 127 127 125 122 121 118 121 123 122 121 121 122 122 121 121 123 124 122 117 116 118
115 113 108 105 102 101 100 101 107 110 112 113 114 116 114 111 111 112 112 112 112 112 112 112
117  76  40  33  28  26  31  34  21  20  17  57  82  77  81  72  16  20  24  23  22  18  15  13
 32 107 105 107 104 102 103 101  99  99  99  98  97  98  99 101 106 101  99 105 114 120 122 123
106  94  76  65  65  73  80  80  87  81  76  80  84  82  76  69  68  60  53  41  40  34  39  43
 50  53  50  47  60  64  51  57  58  59  62  59  56  50  44  42  27  18  13  10   6   5   7   6
  2   5   8  11  13  11   9   6   3   7  15  17   9   6  10  13  21  13   8  11  17  19  16  13
 13  17  15  11  11   6   2   8  10  22  21  25  27  15  15  22  20  14  14   6   7  28  17  22
 11  11   8   3   4   8   9   5  18  15   9   3   1   2   3   2   8   4   4   7   5   0   0   1
  0   4   5   3   7   8   9  11  13  11   8   6   2   0   0   1   2  10  14  20  10   0   2   0
  3   1   1   4   7   8   9  10   4   1   0   1   3   1   1   1   0   1   1   1   0   0   0   1
  2   3   3   2   0   0   1   2   0   1   0   0   9  12   8   6   7   3   3   5   5   5  14  26
 14  16  18  23   9   9  14  17  12   5   5   7   4   2   6
211 214 215 209 208 203 204 209 200 198 199 202 213 222 222 222 219 217 209 204 166 191 197 187
130  97  97 101  92  89  99  87  93  88  88  84  91  70  62  50  56  70  85  79  80  87  75  70
 77  74  72  81  84  84  83  72  64  66  72  79  88  88  80  77  86  87  62  50  93  81  79  75
 61  64  44  32  42  58  61  51  54  63  33  71  74  72  62  31  36  55  73  79  71  50  46  60
 71  65  45  42  39  28  28  27  31  28  34  37  44  48  39 122 194 202 200 156 114 111 121  70
 61  55  46  54 110 111  36  17  19  39  47  58  51  64  68  70  68  65  67  58  52  50  42  33
 31  33  37  42  41  37  34  33  32  30  31  35  40  43  43  41  42  42  41  38  34  34  40  48
 35  36  43  49  50  53  57  58  61  65  68  68  71  78  88  94 100  95  92  96 106 116 121 122
127 125 124 124 123 124 122 121 125 123 121 120 121 122 120 116 115 118 119 117 117 117 114 110
109 106 103 100  99 100 103 105 111 112 114 116 114 113 114 118 113 112 112 113 112 110 109 109
110  91  26  28  29  31  18  18  20  21  19  24  29  26  30  30  21  20  18  18  20  20  17  12
 16 101 106 106 104 102 104 102 103 100  99  97  97  98 100 102 100 101 103 105 105 104 104 106
115 121 122 112  95  81  71  66  69  75  83  87  86  84  85  87  83  84  86  79  80  66  59  58
 49  55  63  62  64  63  54  67  79  75  68  67  67  70  69  68  68  58  51  46  37  32  30  24
 20  16  13   8   4   3   3   4   5   3  18  25  11   8  13   8  12  10   7   6   6   3   4   6
  1   2   0   2   6   4   7  14   7  19  14  19  26  21  20  19  13   6   7   3   6  27  19  24
 17   9   4   8   9   7   4   8  12  10   6   2   0   2   2   2   2   2   3   3   3   0   0   0
  0   2   2   5  13  26  28  26  12  12  10   8   3   0   0   4  10  16  17  21  10   0   3   2
  4   2   1   2   5   7   8  10   3   0   0   2   3   1   0   1   1   0   1   0   0   0   2   4
  5   5   4   2   0   0   0   1   0   3   1   0   3   3   2   4   3   1   3   9  11   9  15  24
 15   8   1  20  15  11  17  10  11   8   8   8   5   3   4
195 185 193 195 189 189 196 198 195 198 193 199 207 201 183 161 155 121 126 166  74  90  85  60
 85  88  89  84  87  90  91  85  86  86  75  68  69  62  55  45  46  58  73  68  65  67  61  65
 66  65  62  71  76  79  74  52  48  40  42  60  78  80  82  88  81  88  69  38  80  64  60  59
 56  46  38  35  30  37  55  59  58  63  46  70  73  77  80  65  74  82  74  46  42  43  38  38
 57  72  65  52  34  31  26  12  11  28  29  25  35  30  89 139 102 107 120  92  65  90  92  82
 77  68 102 135 146 147  97  52  67  64  54  54  63  62  56  58  49  52  60  60  62  55  49  37
 33  36  36  41  38  38  35  36  31  30  30  33  36  37  36  36  44  47  49  46  43  43  46  49
 43  47  57  62  57  57  64  68  63  76  91  97  98  97  96  95  94 105 120 129 131 129 127 128
122 120 119 118 119 120 121 122 119 120 120 119 119 119 117 114 117 120 119 115 114 116 112 106
103 101  99  98  99 102 106 109 112 111 112 113 112 116 130 144 110 110 111 112 112 111 110 110
116  91  30  21  21  20  19  21  18  20  22  18  16  16  17  17  19  18  21  17  16  15  17  14
 10  97 109 107 105 103 103 101  99 102 103 102  99  96  94  94  96  97  99  98  96  97 101 106
101 101 104 113 124 126 117 106  81  77  72  72  77  84  86  85  89  88  88  86  88  85  85  86
 83  75  74  48  51  50  59  69  74  68  64  63  65  66  64  61  67  64  67  69  67  65  63  57
 52  48  39  28  19  13  10   9  14   5  11  20  12  13  15   5  10  12   8   4   3   6   6   2
 14  11   5   6   4   2   7   7   5  12  13  14  16  15  16  14   6   2   3   8  13  22  22  22
 14  10   8   8  10   7   2   0   3   4   4   2   4   3   2   0   5   5   4   3   2   3   2   3
  1   3   1   5  14  31  35  31  21  16  11  12   8   1   2  13  20  14  10   9   3   0   1   2
  4   2   1   0   1   2   4   5   3   1   0   2   2   0   0   1   0   0   0   0   0   0   2   5
  6   5   3   1   0   0   0   0   0   1   0   0   1   2   2   2   0   0   7  17  21  18  17  20
 21  13   4  19  16  16  27  21  16  14  14  12   5   3   3
190 185 186 173 184 187 188 188 195 195 190 202 179 123  96  86  85  84  73  58  58  47  42  50
 54  77  90  92  88  85  83  88  83  86  69  59  55  54  44  37  43  58  66  60  50  45  47  56
 54  57  51  55  58  62  63  35  25  22  31  54  79  84  81  82  79  80  67  28  61  53  43  38
 34  33  33  38  31  30  46  59  63  67  69  77  72  68  67  60  63  63  75  51  38  35  29  30
 32  50  56  48  27  24  15   0   5  12  28  31  17  58 115  87  76  98 109 107 124 138  97  82
 91 111 101  81  51  38  39  41  37  23  32  47  58  57  58  56  53  55  56  57  61  52  53  40
 40  42  41  44  40  43  39  38  36  35  34  36  39  43  45  48  48  52  55  57  57  57  58  58
 63  60  66  69  65  70  83  87 105 101  97  95  94 100 109 116 135 129 125 124 124 124 122 119
120 122 122 121 121 121 122 123 120 121 121 118 116 115 115 115 114 114 114 110 107 106 103 100
 99  99  99 100 103 107 110 111 112 112 111 110 112 119 129 138 105 107 110 111 110 111 110 110
117  88  63  34  27  21  22  16  19  17  16  14  15  19  18  18  18  14  14  16  16  18  18  12
 10  89 110 104 105 102 102 103 100 101 102 101 100  99 100 101  93  96  98 101 102 101  99  97
101 103 104 102  97 101 114 128 132 125 111  94  81  74  75  78  81  82  84  89  90  90  88  89
 88  86  94  84  87  75  68  55  56  56  56  60  64  65  63  60  67  67  71  75  75  76  74  69
 70  69  66  62  56  50  46  43  36  23  17  18  18  17  13   8  14  13   7   5   9  15  12   4
 10   9   5   6   4  10  18   9  16   8   6   6   7  12   9   3   4   5  10  26  27  19  30  22
 13  16  13   9   8   7   4   0   1   3   4   4   5   4   1   0   0   0   1   3   4   2   2   4
  2   2   0   3   6  20  22  17  10   8   4   5   6   2   6  18  19   9   8   7   4   2   2   6
  5   4   1   0   0   0   1   2   2   1   0   0   0   0   0   0   0   0   0   0   0   0   2   5
  6   3   1   0   0   0   0   0   2   0   0   0   2   4   5   3   4   6  13  20  22  14   9   7
 19  19  19  18  12  24  31  32  20  15  11   9   5   5   7
185 191 170 131 171 173 154 147 112 125 115 117 105  83  89  85  88  86  70  55  52  38  26  29
 49  71  79  85  85  88  79  79  78  73  55  49  51  43  34  31  33  57  60  58  47  36  42  40
 45  50  43  39  39  49  54  26  18  20  22  38  64  82  84  81  80  81  89  58  59  35  23  29
 31  42  30  28  41  41  39  47  60  57  68  63  56  47  44  44  34  38  70  45  23  27  24  16
 21  32  41  43  25  20  13   5   4  16  22  18  94 150 164 166 197 193 168 150 132  80  52  48
 35  32  25  26  28  36  30  31  33  31  47  58  56  49  46  51  49  52  53  59  64  52  57  42
 36  41  42  48  45  49  41  37  39  37  36  39  43  47  53  58  61  61  63  66  66  64  65  66
 63  62  76  89  92  97 102  98  92  94 102 117 126 128 130 133 124 124 125 124 121 120 118 118
119 121 123 124 123 122 123 123 147 136 122 113 113 116 116 113 114 111 111 109 104 100  98  99
 98  99 101 103 106 109 112 112 111 113 113 113 113 113 106  97 107 110 112 111 110 110 109 108
112  93  42  23  25  25  18  17  14  13  10  12  12   9  10  10  10   8  12  15  15  17  19  13
  7  80 106 100 103 101 102 104 102 101 100 101 102 101  98  95  96  96  95  93  93  95  97  98
 98  96  97 101 103 101  99 100 105 113 124 129 127 113  94  83  71  71  71  80  77  85  83  86
 89  84  85  89  88  91  94  92  78  74  66  59  56  55  54  55  58  59  61  63  67  70  71  71
 73  72  70  69  70  68  66  64  66  60  46  39  43  34  22  22  14   9   6   7   7   6   5   5
  7   8   6   6   5  17  28   9  12   1   6   4   0   6   5   4   0   5  11  33  31  13  32  19
 14   9   7   8   5   0   0   2   0   1   2   2   4   5   4   2   3   0   1   5   5   0   3   8
  6   6   4   9   8  16  13  10   8  12   8   3   3   3   3   8  12   8  16  16  12  11  10  15
  4   4   3   1   0   0   2   3   1   0   0   0   0   2   2   1   0   0   0   2   2   1   2   5
  6   3   0   0   0   1   0   0   0   0   2   2   0   0   4   4   0   2   8  14  15   9   5   3
  8   9  18  12  13  36  24  19  16   6   2   5   6   8   9
159 157 178 114 132 138 108  74  78  66  64  64  69  74  74  73  81  74  69  56  35  27  19  32
 45  55  77  86  80  78  74  61  65  64  57  56  46  34  33  33  33  50  55  47  43  40  42  48
 56  57  48  41  42  35  22  18  15  13  16  31  57  66  75  63  77  90  94  60  43  29  20  18
 20  18  12  17  24  44  55  61  62  67  61  52  31  28  26  26  26  36  40  22  13  22  25  28
 26  31  30  33  32  18   5   9   5  16  28  95 191 181 184 180 140 103  77  52  26  23  30  29
 35  37  33  34  41  40  36  41  45  45  45  55  51  53  49  42  44  45  45  50  56  55  51  48
 48  41  49  49  53  50  48  39  44  42  39  44  56  64  66  66  74  70  65  62  64  69  76  80
 92  97 100  96  90  91 101 111 121 128 131 128 124 124 124 122 117 117 118 118 119 121 121 121
122 121 119 116 115 120 130 138 118 118 117 116 115 115 113 112 110 107 104 101  99  97  95  95
 97 103 105 107 109 110 109 112 107 117 111 112 113 108 110 109 109 110 110 110 110 110 109 108
113  76  15  12  13  13   8   6   6   5   4   5   5   4   4   3   2   3   2   2   2   3   4   5
  9 111 114  94 101 102 101 103 104  99 104 105  97  97 101  99  99  99  98  98  97  95  93  92
 93  94  96  97  97  99 101 102 103 100  99 102 111 120 129 131 118 104  84  74  74  76  75  74
 84  84  85  87  88  86  85  87  91  91  90  88  86  81  73  69  58  53  49  49  54  60  63  63
 70  67  65  67  68  68  69  68  73  69  66  63  62  63  59  51  50  41  35  31  27  19  15  14
 17  18   9   6   3   5  17  20   7   3   5   2   1   7   6   1   5   0  13  26  25  13  18  15
 14  23  18   7   6   5   0   0   6   7   5   2   5  11  11   7   3   1   3   0   4  11   8  14
 31  16  11   7   6  12  10   6   5   1   3   3   2   4   2   2   4  10   3   9   9  17  23  20
  2   0   0   2   1   1   2   0   0   0   1   0   0   1   5   8   1   0   0   1   7  13   9   2
  4   2   0   0   0   0   0   0   0   0   0   0   1   1   1   2   1   1   2   4   5   6   6   4
  4  12  24  18  15  21  15  12  11  17  23   5  11  13   8
130  75 106  95  75  62  65  71  82  66  58  55  58  67  69  70  72  76  68  55  33  29  28  29
 43  51  65  80  78  63  57  58  55  50  55  58  41  29  34  31  34  46  55  50  41  43  52  59
 59  55  56  53  42  42  42  27  22  31  40  53  59  51  50  45  58  54  54  63  52  49  39  54
 60  56  51  50  63  71  65  54  56  51  49  39  18  15  24  26  21  28  34  29  26  24  22  24
 16  24  25  30  38  36  39  53  65  66  65  80  87  69  72  55  55  50  55  47  33  36  40  36
 31  27  33  44  45  43  42  41  48  49  49  53  52  52  49  44  52  47  42  50  48  50  48  56
 45  50  58  56  52  50  51  42  50  48  46  51  64  67  62  56  69  64  65  77  91  98  99  99
103 103 104 107 112 119 125 131 127 125 122 120 121 122 119 113 118 118 118 119 120 121 120 119
117 118 118 117 116 115 115 116 116 116 115 114 114 112 110 109 105 103 100  98  97  97  97  97
104 104 105 107 111 111 112 113 115 108 107 108 111 110 105 103 108 109 110 109 109 110 108 107
114  80  22   4   2   3   8   3   5   3   2   3   3   2   1   1   0   1   1   2   2   1   0   0
  6 117 158 122  94 101  97  94  97 100  99  96  97 102 100  93  98  98  97  97  97  96  94  94
 93  94  95  95  95  96  97  99 104 102 100  99 100 100 100  99 121 127 130 121 101  83  75  73
 68  71  76  81  85  85  87  90  85  86  85  84  84  89  91  90  89  84  74  67  63  59  54  51
 57  60  63  67  68  67  66  66  68  66  65  67  69  74  76  73  69  67  62  57  54  53  46  39
 29  27  18  18  13   5  11  14  17   7   3   7   4   0   2   5   0   3  24  34  26  13  15  13
 19  23  14   4   7   7   2   2   4   2   0   0   3   4   4   2   2   0   2   1   6  13  19  26
 27  16  10   5   2   4   6   9   8   5   4   0   0   0   3   2   0   6  14  18  21  21  16  10
  5   1   0   1   0   0   1   0   0   1   1   1   2   3   3   3   1   1   0   0   5  10   7   1
  2   1   0   0   0   0   0   0   0   0   0   1   0   0   0   0   0   2   3   8  14  11   5   4
 19  24  16  19  14   5  11   8   4  14  24   8   9  10   8
 98  62  51  52  50  35  46  79  81  60  46  40  48  61  65  66  68  55  49  58  30  17  28  31
 40  56  63  72  68  47  40  45  42  51  48  45  42  38  38  37  36  28  24  25  32  49  65  70
 82  87  97 105  98  94  88  61  50  70  77  85  97 117 130 130 126 127 147 157 155 145 137 139
135 136 140 136 137 118  94  65  26  21  30  31  20  19  27  22  19  21  18  24  29  24  24  31
 42  52  61  68  75  71  68  71  57  62  56  58  50  57  61  59  63  57  58  50  36  33  35  41
 42  27  35  49  43  40  45  41  50  51  50  49  56  55  49  43  26  45  50  49  33  52  57  56
 49  54  54  63  61  58  62  55  62  67  66  60  54  54  60  72  85  91 100 103  95  88  97 112
123 123 124 124 124 125 126 126 122 120 117 116 115 116 115 114 119 119 120 120 120 120 118 117
116 115 113 113 114 114 112 111 114 113 113 112 110 108 105 103  99  98  96  95  96  98 101 102
106 105 108 111 111 110 111 109 112 108 115 107 103 110 107 108 106 108 108 107 106 107 106 104
115  71  12   2   3  10   9   1   2   0   1   0   0   0   1   3   2   1   1   0   0   1   1   1
  1  91 137 153 118  89 101  98  93  98  98  96  96  96  96  99  96  96  96  96  97  97  96  96
 91  92  92  92  92  92  92  93  94  95  98 100 101 101  99  98  95  96 103 117 132 133 122 110
 84  79  74  71  70  72  75  79  84  88  89  85  82  83  86  88  88  88  90  89  87  83  77  71
 61  58  56  55  54  57  63  68  68  65  66  67  66  65  65  63  65  66  68  69  72  73  66  57
 55  53  49  50  43  29  24  21  19  17  10  10   5   0   4   3   9   7  17  22  23  18  17  10
 16  17   8   3   4   4   2   5   2   0   0   4   4   3   0   0   0   0   0   3   6  14  28  30
  8   5   3   0   0   1   5  17  24   3   9   4   8   2   0   5   4   7  25  23  32  21   8  10
 11   5   1   1   1   2   2   0   1   0   0   1   3   3   2   0   0   0   0   0   3   6   5   1
  2   1   1   1   1   0   0   0   0   1   1   0   0   0   0   0   0   3   5  12  19  14   3   3
  6  10  18  17   8   5  11  24  15  13  14   7   8   8   6
 73  59  39  49  39  37  66  67  79  57  42  37  46  59  63  62  48  56  45  42  32  24  32  50
 40  55  55  57  50  31  28  31  25  37  42  49  49  39  33  31  41  54  70  86  96  97  96  97
 82  92  87  90  95 106 129 135 154 153 146 154 154 149 138 138 126 123 127 111 109 106 113 106
 98  97  98  94  99 107 123 131 113  58  21  12  20  16  17  15  19  27  29  46  62  61  66  72
 74  72  62  56  59  61  59  59  60  59  54  58  58  69  59  62  56  46  44  45  46  45  41  46
 55  37  37  46  42  42  47  43  52  50  49  45  60  60  50  40  38  50  57  56  38  53  64  69
 70  70  63  82  77  64  63  62  59  59  59  69  86  98 102 104 103  99  99 107 115 120 123 126
125 125 127 125 122 119 117 117 115 115 116 116 116 115 117 119 120 119 119 118 118 117 115 114
116 113 111 111 113 116 116 116 112 111 110 108 106 104 100  98  95  94  94  95  98 101 104 106
106 107 111 111 108 109 112 110 105 102 104 104 107 106 101 107 105 106 106 105 104 104 102 100
107  66   5   3   7  14   6  12   1   0   1   2   2   1   1   4   2   0   0   0   2   3   2   2
  1  51  67  94 126 111  73  75  84  82  84  90  94  96  93  90  92  93  94  95  96  95  95  96
 92  92  91  91  90  90  90  90  89  90  93  95  95  96  98  99  99  99  98  95  96 103 115 126
142 126 105  89  79  74  71  70  71  72  76  81  86  88  87  85  85  86  86  84  85  86  89  90
 90  87  81  76  67  60  56  54  44  41  46  53  53  54  58  60  55  51  52  59  65  65  65  66
 67  71  72  69  65  58  51  41  40  42  31  28  17   4   8   2  13   7  11  12  12  12  13  14
 20  22  19  14  10   4   2   5   0   0   2   6   7   5   2   2   2   1   0   2   1   8  21  15
 10  10   8   3   2   0   1  15  17  12  34   0   0   8   1   5   2  18  29  18  20  17   6   2
 14   6   2   1   1   2   2   0   0   0   0   0   2   2   0   0   0   0   0   0   1   2   2   0
  1   1   2   2   2   1   1   0   0   1   1   0   0   0   0   0   4   6  11  16  15   9   5   4
  0   6  23  12   3   5   4  16  18   6   4   7   8   4   3
 73  39  35  48  28  32  72  77  75  63  56  52  50  55  55  56  46  42  48  45  25  24  26  34
 30  50  54  47  37  33  35  23  34  24  34  49  43  57  94 108  95 100  92  87  96  94  94 109
129 142 153 167 173 161 152 143 127 119 108 109 106 107 100 103  94  84  70  70  55  56  47  40
 37  37  36  37  29  33  42  57  97 124 113  56  32  40  56  50  61  69  64  63  61  55  53  48
 53  55  55  58  65  69  66  62  63  54  62  62  52  57  49  46  52  52  50  49  59  64  49  38
 53  44  36  37  45  50  48  45  51  50  50  42  57  62  55  48  60  63  69  66  61  67  71  59
 52  53  42  56  51  42  51  60  68  84  98 103 102 100 104 114 119 124 130 129 125 123 125 128
121 119 116 118 120 120 117 114 116 114 114 117 121 121 119 117 118 117 115 114 114 113 113 112
113 114 114 115 115 114 113 111 109 108 106 104 102 100  97  95  94  95  97 100 102 105 107 108
109 110 110 106 104 108 110 108 104 127 118 102 103 103 104 104 104 104 103 102 101 101  99  96
105  70   0   3  17  27   0   2   0   0   0   0   0   0   0   0   1   1   3   5   5   5   3   2
  7  47  53  53  86 124 109  79  64  62  71  79  78  83  88  81  89  91  91  92  92  92  93  94
 92  92  91  91  90  90  89  89  88  89  89  88  88  89  92  94  92  93  95  95  96  95  95  96
 95 110 127 134 124 104  86  78  70  67  68  71  72  71  76  84  86  87  86  84  83  82  82  83
 83  84  87  92  91  88  84  80  61  53  51  50  44  41  42  46  51  51  56  65  67  64  64  65
 62  65  65  62  62  64  62  59  59  55  48  55  43  24  28  29  26  17  20  27  32  29  16  14
  8   8   7   7   5   2   0   0   0   2   4   4   5   5   3   0   0   3   3   7  10  20  30  15
 12  11   8   3   2   0   0  10  16  18  30   0   0   9  10   3   8  26  25  28  21   8   1   4
  9   4   0   0   0   0   0   0   0   0   0   0   1   1   1   1   0   0   1   0   0   0   0   0
  0   1   2   2   2   2   1   0   0   0   0   0   0   0   0   1  15  14  23  26  14  12  16  13
  9  17  10  10   7   0   6   0   5   5   7  12   8   5   4
 73  37  29  24  37  60  67  82  58  57  64  58  48  45  44  50  43  31  47  60  50  48  33  28
 39  34  34  30  17  11  20  36  37  43  50  54  54  65  81  80  97 111 117 132 158 167 164 172
149 132 122 118 109 101  94  85  97 100  99  84  67  62  43  27  22  16   9  13  11  13  20  24
 28  29  26  34  28  28  25  31  21  38  74 112 120  85  56  53  47  55  54  50  49  54  60  55
 59  61  63  62  61  61  62  62  65  65  66  49  48  55  51  58  55  51  49  47  54  59  50  46
 52  49  33  27  43  53  50  50  52  52  55  44  52  64  62  59  58  65  73  67  63  64  57  38
 21  35  40  57  71  82  96 103 111 108  98  89  87  93 103 116 127 130 130 127 126 126 124 121
121 119 117 115 114 114 116 117 116 117 118 119 119 118 116 114 115 114 112 111 111 111 111 111
113 114 115 115 113 111 109 108 106 104 102 100  98  97  96  95  96  98 101 104 106 107 108 108
109 110 108 107 109 107 102 102 143 157 128 100  99 103 109 106 104 103 102 100 100  99  97  95
 97  68   1   1  24  44   8   2   2   1   1   1   1   1   1   1   2   1   2   1   2   2   2   3
  5  40  51  57  49  78 124 120  86  68  65  70  67  67  77  83  84  86  87  89  89  90  91  92
 92  92  91  91  91  91  90  89  86  87  87  87  89  90  92  94  91  92  93  92  92  92  94  96
101  94  90  99 114 126 130 129 109  90  75  71  74  73  70  71  70  74  81  87  89  88  86  84
 86  83  83  84  87  90  90  92  97  89  86  78  65  51  45  43  50  53  52  49  47  52  54  54
 64  61  63  64  65  64  61  64  58  56  54  61  56  49  57  58  53  39  39  49  56  50  22  12
 12   7   4   5   7   6   5   2   3   5   5   3   3   4   2   0   1   5   6  10  16  27  29  14
  3   2   2   0   0   2   4  13  19  21  17  20  25  11  21   9  19  27  19  30  19   5   2   8
  5   3   3   3   0   0   0   0   0   0   1   1   0   1   2   3   0   0   1   0   0   0   0   0
  0   0   1   2   1   1   0   0   0   0   0   0   0   0   1   2   5   6  15  14   2   3   9   3
  9   5   1   5   7   7  12  15   7  17  12   8   5  11  10
 50  25  26  21  38  76  67  53  43  43  50  47  40  40  45  51  40  67  51  34  43  39  13  15
 22  36  52  58  83 103  77  53  72  98  89  93 136 159 162 171 172 172 163 150 135 120 108 103
105 100 108 103  99  98  89  94  77  40  26  16   7   3  10  20  17  22  24  15  18  10  26  30
 28  27  27  28  30  32  32  31  35  25  22  41  72 100  89  55  60  56  63  61  57  61  61  55
 55  58  64  66  63  61  62  64  63  66  56  42  49  60  54  67  65  56  56  56  55  53  49  52
 48  46  31  25  41  54  54  55  56  54  58  50  54  74  69  65  66  61  59  65  57  49  49  58
 67  82  93  97 104 103  98  95  85  89  95 105 119 125 125 125 125 124 121 119 119 119 118 116
112 116 118 116 113 114 118 123 116 119 120 117 114 114 114 113 112 111 110 110 111 111 111 111
114 113 112 110 109 108 107 107 102 100  97  95  95  96  97  97  99 101 104 107 107 107 108 109
107 109 106 108 112 104 105 123 177 135  98  99 109 103  99 104 103 103 101 100 101 100  98  95
 97  80  37  17  13  18   2   2   4   3   2   2   2   2   3   3  11   8   8   6   9  13  18  22
 36  48  52  57  65  66  72 127 127 104  77  68  75  75  73  77  78  80  84  86  87  88  90  91
 91  91  91  91  92  92  91  90  89  89  88  87  86  85  85  85  89  89  89  91  93  93  92  90
 90  93  97  95  91  93 102 114 127 130 128 113  92  75  70  72  69  69  70  71  74  77  81  85
 84  84  83  85  87  86  86  87  86  86  90  94  90  86  82  81  69  64  51  37  34  40  48  51
 62  60  64  63  64  65  60  65  59  61  61  58  56  61  63  58  56  50  55  56  52  50  28  28
 35  28  23  17  11   7   4   1  11   9   6   4   3   1   2   3  11  10  12  10  13  15   7   0
  5   2   5   2   2   6   7   8   4  22  25  26  22  14  27  17  10  21  18   7   2   7   7   0
  3   3   6   7   2   0   0   1   0   1   1   1   1   1   1   2   0   0   0   0   0   0   0   1
  0   0   1   2   1   0   0   0   0   0   0   0   0   0   2   3   8  12  12   6   3   6   7   5
  3   0   6   2   4  12   9  20  15  25   9   3   2   9   8
 28  23  16  22  22  46  54  52  43  35  35  34  35  45  51  56  94 106  91  71  46  50  72  86
115 145 181 168 123  61  25  60 138 159 160 175 199 176 143 138 119 103  98  98  97 106 109  98
 97  83  65  48  72  89  79  98  64  15   9  17  22  19  19  18  14  22  16  26  26  23  29  39
 27  37  50  44  44  40  43  39  34  29  35  35  18  45  88 110  75  55  56  55  49  55  57  57
 59  58  62  65  60  55  52  48  45  38  47  56  49  63  63  61  63  62  61  52  47  53  51  48
 38  37  32  33  46  57  58  56  60  55  57  55  60  84  74  63  57  59  54  66  66  77  80  92
101 107 110  96  93  85  92 105 121 126 128 129 128 126 123 124 125 123 122 121 118 114 112 114
114 114 116 118 120 120 118 117 121 118 113 110 113 118 116 110 109 109 109 110 111 112 112 111
112 111 110 109 108 106 103 100 100  97  94  92  93  95  98 100 101 103 106 107 107 107 108 109
108 109 103 105 108 102 122 166 145 109 100 102 103 107 103 103 103 102 101 100 101 101  99  96
 95  92  93  87  80  69  60  59  45  40  34  32  31  31  29  31  33  37  42  46  50  52  54  56
 56  66  60  69  71  69  71  78 122 141 118  77  73  78  74  75  74  77  82  84  86  88  90  92
 91  90  90  91  92  92  92  91  92  91  89  87  86  85  86  86  85  86  86  85  86  88  91  93
 94  92  92  94  95  95  94  93  91  98 111 124 135 134 115  92  80  78  74  69  68  69  71  74
 79  79  81  84  84  83  82  84  83  82  84  86  85  86  88  89  93  90  86  82  74  64  54  51
 51  50  53  43  44  58  59  64  65  58  62  65  63  61  57  59  57  53  53  54  55  64  47  48
 54  55  53  41  28  20  19  16  16   9   5   5   4   0   2   6  15  10  14  13  19  18   8   9
  1   1   8   7   3   8   6   2  12   2   4   9  13  21  16  16  17   4  11   7   9   5   1   4
  0   2   8   9   2   0   0   0   0   0   0   0   0   0   0   0   0   0   0   0   0   0   0   1
  0   1   2   2   1   1   1   1   0   0   0   0   0   0   1   2   9  17   5   0   2   7   3   5
  0   5   2   3   7  11  13   1   7  20   8   6   1   0   0
 20  21  15  19  31  39  45  53  45  55  49  29  44  38  26  68  87 100 100 159 198 186 196 198
208 206 134  75  47  65 102 141 145 147 139 126 104 105 101  95  97 100 103 105  99  83  60  42
 24  17  11   8  73  86  80  95  59  21  25  32  34  38  44  43  44  44  44  45  45  41  31  22
 28  35  40  44  46  42  36  36  37  29  33  30  29  23  22  54 102  98  73 101 121 105  59  48
 53  59  63  61  56  47  44  47  48  38  42  52  53  57  63  56  59  48  46  45  45  48  46  45
 37  39  43  51  57  60  62  64  53  57  58  57  60  65  64  58  55  64  77  87  95 103 104 103
 99  86  74  77  94 113 124 128 124 125 125 124 124 121 120 117 116 115 114 113 113 115 115 116
118 119 118 117 120 120 116 114 112 107 116 137 146 133 114 104 109 110 110 111 111 111 110 110
109 108 106 105 103 101  97  95  93  93  92  93  95  98 101 102 105 106 107 108 107 107 108 108
106 107 106 105 104 107 116 125 109 102  98 101 104 104 103 104 103 103 103 102 102 101  99  99
100  99  97  96  94  92  89  87  85  82  80  77  76  72  71  70  73  74  76  77  77  77  78  79
 76  77  78  78  79  78  79  79  81 127 151 132  97  76  77  84  79  86  87  87  90  91  92  96
 93  92  92  91  91  92  93  93  92  91  90  89  89  88  88  88  86  85  85  84  85  85  87  87
 90  90  92  93  93  94  94  94  94  93  92  92  96 108 124 135 128 116  98  82  75  70  69  69
 70  69  72  78  80  79  79  81  83  84  84  84  86  85  84  84  86  85  85  89  95  93  86  79
 72  55  43  41  39  37  44  58  55  60  62  57  54  55  59  59  56  56  55  56  68  65  52  58
 59  50  53  55  48  39  35  27  21  17  12  10   7   5   5   5   8  11  13  14  18  14   7   2
  1   1   2   4   3   0   0   0   6   2   6  23  33  19   6   8   6   5   7   9   8   4   3   6
  0   3   4   2   0   2   2   0   1   1   0   0   0   0   0   0   0   1   1   0   0   0   0   0
  0   0   0   0   0   0   0   1   0   1   3   2   0   0   0   0   0   0   0   0   3   4   1   0
  0   0   0   0   3   5   4   3   5   5   5   3   1   0   0
 13  18  16  17  31  41  42  47  49  42  43  37  27  42  66  74  73 102 129 170 200 201 203 198
188 177 128 112 116 118 119 122 119 105  93  93  99  90 100 106 100  91  76  54  31  13   7   9
 17  17  19  19  82  88  82  92  60  27  32  38  41  41  42  39  43  44  42  39  38  35  27  18
 27  27  28  29  31  31  32  35  27  42  31  25  28  27  29  22  37  79  81  20  32  79  82  42
 54  54  51  51  52  51  50  54  56  38  50  54  54  63  52  48  36  39  51  53  49  49  46  46
 46  57  63  59  56  60  63  61  63  67  68  63  59  61  67  71  90  96 103 103 100  96  88  82
 87  98 112 124 128 126 125 124 124 124 123 121 119 116 114 114 112 113 113 114 116 117 118 118
120 120 119 118 118 115 110 112 124 144 153 134 111 104 108 111 110 111 111 111 111 110 110 109
107 105 103 101  99  97  94  93  93  93  93  95  97 100 102 104 106 107 107 108 107 107 108 107
107 106 105 107 108 105 103 101 102  99 100 104 106 104 103 104 103 103 103 102 102 101  99  98
 99  99  97  96  95  93  91  89  87  85  83  83  83  83  83  84  85  85  87  89  89  89  90  91
 91  91  92  93  93  93  93  93  98  93 126 156 148 122  97  87  99  84  88  95  88  88  94  88
 94  93  93  92  92  92  92  92  92  92  91  90  90  89  89  89  87  86  86  85  85  85  85  85
 87  87  89  90  91  92  93  93  94  95  95  94  91  92  94  96 111 121 133 131 116  97  83  75
 73  71  66  63  67  76  82  81  79  82  83  81  79  79  82  84  87  86  85  83  82  83  87  90
 94  88  80  77  71  59  53  52  49  44  41  45  44  41  43  52  50  57  63  65  67  61  53  61
 58  52  57  61  57  56  59  54  38  35  26  17  14  14  12   7  11  14  16  16  19   9   4   1
  0   0   0   1   2   1   1   1   0   0   5  20  26  17   7  10   6   2   1   0   0   0   1   4
  2   5   6   2   0   0   0   0   0   0   0   0   0   0   0   0   0   0   0   0   0   0   0   0
  1   1   1   1   0   0   0   0   0   1   2   2   0   0   0   0   0   0   0   1   4   4   2   1
  2   0   1   3   4   1   0   1   3   3   3   2   1   1   0
 22  24  15  15  26  31  29  34  41  42  47  75 110 156 192 177 173 193 210 206 197 188 168 152
116 102  76  78 100 101 100  98  91  98  95  89  98  92  87  71  44  25  10   9  15  19  18  18
 16  19  26  25  83  84  85  92  57  27  33  38  37  35  34  32  30  33  31  26  26  29  25  16
 25  24  26  28  29  29  28  30  25  27  30  26  32  38  35  45  31  34  54   2   1   6  95  37
 47  46  45  47  51  47  39  38  43  60  52  55  61  57  58  42  34  38  50  51  49  53  55  58
 61  63  65  65  64  65  66  68  62  62  63  69  79  89  97 101 100 100 100  98 101 110 117 121
122 125 127 126 124 122 123 126 121 119 117 114 113 112 113 113 114 115 117 118 119 119 119 119
116 117 115 113 109 110 125 146 150 121  98 100 108 110 110 114 110 111 111 110 110 109 108 107
104 102  99  97  95  93  92  91  93  94  96  98 100 102 104 106 107 107 108 108 107 107 106 106
106 105 104 104 103 102 104 105  98  98 102 106 105 103 103 104 103 103 104 103 101 100  99  99
 99  98  98  97  96  94  91  90  88  85  83  83  83  82  83  85  84  86  88  90  91  92  91  92
 92  93  93  94  94  93  93  93  91  95  90 120 160 158 129  97  85  90  91  91  93  90  91 100
 95  95  95  94  93  92  91  91  92  92  92  91  91  91  91  91  88  88  87  86  85  84  83  83
 84  84  85  86  87  89  91  92  91  92  93  94  94  94  94  94  91  92  99 112 126 132 127 120
 93  83  77  76  70  61  60  68  68  74  79  83  83  81  81  82  79  81  83  84  84  84  83  83
 80  84  87  89  89  89  87  85  73  64  58  60  57  48  47  53  54  48  47  45  48  51  50  57
 54  54  60  66  64  62  62  55  66  66  57  43  34  30  19   7   7  18  29  18  13   3   3   3
  0   0   0   0   0   0   2   1   0   2   4   7   8   3   2   6   3   2   0   0   0   2   3   4
  3   6   6   2   0   0   1   1   0   0   1   1   0   0   0   1   0   0   0   1   1   0   0   0
  0   0   0   1   1   0   0   0   0   0   1   1   0   0   0   0   0   0   0   0   0   0   0   0
  0   0   0   0   0   0   0   0   2   1   0   1   2   2   0
 31  32  23  21  28  25  29  47  80 115 147 197 224 214 215 215 203 185 167 132  98  83  64  55
 66  73  74  86  95  93  91  88  90  88  87  93  85  65  29  10  13  15  20  23  19  15  18  24
 23  25  29  30  84  81  88  93  61  33  37  37  34  31  30  30  22  24  23  19  21  24  25  21
 16  19  22  25  27  31  31  28  36  19  26  27  25  18  15  43  53   2  34   0   9   9  54 101
113 124 120 105 102 105  93  74  56  45  45  56  61  56  50  48  34  40  56  60  54  53  58  67
 70  70  72  69  63  56  60  67  69  76  89 100 103 105 108 112 117 123 129 132 133 132 128 124
125 125 123 123 125 122 118 113 115 114 113 112 113 114 113 114 118 118 119 119 119 118 117 116
114 117 113 116 139 157 146 123 102 102 107 114 116 111 108 108 109 109 108 108 106 105 104 103
101  99  96  93  92  92  93  93  95  96  99 101 103 104 106 106 108 108 108 107 106 106 106 105
104 105 107 107 105 101 101 102 101 101 102 103 102 101 102 104 103 103 104 103 101 100  99  99
101 100  99  97  97  95  95  93  95  91  87  86  83  82  81  82  83  84  87  89  91  91  91  92
 92  92  92  92  92  92  92  92  94  91  95  87 112 156 156 137 103  89  90  94  88  90  95  91
 94  94  95  95  94  93  92  91  92  92  92  92  92  92  92  92  90  90  89  88  87  85  84  83
 84  84  83  84  85  87  89  90  91  90  90  90  92  93  94  95  94  96  94  88  85  94 112 128
132 128 114  93  83  83  80  71  65  64  64  68  73  77  78  78  81  80  80  81  83  84  83  81
 86  87  85  82  82  86  86  85  85  84  79  76  71  66  61  56  52  39  37  41  48  57  56  51
 59  59  63  62  58  58  58  51  50  56  59  55  53  56  50  40  19  33  41  23  17   9   9   3
  3   2   0   1   0   0   0   0   0   1   0   0   1   2   4   8   0   0   0   0   3   3   0   0
  5   6   5   1   0   0   1   1   0   0   0   1   0   1   1   4   2   1   0   1   1   0   0   0
  0   0   0   0   0   0   0   0   0   0   0   0   0   0   0   0   0   0   2   2   2   3   2   0
  1   4   2   0   0   2   2   0   1   0   0   1   1   1   0
 55  58  43  22  25  57 117 175 192 203 197 169 141 124 105  80  68  52  42  37  29  31  37  37
 39  44  52  79  83  89  89  92  90  87  97  83  40  18   4  17  21  19  17  20  26  29  27  24
 30  32  32  40  90  83  91  91  62  37  39  36  32  29  29  28  25  23  22  21  21  21  23  25
 21  23  22  20  21  32  36  32  37  42  41  46  41  24  22  22  30  32  14   1   2   1  29 126
145 149 163 181 181 167 169 186 169 128 103  78  58  66  78  69  48  39  48  68  81  81  66  56
 56  61  61  60  67  81  93  95 105 103 101  99  97  98 107 117 123 125 126 125 125 126 126 126
123 122 119 118 116 117 117 118 114 114 114 115 115 116 116 117 118 118 117 117 116 115 114 114
116 109 111 122 123 107  96 101 104 111 113 108 107 111 112 108 107 107 106 105 103 101 100  99
 97  95  93  92  91  93  95  96  98 100 102 104 105 105 106 106 108 108 107 107 105 105 105 105
106 102 100 102 105 104 100  97 104 102 102 102 102 102 102 103 103 102 103 103 101 100  99  99
101 100  98  98  97  96  94  93  93  90  87  86  84  84  83  84  82  83  86  89  91  91  93  92
 95  95  95  95  94  94  94  93  91  95  91  96  95 106 147 167 150 114  89  88  90  93  94  86
 92  93  94  95  95  94  92  92  92  92  92  92  92  92  92  93  91  91  90  90  89  87  86  85
 85  84  84  83  84  84  85  86  87  87  88  89  89  89  89  88  89  90  94  97  98  96  92  88
103 109 125 141 136 109  87  82  80  80  78  72  65  62  67  74  73  76  79  80  80  79  80  81
 80  80  81  81  82  83  85  86  84  89  91  88  86  88  85  78  68  57  58  56  52  54  52  48
 52  54  57  57  55  56  55  50  48  52  55  52  52  53  54  52  53  53  48  37  38  32  21  10
  7   4   2   0   1   2   4   3   1   0   1   4   4   5   5   4   4   3   2   2   4   3   1   0
  9   6   3   0   0   0   0   0   0   0   1   0   0   1   2   4   2   0   0   0   0   0   0   0
  3   1   0   0   0   0   0   0   0   0   1   1   0   0   0   0   0   0   0   0   2   8  11  11
 14  11   8   8   8   6   2   0   0   0   0   1   0   0   0
 31  33  43  78 131 162 149 125  91  58  37  27  21  17   7   2   1   1   1   6   1   1   2   1
  2   2  23  73  81  87  81  84  89  86  85  37  12  18  20  17  20  21  24  25  27  33  36  35
 34  33  29  45  89  82  92  91  53  32  34  30  28  24  23  21  24  20  18  19  20  17  20  23
 12  12  17  21  28  47  60  55  51  58  56  37  22  20  19  16  15   8   0   7  10  51 104 120
142 142 142 149 158 158 145 132 125 122 124 143 127  75  62  81  79  69  69  69  62  56  51  54
 63  72  85  93  98 101  99  96  96  97 103 114 122 126 127 128 124 125 126 127 125 123 121 120
120 120 120 119 116 113 111 110 116 116 117 118 117 117 117 117 116 116 116 115 115 115 114 114
104 109 105  97  98 106 111 114 109 105 106 111 111 106 106 110 106 105 104 102 100  98  96  96
 92  92  92  91  92  94  97  99 100 102 105 106 106 105 106 106 108 107 107 106 104 104 104 105
106 105 103 102 102 102 102 104 102 101 102 103 105 105 102 101 102 102 103 102 100 100  99  98
101  99  97  97  96  95  95  93  89  87  84  84  83  84  83  84  83  82  84  85  87  89  90  90
 92  92  93  93  92  92  92  92  91  89  92  90  93  91 100 141 162 156 122  92  89  92  91  97
 91  92  93  94  94  94  93  92  92  92  92  92  92  92  92  92  91  91  91  91  90  89  88  88
 86  85  84  84  83  83  83  83  84  84  85  87  88  89  91  91  94  94  93  92  91  91  93  95
 92  89  88  95 116 136 138 130 109  94  77  71  73  75  70  63  62  63  67  72  77  79  79  77
 80  80  81  83  82  80  81  83  79  81  83  84  85  86  87  89  91  83  82  73  62  59  54  51
 39  39  39  38  39  41  44  44  51  54  56  57  55  53  56  58  71  61  52  54  55  48  37  37
 30  23  15   9   6   5   4   1   2   0   0   1   0   0   3   3   4   2   0   0   2   3   4   4
  4   3   1   0   1   3   5   6  10   8   6   3   1   1   0   1   7   1   0   0   1   2   4   7
  7   5   1   0   0   0   0   0   0   0   0   0   0   0   0   0   2   0   0   0   2  14  17  13
 15   7   7  15  16   6   0   2   1   0   0   1   0   0   0
 56  92 124 114  73  34  13   5   1   2   4   3   2   2   2   8   2   3   2   3   2   4   9   7
  3   1  30  77  84  86  84  87  88  90  68  33  27  29  34  32  27  31  34  37  38  36  35  35
 36  34  23  49  86  79  90  88  45  26  28  24  25  23  20  20  17  18  17  20  22  22  22  24
 24  20  23  28  31  42  49  46  46  39  45  23  13  30  37  53  53  57  13   4  98 141 140 133
122 123 118 106  93  84  80  83  89  77  79  82 121 128  68  55  75  63  59  55  56  67  75  82
 94  99 106 107 100  98 112 128 127 132 136 135 128 122 122 124 123 123 124 123 120 119 119 119
117 114 112 111 112 114 116 116 118 118 118 118 118 117 116 116 114 114 115 114 113 112 109 108
104 108 110 110 113 113 110 108 110 111 112 110 108 107 106 105 103 102 101  99  96  94  93  92
 90  91  92  93  94  97 100 102 102 104 106 107 106 105 106 106 107 107 106 105 104 104 104 104
105 110 115 113 106  98  97  99 101 101 102 103 104 104 102 100 101 101 102 101 100  99  98  98
 99  99  98  97  95  94  93  92  92  89  87  86  87  84  85  84  84  84  84  85  87  89  90  91
 92  92  92  92  94  94  93  93  96  90  89  94  88  89 100  93 136 157 162 133  99  90  93  90
 90  90  91  92  92  92  93  93  94  94  93  93  92  92  92  93  93  93  93  92  92  91  91  90
 88  87  87  86  85  84  83  82  85  84  83  82  81  83  85  87  85  87  90  91  91  92  93  95
 90  91  94  94  87  86  99 117 136 134 126 111  92  80  77  78  74  67  61  61  66  73  76  76
 77  78  80  80  78  78  79  79  81  80  80  83  82  81  83  87  88  84  88  87  86  84  74  69
 62  56  44  35  34  38  41  46  56  57  59  57  54  52  53  56  63  60  54  60  54  53  49  58
 58  53  43  32  24  18   9   3   8   1   1   3   0   0  10  18   5   3   2   4   4   2   1   1
  1   1   3   3   3   5   9  13  16  12   7   3   1   0   0   0  14   7   2   2   2   3   6  10
  7   5   2   0   0   0   0   0   0   0   0   0   0   0   0   0   0   0   3   8  21  29  20   7
  9   4   6  14  14   7   4   8   4   0   0   1   5   4   2
131  83  35  11   2   3   6   3   4   6  10  12  11  14  16   7  10   6   5   3   3   5   1   3
  4   2  38  74  80  83  90  86  88  92  45  33  43  41  39  40  45  40  39  42  42  36  33  35
 32  34  25  60  91  80  84  80  37  18  20  15  19  18  17  18  21  24  25  26  30  33  33  30
 32  22  24  32  33  42  51  50  58  68  81  92  93  93  88  78  59  36  22  55  95 104  93  95
 84  86  83  81  85  85  84  84  83  90  94  70  85 134 107  46  57  58  68  73  86 102 106 103
101 102 101 103 112 123 127 124 129 127 124 123 123 125 125 124 124 124 122 119 118 115 115 115
111 113 115 115 114 114 117 120 119 119 118 117 116 116 115 115 112 113 113 112 110 106 101  99
108 108 107 108 111 110 109 113 111 108 106 105 106 107 105 102 100 100  98  96  94  92  90  89
 90  92  93  95  96  99 101 103 102 105 107 107 106 106 106 107 107 106 105 105 103 103 104 104
106 106 105 103 101  99 101 105 102 103 103 103 102 102 101 101 101 101 102 100 100  99  98  98
101 100  97  96  95  95  93  92  90  88  86  85  85  84  83  82  83  82  82  83  85  87  89  89
 91  91  91  91  93  93  92  93  90  91  91  91  94  91  87  93  94 131 156 158 144 107  83  93
 90  90  90  91  91  91  92  92  95  94  94  93  93  92  92  92  94  93  93  92  92  91  91  91
 90  89  88  88  87  85  84  83  81  82  83  83  82  83  84  85  88  88  88  88  90  90  88  87
 92  91  92  93  94  94  92  90  92 103 119 133 135 123 104  90  86  82  76  70  65  63  63  65
 70  75  79  80  80  81  80  79  77  78  77  78  79  81  82  82  84  81  83  82  84  88  87  88
 89  89  82  77  73  63  54  49  45  45  44  41  43  49  54  58  56  63  53  55  47  58  53  58
 56  55  53  51  49  44  36  28  29  22  23  23  11   4  11  21  19  19  20  24  21  10   3   0
  4   6   7   6   3   3   7  12  10   5   0   0   0   0   1   1  18   9   2   1   1   1   3   7
  4   2   0   0   0   1   0   0   0   0   0   0   0   0   0   0   0   0   0   2  19  33  27  14
  8  13  14  10   8  10  12  11   9   1   0   2   8   8   6
 14   2   1   2   3   7  13  13  22  26  34  39  33  23  20  22  20  14   8   5   4   3   5   6
  4   3  51  73  81  87  85  84  87  81  33  32  36  37  45  38  41  39  37  34  33  30  30  30
 30  28  17  71  91  77  82  75  30  15  16  17  14  17  22  23  25  26  29  29  27  27  32  33
 41  49  55  62  76  90  98 101 109 107 106 105  96  78  62  53  35  47  63  76  82  81  77  76
 70  68  68  62  63  65  64  77  89  82  75  64  69 116 101  79  84  89  95 102 110 106  99  92
105 111 120 125 127 126 127 127 125 125 125 124 124 123 122 121 119 118 115 112 111 112 112 113
114 115 117 118 119 119 119 119 117 115 114 113 112 113 112 113 114 110 105 101 100 103 108 111
111 111 111 110 109 108 108 108 107 106 105 105 106 104 102  99  95  95  94  93  92  91  91  91
 93  94  96  98  99 101 103 104 106 106 106 106 106 106 106 105 105 106 106 105 105 104 105 105
105 101  99  98  98 102 105 101 102 101 101 101 101 101 101 100 100 101 100  99  99  98  97  96
 99  98  98  97  96  95  94  94  91  89  86  85  84  84  83  83  84  83  81  82  84  85  87  87
 89  90  92  92  91  91  92  93  91  91  91  91  92  92  92  91  94  84 130 150 158 151 116  88
 90  89  91  84  91  90  88  93  91  93  92  92  93  93  91  92  93  92  91  90  91  91  92  92
 91  92  92  90  89  88  87  86  84  83  82  82  83  83  82  82  83  83  84  85  86  87  86  85
 87  87  87  87  88  89  91  92  92  89  87  91 103 119 132 139 123 106  87  81  82  80  72  67
 64  63  65  71  73  72  73  77  78  78  79  81  79  78  79  79  79  79  80  80  82  82  83  83
 86  85  88  88  85  84  81  75  62  44  34  35  37  37  42  47  47  44  41  43  52  53  50  48
 54  55  56  57  58  58  55  49  54  49  47  44  35  29  35  45  39  40  38  43  35  40  10  13
 15   3   3   8   5  10  16  12  11  11   2   0   0   0   2   2  35  25   3  11   0   1   1   1
  2   0   0   2   1   0   1   2   1   0   0   0   0   0   0   0   0   0   0   0   2   9  14  17
 11  18  16  26  24   8  25  15   6   3   1   6  10   3   0
  3   5  25  36  30  26  36  40  42  40  39  37  31  23  22  22  17  12   7   3   3   2   3   5
  1  12  61  77  82  83  83  85  95  63  18  32  40  32  35  39  38  33  30  29  30  28  27  27
 24  14  33  76  85  79  86  67  32  14  12  16  15  18  19  21  30  33  39  45  53  66  82  90
101 104 106 106 102  94  91  97  88  83  80  81  79  74  70  68  72  73  74  72  69  63  58  54
 46  44  44  41  40  40  43  53  51  35  27  28  37  76  86 107 104 108 106  97  88  89  99 113
123 123 124 125 126 126 126 125 125 125 124 123 121 120 119 118 114 113 112 111 112 114 115 116
118 118 119 119 120 119 118 117 116 115 112 111 112 112 112 112 107 106 106 106 106 107 109 109
110 110 110 109 108 108 108 107 106 105 103 103 102 101  98  96  93  93  92  91  91  91  91  91
 95  97  99 100 102 103 104 105 105 105 106 106 106 105 105 105 105 106 105 105 105 105 104 104
102 101 101  98  97 102 104 100 101 101 101 101 101 100 100 100 101 101 101 101 100  99  99  98
 98  98  97  96  95  94  93  93  90  88  86  84  83  83  83  82  81  81  81  82  84  85  85  86
 89  89  91  92  90  90  92  92  90  90  90  90  90  90  91  91  91  90  88 118 150 153 159 134
 96  93  90  87  90  85  93  90  90  90  90  90  91  91  92  94  93  92  91  90  91  91  91  91
 91  91  91  91  90  89  88  88  85  84  83  83  83  83  82  81  82  82  83  84  86  87  86  86
 86  86  86  87  87  88  89  90  90  92  92  90  87  89  96 102 121 132 137 123  98  81  80  86
 79  71  64  60  60  62  67  72  72  74  76  77  79  82  82  80  81  80  80  79  81  81  82  81
 86  82  82  84  85  88  90  91  89  86  75  63  57  57  52  46  38  37  36  41  49  50  47  44
 43  50  55  52  51  56  60  61  59  56  51  45  50  62  66  60  55  52  46  51  46  51  23  23
 20  13  19   9   4  19  18  20  18   8   0   0   4   0   0   2  18  16   9  16   1   0   0   0
  1   0   0   1   1   0   0   0   0   0   0   0   0   0   0   0   2   1   1   0   0   4  13  21
 18   2   4  30  36  21  27  11   5   6   4   6  11  10   8
 81  73  73  70  48  36  40  42  44  40  34  28  26  24  22  20  16  11   6   4   3   3   3   3
  1  25  67  77  81  81  80  83  82  52  21  25  28  30  30  25  28  29  25  19  21  26  28  24
 18  10  55  88  85  70  82  87  29  19  24  31  32  42  58  73  75  84 100 114 117 115 112 106
 93  92  91  92  89  83  79  82  86  83  81  85  86  79  70  62  61  56  50  45  43  42  41  40
 36  34  33  37  34  32  38  41  35  18  10  13  15  32  50 101  94  92  95 100 107 115 119 126
130 127 125 124 125 126 125 124 123 122 121 119 117 115 114 113 111 111 111 113 115 117 118 118
120 119 119 119 119 118 116 114 112 112 112 112 111 109 106 103 103 105 107 109 110 110 109 108
109 109 108 108 108 107 107 106 106 104 101 100  98  97  94  93  91  91  90  90  90  91  93  94
 97  99 101 103 104 104 105 106 105 105 105 105 105 105 104 104 106 106 104 104 105 105 104 103
100 100 101  98  97 102 103 100 101 101 101 100 100 100  99  99 101 101 101 100 100  99  98  98
 97  97  96  95  94  93  92  92  89  88  85  84  83  82  82  82  80  80  81  82  82  83  84  85
 88  89  91  91  90  90  91  92  90  90  90  90  91  91  91  91  91  90  97  85 115 154 153 152
139  95  92  92  90  87  88  89  90  88  90  92  90  89  93  93  92  92  91  91  91  91  90  90
 90  91  91  91  90  90  90  90  86  85  84  84  84  83  82  81  81  81  82  82  83  84  85  84
 85  85  85  86  86  87  88  88  87  89  91  91  90  90  91  93  88  94 105 124 140 139 116  91
 88  84  79  73  68  65  64  64  63  66  69  70  74  78  79  76  78  78  77  77  78  78  79  79
 79  79  82  83  79  79  84  87  84  89  87  87  91  87  79  73  63  56  45  40  43  46  48  50
 40  52  60  56  52  54  56  52  57  58  55  48  52  65  65  50  57  56  56  51  43  47  37  47
 29   9  33  24  12  32  22  12   7   8   8   2   0   0   5  15   7   7   8  12   3   0   2   0
  1   0   0   0   2   1   1   0   0   0   0   0   0   0   0   0   0   0   0   0   0   3  15  28
 11   2   4  25  39  22  14  11   0   4   4   2   7  12  13
101  78  62  49  33  33  41  39  39  38  34  29  29  30  29  25  18  14   8   4   3   3   2   2
  2  36  69  75  80  83  80  80  85  40  18  19  16  18  19  21  17  19  22  21  21  19  15  12
 15  46  83  85  84  82  83  97  87  77  82  92 103 115 120 126 128 122 118 112 102  96  92  89
 91  92  87  80  81  80  73  68  93  93  89  79  65  52  48  50  40  37  33  31  33  35  36  36
 36  36  34  38  37  35  41  30   8   5   2   0   1   3  16  65  83  94 108 123 127 130 125 127
126 124 123 124 125 125 123 121 118 118 116 115 113 113 112 112 114 114 115 117 118 119 119 118
118 117 116 116 116 116 114 113 113 112 109 108 106 104 102 101 107 107 108 109 108 109 109 109
108 108 107 107 107 106 106 105 104 102  99  97  95  94  92  91  91  90  90  90  92  94  96  97
 99 100 103 104 104 104 105 105 105 105 105 105 105 104 104 104 107 106 104 104 105 104 103 102
101  98  98  99  99 101 102 100 100 100 100 100  99  99  99  99 100 100 100  99  99  98  98  98
 97  96  95  94  94  93  92  92  89  87  85  83  83  82  82  81  81  80  81  81  80  81  82  84
 87  88  90  90  89  89  91  92  90  90  89  89  90  90  91  91  86  91  87  91  85 102 150 151
156 149 108  87  95  89  94  88  89  86  89  92  90  89  91  90  92  92  91  91  92  91  90  89
 90  90  91  91  90  90  91  91  88  87  86  85  85  84  83  82  81  81  81  81  81  81  82  82
 83  83  84  85  86  86  86  86  88  87  87  88  90  91  91  91  95  94  89  86  91 108 129 143
132 115  93  82  82  84  78  71  58  62  66  65  63  65  73  81  76  77  77  77  78  78  78  78
 82  80  80  79  79  84  88  86  73  85  85  83  87  85  84  89  88  81  70  62  57  48  40  36
 41  46  49  47  48  51  49  45  51  49  49  47  49  52  51  45  49  52  56  48  43  43  47  61
 35  32  44  36  44  42  10  21  16  11   9   4   2   3   4  14   7   6   8   7   1   0   1   0
  0   0   0   0   1   4   3   2   0   0   0   0   0   0   0   0   0   0   1   2   0   1   8  19
  4   0  13  24  18  14  12   3   1   7   7   4   8  16  17
 86  70  57  43  32  37  44  37  37  38  37  33  31  32  30  25  18  16   9   5   3   3   3   2
  2  46  70  74  78  80  78  78  75  23  11  17  19  21  18  17  21  17  17  16   9   7  24  46
 70  97  94  87  91  96  95 107 106 115 131 134 132 129 126 126 128 119 111 102  93  90  91  91
 83  87  85  81  79  77  69  63  45  33  22  23  33  37  34  28  38  38  36  35  35  34  33  33
 32  34  30  33  33  35  34  15   0   4   0   0   0   3  11  47 107 125 127 131 126 126 123 126
126 126 125 125 123 121 118 117 113 112 113 112 113 113 114 115 118 118 118 119 119 119 118 117
115 114 114 114 115 115 114 113 115 111 105 101 101 104 108 110 110 109 108 108 107 108 109 109
108 107 106 106 106 105 104 102 100  98  95  93  92  91  91  91  90  90  91  92  93  96  98  99
100 102 104 105 105 104 104 104 105 105 105 105 105 104 104 103 106 105 103 103 104 103 102 100
103  95  94  99 101 100 100 101 100 100 100  99  99  98  98  98 100 100 100  99  99  99  98  98
 97  96  95  94  94  93  92  92  89  88  86  84  83  83  82  81  82  82  81  80  78  79  82  84
 86  87  89  90  89  89  90  90  91  91  90  90  90  90  91  91  93  92  93  90  98  88  86 145
156 157 149 112  94  89  89  89  89  86  84  87  88  90  90  89  91  91  91  91  91  90  90  89
 90  90  89  89  90  90  90  91  89  88  87  87  87  86  84  83  83  82  82  81  80  80  80  80
 81  81  82  83  84  85  85  86  86  87  87  86  84  83  86  88  85  87  92  92  89  86  89  95
116 131 141 131 108  90  82  84  88  76  65  62  61  59  62  66  72  73  75  77  78  79  79  79
 75  76  78  80  80  77  61  39  33  67  85  83  86  90  88  87  87  87  86  85  82  71  59  52
 44  36  28  27  31  37  42  46  52  47  46  50  51  53  52  50  52  48  53  52  54  52  51  50
 50  59  62  54  56  46  27  41  20  27  20   6   2   6   5   4   6   8   9   3   0   0   0   1
  1   2   0   0   0   5   4   1   0   0   0   0   0   0   0   0   0   0   0   0   0   0   4  12
  0   4   4   4  12  14   2   4   5   7   8   6   7  13  14
 64  53  44  38  36  43  46  39  32  32  32  28  26  26  25  23  16  13   9   5   3   3   2   1
  5  54  73  78  78  76  77  78  70  21  13  15  13  14  13  10  11  12  17  36  65  93 107 109
106 106  97 112 115 115 117 126 140 136 136 131 129 126 115 108  97  89  84  83  80  80  82  82
 80  74  67  66  64  54  45  43  37  37  37  38  37  35  34  34  31  34  35  35  34  34  34  35
 33  35  32  32  34  36  26   6   1   0   0   0   0   0   1  19 111 138 122 124 125 129 128 124
123 123 123 120 117 115 115 115 110 111 112 113 115 116 117 118 119 118 118 118 118 117 117 116
114 114 113 113 113 113 113 113 107 105 103 103 105 108 111 112 109 109 108 108 107 108 108 108
107 106 105 104 104 103 101  99  94  93  92  90  90  90  90  90  91  91  92  93  95  97  99 100
103 104 105 106 105 105 104 104 105 105 105 105 104 104 103 103 104 104 102 102 103 102 101 100
101  94  94 100 101 100 100 101 100 100 100  99  99  98  98  98 101 100 100 100  99  99  99  99
 97  96  95  94  94  93  92  92  89  88  86  84  83  83  82  81  82  82  81  79  78  79  81  82
 84  85  88  89  88  88  89  90  91  90  90  90  90  90  90  91  89  81  91  89  88  97  86  96
142 155 159 157 129  94 101  88  93  93  87  82  86  89  88  89  90  90  90  90  90  90  91  90
 91  90  89  89  89  89  90  90  88  88  88  88  88  88  86  85  85  84  85  83  81  80  79  79
 80  80  80  81  82  83  84  84  84  84  85  86  87  87  88  88  90  87  88  93  95  93  90  91
 87  88  98 120 140 142 124 106  86  83  80  80  74  66  65  68  60  62  64  67  71  73  75  76
 78  79  78  74  74  79  77  68  62  76  81  76  79  83  84  85  82  84  85  86  90  89  87  88
 80  70  63  59  56  51  49  51  43  47  52  54  55  57  59  57  61  55  54  55  57  54  51  44
 57  54  62  63  48  51  59  45  32  44  38  24  12   6   7   6   6   7   3   4   8   7   0   1
  4   8   7   2   2   7   8   3   0   1   1   0   0   0   0   0   6   2   0   1   0   1   4   9
  3   0   1   6   2   4   3   1   6   5   6   5   4   6   9
 61  47  32  31  39  44  40  36  29  28  26  25  24  23  22  20  13  11   6   2   2   2   2   1
 17  62  72  81  77  74  77  77  76  15   3   7   9   6  22  41  65  88 109 116 116 118 113 104
111 120 130 140 139 141 138 125 111 105  98  87  78  72  68  75  86  81  81  83  79  73  67  62
 55  48  39  38  42  38  33  32  35  35  34  33  32  33  33  33  34  34  34  33  32  31  31  32
 31  31  31  30  34  30  13   1   0   0   1   2   2   2   2   4  82 137 126 127 124 121 125 122
118 117 116 114 113 112 114 115 113 114 115 116 118 119 119 120 118 117 116 115 115 115 115 115
113 113 113 111 108 107 107 108 102 103 104 107 109 110 109 108 108 109 109 109 108 107 106 106
106 104 103 102 101 100  97  94  91  91  90  89  89  89  90  90  92  93  94  96  98  99 101 102
104 105 105 105 105 104 104 104 104 104 104 104 104 103 103 102 103 103 103 103 101 100 100 100
 96  95  98 101 101 100 101 100 100 100 100  99  99  98  98  97 100 100  99  99  98  98  97  98
 96  96  95  94  94  93  92  91  89  88  86  84  84  83  82  81  82  81  80  80  79  79  79  79
 83  84  85  86  87  87  88  89  89  89  88  88  88  88  89  89  87  96  90  85  92 121 123 105
113 143 156 154 163 143 117  98  91  99  90  81  86  88  85  88  89  89  89  90  90  90  90  90
 90  90  89  88  88  88  88  88  87  87  87  88  89  89  88  87  86  86  87  85  83  81  80  80
 79  79  79  79  80  80  81  82  84  83  82  83  86  86  84  81  87  85  84  85  86  86  87  88
 90  88  86  86  90 104 123 140 139 119  96  82  81  81  75  69  63  62  62  62  63  65  68  69
 73  75  80  80  76  76  79  79  81  76  75  80  83  81  79  78  80  82  81  82  84  84  81  83
 92  90  89  88  80  69  59  55  44  45  50  53  53  56  61  60  59  57  57  56  47  45  48  49
 45  51  47  45  51  55  53  49  64  50  35  53  48  14  10  15  23  20   8  15  28  28   1   1
  5  11  11   6   7  11  10   5   2   2   1   0   0   0   0   0  13  10   5   2   0   0   0   0
  1   4   0   3   4   0   0   4   5   6   8   7   6  11  15
 53  42  32  36  47  43  33  33  24  22  20  21  20  18  15  11   9   7   4   1   1   3   3   2
 33  68  68  77  76  74  78  78  80  36  33  44  66  91 114 118 121 111 106 109 112 113 124 135
142 134 132 115 108  97  90  83  78  73  77  86  95  95  93 103  80  71  64  61  55  49  46  43
 37  43  41  36  35  36  35  34  30  33  35  35  35  35  35  35  34  34  33  32  32  32  32  32
 30  29  32  31  35  27   5   1   2   0   4   2   0   2   5   1  62 135 126 129 124 117 122 117
115 114 113 112 112 113 114 114 116 117 118 119 120 120 120 120 118 116 114 113 113 114 114 114
111 112 111 108 103 101 101 102 110 109 107 107 107 108 109 109 110 110 109 108 106 105 105 104
105 103 101 100  99  97  94  91  91  91  90  90  90  90  90  91  94  95  96  98 100 102 102 103
104 105 105 104 104 103 103 104 104 104 104 104 103 103 102 102 102 102 103 102 100  99 100 100
 90  96 102 102  99 101 102  98 100 100 100  99  99  98  98  97  98  98  98  97  97  97  96  96
 96  96  95  94  93  92  91  91  89  87  86  84  83  83  82  81  81  80  80  80  80  80  78  76
 82  83  84  85  86  86  87  88  89  88  88  87  87  88  88  89  92  91  83  89  89  91  88  94
 89  89 119 154 153 149 149  96  78  95  89  80  87  89  84  89  88  88  88  88  89  90  90  90
 91  90  89  88  87  87  87  87  86  86  87  88  89  89  88  88  86  87  88  86  84  82  81  81
 80  79  78  78  78  78  79  80  78  81  84  84  81  81  83  87  84  87  87  85  84  86  86  85
 88  86  87  90  89  86  88  92 105 129 147 137 111  91  81  78  82  79  73  67  63  61  61  61
 66  61  64  73  77  77  76  74  76  78  80  77  74  76  79  76  78  79  77  77  78  80  82  84
 83  83  84  84  86  87  86  84  77  61  48  48  49  53  54  53  48  52  54  57  43  42  47  51
 48  44  41  41  42  44  46  52  44  55  47  60  56  34  39  32  45  45  30  36  45  39   1   4
  1   7  10   7   8  13  11   6   4   4   2   1   0   0   0   1   1   1   0   0   0   2   2   1
  0   2   0   4   3   4   0   0   0   3   7   5   5  14  19
 47  34  30  35  35  31  27  24  13  14  15  14  13  12  10   6   4   5   2   1   2   2   3   5
 47  66  73  71  75  76  79  86  86  99 104 110 114 111 105 102 108 112 119 126 128 128 123 120
107  91  80  79  78  76  76  76  75  74  75  77  69  52  39  34  50  50  48  45  43  39  37  36
 35  36  36  36  33  33  33  35  33  34  35  35  32  31  32  34  37  33  33  35  34  34  35  33
 34  33  28  33  33  15   3   1   1   5  33  35  20   8   3   1  49 133 126 120 120 117 115 113
111 112 114 114 114 115 118 120 118 119 120 119 118 117 117 117 115 114 112 111 110 111 113 114
108 106 103 103 103 105 108 111 108 108 107 108 109 110 110 110 109 108 106 105 104 104 103 103
101 100  99  97  95  93  91  90  90  90  89  89  89  90  92  94  96  96  98 100 102 103 104 104
103 100 100 102 105 104 103 103 101 102 105  99 104 105  94 104 101 105 103  96 100  96  98  94
 93  98 103 102 100 100  99 100 103 102 101 100 100 100  99  99  98  98  99  98  96  95  96  96
 97  96  95  94  92  91  91  91  90  89  87  86  85  84  82  81  83  81  79  79  80  80  79  78
 78  81  84  85  86  86  86  87  88  88  87  86  86  87  87  88  89  89  88  87  86  86  86  85
 91  91  84 112 154 159 149 150 112  92  89  93  86  86  89  83  87  87  86  88  91  90  87  88
 91  90  89  88  88  87  87  87  86  86  85  86  86  87  88  88  87  87  87  86  85  84  83  83
 84  83  81  80  79  79  79  79  78  79  80  80  80  81  82  83  82  81  81  82  84  85  84  84
 86  86  86  87  87  88  89  89  83  84  94 116 138 141 127 109  90  84  80  80  77  71  66  64
 64  61  59  61  65  69  72  72  74  75  77  77  76  77  78  80  76  77  77  77  76  76  78  80
 80  81  82  82  82  83  85  87  85  85  82  75  69  60  48  36  39  37  41  43  42  39  44  52
 46  51  51  47  43  44  45  42  37  46  48  47  47  49  50  53  63  59  48  46  38  39  22   9
 19  12   9   7   7  10   6   2   7   6   5   0   0   0   0   2   0   0   0   0   0   2   1   1
  2   3   0   2   0   4   1   3   5  14  19  16  10   7  11
 37  32  32  36  31  21  13   7  13  16  18  18  16  12   9   5   8   2   1   1   2   1   2  12
 60  67  73  77  85  85  83  85  92 102 101 101 103 106 111 117 116 116 115 110  99  88  79  76
 69  67  67  70  70  71  74  73  67  76  70  44  26  31  44  50  45  44  42  41  40  38  36  36
 32  32  32  34  37  38  36  34  32  33  32  31  33  36  36  32  32  33  34  33  31  34  36  34
 35  34  29  33  30  12   2   1   1  23  33  42  47  21   1   1  32 123 123 117 115 112 114 115
111 113 116 117 118 119 120 122 119 117 116 116 117 117 116 114 114 112 111 113 114 112 108 104
102 101 102 105 107 108 109 111 110 109 109 109 109 110 110 110 108 107 107 106 105 103 101 100
 99  98  96  94  92  91  90  89  88  89  89  90  90  92  94  96  97  98 100 102 103 104 104 104
104 102 101 103 104 104 103 103 104 101 100 107  97 104 110 101 107 100  97 104 102  98  94  89
 99 101 102 101 100 100  99  98 101 100  99  99  99  99  98  98  98  98  99  97  96  95  96  96
 96  96  95  94  92  91  91  91  90  89  88  86  85  84  83  82  82  80  78  78  79  79  78  77
 77  80  83  84  86  86  85  86  87  87  87  86  86  86  86  86  89  89  88  87  87  86  86  86
 89  87  92  85 108 150 155 152 155 128  93  84  92  88  82  88  87  86  85  86  88  87  88  94
 90  90  89  89  88  88  87  87  86  86  86  86  86  87  87  88  88  87  87  86  86  85  85  85
 83  83  81  80  79  79  79  79  78  78  79  79  78  79  80  81  82  83  84  83  82  83  85  87
 85  85  85  86  86  87  88  87  90  91  89  84  84  99 124 146 140 126 106  91  86  83  81  77
 64  66  69  69  63  60  65  74  72  73  74  75  75  75  77  78  78  77  76  76  76  76  77  77
 77  78  80  82  81  83  84  86  84  86  85  83  82  82  77  73  54  46  42  38  26  16  22  39
 40  41  44  50  54  53  47  44  46  45  40  39  45  50  47  44  63  55  49  51  51  48  43  41
 24  18  12   9   8  11  10   2   9   6   4   1   1   3   2   1   1   1   3   2   1   1   0   0
  2   3   1   6   9  11   5   0   2  12   3  15  17   9  20
 32  30  30  27  19  16  16  15  14  14  13  12  10   7   7   7   1   2   3   4   2   3  22  49
 65  65  68  74  79  82  87  93  97 103 105 105 110 112 108 104  95  90  82  75  73  69  67  66
 68  68  71  69  66  69  69  66  63  62  56  48  44  44  40  36  40  39  39  38  36  35  34  34
 38  37  34  32  32  33  33  35  29  32  35  35  32  31  32  34  34  33  34  38  47  57  54  44
 34  34  29  31  26   8   1   1  12  30  49  34  47  49   5   4  21 116 120 114 113 112 115 116
113 116 119 120 121 120 121 121 119 117 115 114 114 115 114 113 111 113 114 113 108 104 102 102
104 104 105 108 109 109 108 109 111 110 109 109 109 109 108 108 107 106 106 106 104 102  99  96
 96  95  92  90  88  88  88  88  88  89  90  91  93  94  96  98  99 101 103 104 103 103 103 104
105 104 103 104 103 102 102 103 105 100 102 104 104 101  95  90  98 100  96 101  97 101  94  93
103 102 100  99 100 101  99  97 100  99  98  98  98  99  98  98  99  99  98  97  96  95  96  96
 95  95  94  93  91  91  91  90  91  90  88  87  86  85  83  82  81  80  78  77  78  78  77  76
 75  78  81  83  84  84  85  86  87  87  87  87  87  86  86  86  89  89  88  88  87  87  87  87
 88  86  86  88  78 103 152 151 151 155 130  96  88  90  85  80  88  87  87  88  86  84  84  86
 89  89  90  90  89  88  88  87  86  86  86  86  86  86  86  86  87  87  88  87  87  87  87  87
 84  84  83  82  81  80  80  79  79  78  78  77  77  77  79  79  79  79  79  80  80  81  82  83
 83  83  83  83  84  85  85  86  85  88  90  90  88  87  88  88 110 130 146 139 117  97  84  78
 93  77  65  64  66  63  57  56  49  56  66  72  73  73  73  74  78  76  74  75  77  77  77  76
 77  78  80  81  82  81  83  83  83  84  83  83  83  87  86  85  84  78  72  63  48  32  30  37
 33  31  32  38  43  44  44  48  43  48  48  43  42  43  46  51  50  42  41  46  53  51  52  54
 63  33  17  32  30   7  10  21  10  10   9   7   6   6   5   4   2   1   2   4   5   6   9  14
 13   4   0   1   5  12   9   1   0   3   5   5   6  18  22
 25  31  37  33  20  12   8   4   5   4   5   5   3   2   2   2   3   3   2  13  35  52  55  53
 65  66  73  80  84  90  96 100 107 107 108 100 100  94  87  80  74  68  64  63  66  68  69  68
 70  67  65  64  64  65  65  62  68  54  44  44  44  40  38  41  36  36  36  36  35  35  36  35
 33  33  35  36  37  36  34  34  32  30  31  33  30  29  40  53  59  71  85  88  79  65  49  35
 30  30  27  29  21   5   1   1  25   6  55  47  39  68  35   1  23 116 118 114 115 117 119 117
117 119 120 121 120 118 118 117 115 116 116 114 112 111 112 114 112 113 111 106 101  99 103 106
110 109 108 108 108 107 107 108 110 109 108 107 107 107 106 105 106 105 104 104 101  99  96  94
 93  91  89  86  85  86  87  88  89  90  92  94  95  97  98  99 100 102 104 104 103 101 102 102
103 104 104 103 101 100 101 103 106 102 101  99 107  99 118 129 135 127 106  98  99  97  88 101
102 101  99  99 100 101 100  98  99  99  98  98  99  99  99  99  98  98  97  97  96  96  95  96
 95  94  93  93  91  90  90  90  91  89  88  87  86  85  84  83  81  80  78  78  78  78  77  77
 74  76  80  82  84  84  85  85  86  86  87  88  88  88  87  87  88  88  88  87  87  87  87  87
 86  88  88  87  90  84  97 142 156 150 155 138  99  86  93  89  86  85  86  86  86  88  88  85
 88  88  89  89  89  88  88  87  87  87  87  86  86  86  85  85  86  86  87  87  87  87  87  87
 86  86  86  85  84  83  81  81  80  80  79  78  77  77  78  79  79  78  78  80  83  85  83  81
 82  82  82  83  83  84  84  84  83  83  83  85  89  91  92  92  86  84  91 110 134 144 134 117
 85  84  85  86  81  72  65  64  63  60  58  57  60  66  74  79  73  73  73  75  76  77  76  75
 76  78  79  79  79  78  79  79  82  84  84  83  82  83  83  82  85  88  87  84  81  76  69  60
 53  50  46  42  37  36  42  47  43  47  47  45  47  47  47  49  46  42  44  43  52  51  52  50
 62  54  40  48  47  38  44  42  13  17  17  15  10   7  12  13   6  11  16  24  23  15  13  12
  4   7   7   9   4   4   3   5   4   0   1   0   1  21  14
 33  35  35  22   6   3   6   6   3   3   3   3   4   6   9  13  31  49  63  67  70  70  62  54
 67  68  72  77  82  84  79  71  62  70  88  78  72  64  64  66  63  66  70  68  65  61  61  62
 62  59  59  63  64  63  62  61  55  52  48  42  39  38  37  36  36  37  37  37  36  36  36  35
 39  36  32  31  33  34  34  32  31  32  34  44  57  70  82  90  94  81  64  45  25  17  21  26
 27  27  26  28  19   3   1   2  28  22  39  46  62  65  40   2  22 116 119 117 120 121 122 120
120 120 120 119 117 116 115 115 112 113 113 113 112 111 110 110 111 105 100  99 102 105 106 106
107 106 105 107 107 107 107 109 108 107 108 107 107 106 105 105 105 104 101 100  97  95  93  92
 90  89  87  85  85  86  88  89  91  93  95  96  97  98  99 100 101 103 105 104 103 101 102 102
103 104 104 102 100 100 102 103 100 102 100 107  98 109 162 169 174 127 101  98 101  89  87 102
 99  98  99  99 100 100  99  98  99  98  98  98  99  99  99  99  98  98  97  96  96  96  95  95
 94  94  93  92  91  90  90  90  90  89  88  87  86  85  83  82  79  79  78  77  77  77  78  78
 75  77  79  81  83  84  85  86  85  86  87  88  89  89  89  88  86  86  86  86  86  86  86  87
 89  82  85  90  92  86  82  98 137 154 155 150 144 112  86  92  88  87  87  83  80  85  89  86
 85  86  88  88  87  87  87  87  87  87  87  87  87  86  85  85  85  85  86  86  86  86  87  87
 87  87  87  86  85  84  83  82  82  81  80  78  78  78  78  78  77  76  76  76  77  78  80  81
 82  83  83  83  84  84  84  84  85  86  87  87  86  86  86  87  85  88  92  90  89  96 117 136
145 129 103  84  80  83  82  78  72  65  60  59  62  63  57  53  66  68  71  73  74  74  74  75
 75  76  77  77  76  76  76  76  75  77  78  79  80  82  82  82  77  81  82  83  87  90  86  78
 79  79  75  65  56  48  45  41  44  45  44  44  48  48  47  48  50  48  51  46  48  43  47  48
 42  59  56  51  53  61  68  45  32  38  37  34  28  24  33  37  13  19  21  29  26  17  15  11
  8   7   5  16  12  11   2   2   1   2   0   7   2   2   6
 35  34  30  17   2   1   2   3  10  14  21  30  42  56  67  72  73  74  71  68  69  67  63  62
 66  62  51  36  28  23  16  11  11  24  58  60  62  57  56  55  57  58  59  58  56  55  55  58
 60  59  62  66  64  63  65  66  55  53  44  38  39  43  41  35  37  38  37  37  36  35  35  35
 31  34  37  36  34  34  37  41  44  61  78  87  89  85  70  52  34  23  20  24  29  29  29  27
 27  25  25  28  16   1   2   3   5  39  48  41  77  59  36  17  20 115 121 120 121 120 121 122
120 119 118 117 115 115 115 115 113 111 109 110 112 112 108 104 101 100 100 103 106 109 108 107
106 106 107 109 109 107 107 107 107 107 107 106 106 106 104 103 103 101  98  96  93  92  91  90
 88  88  87  86  87  88  90  91  95  96  97  98  98  99 100 101 103 104 105 104 103 102 103 104
103 104 104 102 100 101 103 103  98 101 100 103 105 149 165 173 143  96  96  99  93  91 100  98
 98  98 100 100 100  98  96  97  98  97  96  97  98  98  98  98  98  97  96  96  96  96  95  95
 94  94  93  92  91  90  90  90  89  88  87  86  85  84  83  82  78  77  77  77  76  76  77  77
 76  77  78  80  82  83  85  85  83  84  85  87  88  88  88  88  85  85  85  86  86  86  86  87
 83  94  79  82  94  85  84  82  86 133 154 152 160 149 113  91  86  85  87  86  79  80  85  82
 85  85  86  87  86  86  86  86  86  87  87  88  87  87  86  85  85  85  86  85  86  86  86  86
 86  86  86  86  85  84  83  82  83  82  80  79  79  78  77  77  74  75  75  71  67  67  73  79
 81  81  82  82  82  83  83  83  81  80  81  81  83  84  85  85  88  84  84  87  88  87  87  90
107 130 148 141 121 101  87  80  77  75  72  69  68  66  63  61  58  61  64  67  69  71  73  76
 75  75  76  76  76  75  76  76  73  73  74  74  75  77  78  78  82  79  81  83  83  82  82  83
 81  83  82  79  75  72  64  56  44  45  42  41  44  47  47  50  42  46  54  57  51  39  41  48
 48  51  49  51  49  49  54  49  53  59  55  58  56  49  51  44  28  31  25  27  25  21  26  23
 15   8   4  15  19  19   6   1   0   4   0   1   0  12   6
 29  27  23  19  19  30  45  52  60  67  76  79  82  82  76  68  78  73  69  69  65  48  28  19
 17  15   7   4   4   6   7  14  19  23  53  51  57  55  54  51  53  50  44  43  46  48  50  50
 49  52  58  62  61  62  62  61  43  40  42  44  41  35  34  37  37  37  36  36  35  34  34  33
 37  36  33  32  37  51  71  84  90  85  75  57  42  33  24  16  29  26  26  27  22  22  25  27
 26  22  23  25  13   0   2   3  41  53  65  36  26  21  51   7  31 120 122 121 122 118 119 121
116 116 115 113 114 113 113 113 112 111 108 108 107 106 103 102  98 102 106 108 107 106 107 108
109 108 109 111 110 107 105 105 107 107 106 105 104 103 101 101 100  98  95  93  90  89  88  88
 87  88  88  89  90  92  93  94  97  98  99  99  99 100 101 102 104 104 103 103 102 103 103 104
104 104 103 101  99 101 102 101 103 102  96 101 136 177 164 160 104  92 105  98  88 100 104  96
 99  98  99 100  99  98  96  97  97  96  96  96  97  98  97  96  98  97  96  95  96  96  95  95
 95  94  93  92  91  90  90  89  89  88  87  86  85  85  83  82  77  77  77  76  76  76  78  78
 77  77  77  79  80  82  84  84  84  84  85  86  86  87  87  87  85  85  85  86  86  86  86  87
 91  78  91  87  80  88  86  87  85  85 129 157 145 153 159 127  98  83  81  88  86  84  87  85
 85  85  86  85  85  85  86  86  86  87  87  88  88  87  86  86  86  85  86  86  86  86  86  86
 86  86  86  86  85  84  84  83  84  83  82  81  81  80  78  77  78  79  79  75  72  72  76  81
 79  79  80  80  81  81  81  80  80  84  87  85  82  80  82  86  83  84  86  88  88  88  89  89
 84  86  94 112 134 144 130 111  85  86  84  80  74  69  65  65  60  60  58  59  60  63  66  68
 68  70  73  74  76  76  77  76  78  77  76  74  74  75  75  76  74  73  76  81  81  76  78  83
 79  80  79  81  85  86  83  82  68  59  46  45  50  52  48  44  41  45  52  58  54  49  47  51
 48  47  43  42  40  45  51  50  48  54  51  58  60  53  51  41  44  50  44  45  43  36  39  30
 12  16  26  23  24  14  13  10   9   3   0   0  13  41   9
 53  56  63  68  71  75  78  76  82  84  82  75  73  74  67  59  47  40  28  16  10   6   3   6
  2   4   5  17  32  26  16  18  18  22  51  44  47  45  47  46  46  46  46  44  44  44  45  45
 46  51  58  60  61  61  51  37  41  37  35  35  37  38  38  38  39  38  38  36  35  35  35  34
 35  37  46  64  82  89  83  74  56  38  23  21  25  24  25  29  24  23  25  25  23  24  24  21
 21  18  19  23  11   0   2   3  10  31  39  44  40  18  77   9  49 129 122 119 123 119 118 118
115 115 113 113 112 111 110 109 108 111 112 108 101  97  99 103 107 107 106 106 106 106 105 105
108 107 107 108 108 106 105 106 106 106 105 104 103 102  99  99  98  96  94  92  89  88  87  86
 87  88  89  91  93  94  95  95  98  99  99  99 100 100 102 103 103 102 101 101 101 102 103 104
104 104 102  98  97  99 100  99  96 103  94 129 169 159 169 120  94 101 100  87  87 104  96 104
100  97  97  99 100  99  97  98  97  97  96  96  97  98  97  96  98  97  95  95  96  96  95  95
 94  95  94  93  91  90  89  89  89  88  87  86  86  85  84  83  77  77  77  77  77  77  79  79
 78  78  77  78  79  81  82  84  85  86  86  86  86  87  87  87  85  85  86  86  87  87  87  88
 85  89  84  84  88  86  88  86  86  81  87 122 155 152 145 158 137 101  83  87  89  84  84  83
 86  85  85  85  85  86  86  87  86  86  87  88  88  88  87  86  87  86  87  86  86  86  86  86
 87  87  86  86  85  85  85  85  85  84  84  83  83  82  80  78  78  76  75  76  78  79  78  77
 78  78  79  79  79  79  79  79  82  80  79  81  83  85  83  82  83  85  84  82  83  87  88  86
 89  89  87  83  86 101 125 144 148 128 101  84  80  82  84  85  70  65  59  55  54  55  56  56
 60  62  66  70  73  74  74  73  75  74  75  76  77  77  76  75  73  76  77  76  74  77  79  79
 79  79  81  82  81  79  81  87  86  84  74  63  53  45  42  44  45  47  42  44  44  56  56  53
 52  44  44  44  43  44  44  47  40  47  41  45  47  46  57  55  45  53  46  48  49  47  51  43
 37  32  36  17  28  21  30  19   6  11   9  30  37  31   4
 86  84  82  80  78  76  75  75  69  65  51  41  25  26  15   4   5   7   5   2   8  12  10  18
 45  36  35  51  61  28  16  25  17  30  41  44  42  41  42  42  43  41  41  41  41  41  42  43
 46  46  55  61  54  44  39  36  34  31  28  30  34  36  38  38  36  37  36  38  39  34  34  43
 50  70  87  82  62  42  30  23  17  22  23  21  21  24  24  21  23  22  21  22  22  20  19  20
 23  15  17  17   6   4   0   2  13  28  53  67  46  58  57  12  53 122 118 119 114 114 116 115
116 112 110 108 109 112 111 109 108 104  99  97  98 102 107 109 107 106 106 106 108 109 109 108
106 106 105 104 105 105 105 104 102 103 103 102 100  98  97  94  94  91  89  88  87  87  89  91
 92  91  90  91  93  96  98  98 100 102 104 103 101 100 102 105 103 102 101 102 104 105 103 102
101  96  96  98  97  99 100  98 102  89 119 169 161 170 133  98 100  99  91  85 103 100  96  99
 97  97  97  97  98  98  98  97  95  94  93  94  96  97  97  97  95  94  95  94  94  94  95  95
 95  94  93  93  92  92  90  89  89  88  86  86  85  84  83  82  78  78  78  78  77  77  76  76
 77  76  75  76  79  80  81  80  82  83  84  84  85  85  86  87  88  88  87  87  87  87  85  83
 88  87  87  86  85  85  84  85  84  90  88  77 111 152 152 151 153 144 107  84  91  89  81  86
 85  82  85  86  80  81  86  84  87  87  87  88  88  87  86  86  86  86  86  86  85  85  84  84
 83  84  85  85  84  84  85  86  84  84  85  84  84  83  82  82  80  78  77  76  76  75  75  75
 75  76  76  77  78  78  78  78  80  79  79  80  81  81  81  80  83  84  85  85  84  83  84  84
 86  87  87  90  84  85  82  87 107 132 147 140 122  98  80  76  83  74  69  71  70  62  59  59
 57  60  63  65  66  69  69  70  69  73  74  73  74  76  76  73  76  73  71  71  74  76  75  74
 77  76  75  78  78  79  83  85  89  87  85  82  79  74  64  56  63  55  43  34  36  42  46  46
 51  50  50  51  52  52  51  51  45  44  51  52  44  48  55  54  51  52  48  44  51  57  56  53
 56  35  33  23  28  41  19  16  12  13  26  27  27   9   1
 80  80  77  70  60  50  39  32  12  11   6   7   5   6   7  12  15  16  24  27  31  39  34  23
 70  45  27  25  30  17  18  19  22  31  40  40  39  39  39  41  40  39  38  39  39  39  39  42
 45  50  53  49  41  35  24  12   2   2   2   4   8  16  28  38  38  39  36  36  38  37  40  48
 64  57  42  29  23  23  25  25  23  23  22  21  22  24  21  17  18  21  21  19  21  24  21  15
  3  13   9  10   1   1   2   0  18   8  40  68  32  40  58  15  58 123 114 112 116 117 113 108
108 105 107 113 114 107 102 102  98  98  99 100 103 105 107 107 107 107 106 107 108 108 108 107
106 105 104 104 104 104 104 104 101 101 100  99  97  95  94  93  92  89  88  87  87  87  89  91
 90  90  90  92  95  98  99 100 100 101 101 101 101 101 102 104 103 103 102 103 104 104 103 102
 98 102  98  96  97  99  93 105  97 117 167 161 170 148  99 100  98  93  87  95  97 101  96  98
 97  97  97  97  98  98  98  97  95  94  94  95  96  96  96  96  97  96  96  95  94  94  94  94
 94  93  93  93  92  91  90  89  89  88  86  86  85  84  83  82  79  79  77  77  77  76  76  76
 76  75  75  76  77  78  80  79  81  83  84  84  84  85  86  87  88  87  86  86  86  86  85  85
 87  87  87  86  85  84  84  84  87  80  85  91  81 103 150 155 150 151 149 115  85  89  90  80
 80  84  82  79  81  85  86  85  85  85  86  87  87  87  86  86  86  86  86  86  86  85  84  84
 83  83  84  84  84  84  85  85  85  85  85  85  85  84  83  83  80  79  79  78  77  76  76  76
 75  75  75  75  76  77  77  77  78  78  78  79  80  81  80  80  81  82  83  83  83  83  83  84
 83  82  81  86  85  90  86  88  82  84  90 112 143 151 131 110  81  80  83  86  81  71  63  61
 58  57  55  50  46  50  62  71  73  68  68  72  73  70  75  82  74  75  76  75  73  72  74  77
 74  73  74  75  75  76  79  81  77  78  79  81  84  87  86  84  72  76  71  58  47  40  41  41
 44  49  54  58  63  68  61  51  46  44  49  49  42  43  48  43  49  46  45  48  50  51  52  49
 49  43  48  39  36  39  21  17  21  30  37  30  35  14  12
 47  44  37  27  20  15   9   5  16  13   8   8   7   9  23  51  42  36  54  66  60  55  40  14
 32  21  17  17  17  16  24  21  30  35  37  35  35  37  37  36  38  36  36  37  38  38  39  40
 47  48  45  39  30  15   3   1   0   0   2   1   0   1   9  18  35  39  38  35  37  37  37  39
 30  26  21  21  23  23  23  20  23  22  21  20  19  19  20  21  18  15  15  17  12   3   4  11
 41  47  23   8   1   0   2   0   2  27  50  36  33  33  53  13  70 119 110 113 117 112 107 111
109 113 114 110 103 101 101 100  99 101 104 106 107 107 106 105 108 108 108 108 108 108 107 106
105 104 103 103 103 104 103 103 100  99  97  96  94  92  91  90  88  87  86  87  87  87  89  91
 91  91  92  94  96  99 100 101 101 101 101 102 103 104 104 104 103 103 104 104 104 104 103 103
 98 101 100  98 101  92 104  93 101 150 166 165 164 106  96  95  95  85  88 102  94  97  98  96
 97  97  97  97  97  97  97  97  94  95  96  96  96  95  95  95  96  96  95  94  94  94  94  94
 93  93  92  92  92  91  90  89  89  88  87  86  84  84  82  81  78  78  77  76  76  76  76  76
 75  75  76  76  76  76  78  79  80  81  82  83  84  84  85  86  87  86  86  85  85  85  86  87
 86  85  85  85  85  84  84  84  83  86  86  81  85  87 101 141 153 153 148 153 129  86  82  95
 82  84  79  81  90  87  79  82  83  84  84  85  86  87  87  87  86  87  86  85  85  84  84  84
 83  83  83  84  83  83  84  84  84  84  84  84  85  84  83  83  81  81  80  79  78  78  77  77
 74  74  74  73  74  75  75  75  75  76  77  78  78  79  80  81  79  80  80  80  80  81  81  81
 82  82  79  82  82  87  85  85  85  87  85  83  91 107 129 147 147 125  98  80  78  82  82  80
 69  66  65  65  63  60  58  58  59  63  67  69  69  70  71  71  78  77  76  76  76  76  75  73
 73  73  73  74  74  74  75  77  76  78  80  79  80  82  84  85  87  83  78  75  75  70  59  45
 36  33  36  44  48  49  55  63  59  51  47  43  37  42  50  51  54  43  43  48  47  47  51  55
 57  53  52  42  34  36  34  37  34  36  24  17  38  24  35
  8   8   9  11  13  14  14  13  16  19  19  15  12  11  24  51  64  38  37  34  17  14  12   9
 14  17  20  22  21  19  24  19  35  35  33  32  32  35  34  33  34  33  33  34  36  36  38  41
 44  46  39  25  15   1   0   2   0   0   1   2   2   0   0   1  21  32  37  35  33  32  28  24
 24  23  23  22  20  21  22  25  17  17  17  18  17  14  13  13  17  15   6   1   9  37  61  70
 54  26   4   0   5  19   3   0   0  28  27  44  16  37  50   4  92 116 107 110 112 110 104  99
104 104 103 100 100 103 102  98 104 106 107 107 106 106 106 107 108 108 108 108 108 107 105 104
104 103 103 102 102 102 102 101  98  97  94  93  91  90  89  89  86  85  85  87  88  88  90  91
 94  95  96  97  98  99  99  99 101 101 102 103 103 103 103 103 103 104 104 103 103 102 102 102
100  98  98  99 101  98  99  93 143 167 160 170 126  86 101  94  89  83  95  99  96  93 101  96
 98  98  97  97  97  97  97  97  93  95  97  97  96  95  95  96  94  93  93  92  93  93  94  94
 92  92  92  92  91  91  90  89  89  88  87  86  84  84  83  82  79  78  77  76  75  75  76  76
 75  76  77  76  75  75  77  79  79  80  81  82  83  83  84  85  85  86  86  85  85  85  85  86
 85  85  85  85  84  84  84  83  85  80  89  85  87  91  82  96 144 152 154 145 152 135  91  82
 86  86  82  81  83  81  81  87  82  84  84  85  85  85  85  85  85  85  84  84  84  84  83  83
 83  83  83  83  83  83  83  84  83  83  83  83  84  83  83  83  82  82  81  80  80  79  78  78
 75  74  73  73  73  74  74  74  73  75  76  76  77  77  79  80  78  79  78  79  79  80  80  80
 81  85  82  82  81  82  84  83  82  85  87  85  81  79  82  89 112 134 148 138 111  91  83  83
 86  74  63  62  63  62  61  62  45  57  67  69  70  73  73  70  72  70  69  72  76  77  76  73
 73  72  73  74  74  73  73  75  72  74  76  75  75  77  78  78  80  81  83  84  86  85  81  74
 67  53  37  29  23  25  39  55  51  48  51  49  46  48  50  46  55  46  45  46  37  33  38  41
 49  50  47  45  45  46  47  44  41  40  30  32  50  33  31
 26  23  22  23  21  15  12  13   7  13  24  25  26  21  11  13  11   7  12  14  11  12  12  13
 14  26  26  26  23  17  18  24  33  32  31  29  31  32  31  29  29  28  28  31  33  35  37  40
 37  44  31   6   0   0   0   0   0   0   0   0   0   0   0   0   4  18  31  33  31  29  25  19
 22  22  23  23  23  20  15  13  18  16  13  15  15  13   9   7   1   1  23  58  75  59  28   6
  1   9  25  69 106  67   0   6   3   0  45  49  30  83  30   9  99 103 104 110 101 106 125 134
145 117  96  95  99  98  99 105 102 103 104 104 104 105 107 109 107 108 108 108 107 105 104 103
103 103 102 101 101 100  99  98  96  94  92  90  90  89  89  88  85  84  85  88  89  90  91  93
 97  98  98  99  99  99  99  99  99 100 101 101 100  99 100 101 102 102 102 101 100 100 100 100
 97 102  97  97  99 105  85 129 170 158 175 136  87  97  89 103  83  90 100  96  97  94  98  97
 98  98  96  96  96  96  96  96  93  95  96  97  96  95  95  96  93  93  92  92  92  93  94  94
 91  91  92  91  91  90  89  89  88  87  85  85  84  84  83  82  80  79  77  76  75  75  76  76
 75  76  77  76  74  74  76  78  78  79  80  81  81  82  83  84  84  85  86  86  85  84  84  83
 84  85  85  85  85  84  84  83  84  81  85  90  81  84  92  77  94 134 154 149 143 155 148  92
 81  83  87  85  80  83  86  81  84  84  84  84  85  84  84  84  85  85  85  85  85  85  85  84
 85  85  85  85  85  85  84  83  83  83  83  83  83  83  82  82  83  82  82  81  80  80  79  79
 76  75  75  74  74  74  74  74  73  74  75  75  75  76  78  80  78  79  78  79  79  79  79  79
 79  84  82  84  83  79  83  80  81  81  83  85  85  85  87  88  85  89 101 123 145 148 124  97
 83  78  78  82  86  80  68  60  65  58  54  51  48  47  56  67  73  75  76  75  73  72  73  75
 74  73  74  75  75  74  74  74  71  72  73  73  74  76  77  78  75  81  85  82  79  79  83  87
 79  80  76  66  59  54  40  26  30  35  40  44  46  48  48  46  41  41  49  49  37  34  36  35
 38  41  40  44  47  47  46  40  36  41  45  48  49  37  27
  9   9  11  15  16  16  18  21  32  26  44  50  55  51  32  10   8  13  22  19  17  20  13  11
 13  22  14  16  25  31  34  48  29  29  27  28  28  29  27  26  27  25  26  28  31  33  35  38
 40  33  15   0   0   0   0   0   2   2   1   1   0   0   0   0   1  10  24  30  28  26  25  21
 23  20  17  17  17  18  17  16  13  13  10   6   1   1   4   8  48  64  67  41   9   0   1   7
 30  58  79  77  30   3   4   0   3   0  20  38  66  42   2  45 110 101  99 106 129 167 169 136
102  93  91  99 104 101  98 100 101 102 103 104 104 105 106 107 106 107 107 106 105 104 103 102
102 101 100  99  99  98  96  95  94  92  90  88  89  89  88  87  86  86  87  89  91  92  93  95
 97  98  99 100 100 100 101 101 100 101 102 101 100  99 100 102 102 102 101 100 100  99  99  98
 98 101  97  99 101  89 117 161 161 165 157  91  89  98  92  93  82  98  98  97  94  98  94  99
 98  97  96  96  95  95  95  95  94  95  95  96  95  95  95  95  94  94  93  92  92  92  94  94
 91  91  91  91  90  89  89  89  88  87  85  84  84  83  82  82  80  79  77  76  75  75  75  75
 74  75  76  75  73  73  75  77  77  78  79  80  81  81  82  83  83  84  85  85  86  85  83  81
 84  84  85  85  85  84  84  83  82  88  84  80  86  84  79  86  80  80 129 157 148 150 151 144
107  86  81  88  88  85  82  74  84  84  84  84  84  84  83  83  85  85  85  86  86  86  85  85
 86  85  85  85  85  85  84  83  83  83  84  84  84  84  83  83  83  83  82  82  81  80  79  79
 77  77  77  76  76  75  75  74  73  74  74  74  75  75  77  78  78  78  77  78  78  79  78  78
 78  81  78  81  84  78  86  83  84  78  75  76  78  81  82  78  81  82  82  83  91 109 132 148
142 119  90  76  77  80  75  67  63  65  65  65  61  58  59  62  69  69  68  68  69  70  71  72
 74  73  73  75  76  75  74  75  78  76  74  72  71  74  74  74  77  77  75  76  79  80  79  78
 84  87  85  82  79  77  68  59  46  44  38  32  32  34  39  41  33  39  47  45  38  40  45  43
 42  43  38  37  35  32  34  33  40  44  48  51  50  60  54
 16  26  34  39  39  42  42  41  48  24  45  60  64  66  58  40  16  12  14  14  14  18  13   9
 15  24  27  44  55  55  38  27  27  27  29  29  28  27  28  28  27  26  25  27  29  31  33  36
 38  16   1   2   3   0   0   0   0   0   0   2   1   0   0   0   2   5  18  27  24  22  22  19
 18  21  21  19  15  15  12   9  12   9   3   1   9  30  53  67  43  24   3   0   0  22  54  82
 68  43  34  43  13   0   5   1   0   0   0   4   8   2   1  49  70  71 104 144 156 137 104  84
 89  97 102 100  98 101 103 102 103 104 104 105 106 106 105 104 105 106 106 105 103 102 102 102
100  99  98  97  96  95  93  92  91  89  87  87  88  88  88  87  88  88  88  91  93  94  95  97
 98  99 100 100 100 101 102 103 103 103 102 101 101 102 103 103 103 102 100  99  99  99  98  97
100  96  99 100 100 100 162 164 161 169 115  86 103  91  99  78  89  98  96  97  94  99  95  97
 97  97  96  95  95  95  95  95  95  95  94  94  94  93  93  92  93  92  92  91  91  92  92  93
 90  91  91  91  89  88  88  88  86  85  84  84  84  83  82  81  80  79  78  76  74  74  74  74
 74  75  75  74  75  75  76  76  76  77  79  80  80  80  81  81  84  83  82  84  86  85  82  80
 84  84  86  86  86  86  85  84  87  77  87  82  82  88  77  84  93  80  85 125 151 148 147 147
150 118  91  85  86  85  83  83  82  82  82  83  83  83  84  84  84  84  85  85  85  85  85  85
 86  86  85  85  85  85  85  84  83  83  84  84  84  84  83  83  83  83  83  82  81  80  80  79
 79  79  79  79  78  76  74  74  74  73  72  72  74  75  75  76  77  76  75  76  78  78  78  77
 78  80  76  78  81  77 101 110 111 114 117 111  98  92  91  86  84  87  89  86  78  76  86  99
125 140 147 131 103  83  82  86  86  86  80  65  56  56  58  55  55  52  52  56  63  69  71  71
 72  70  71  72  75  74  74  75  76  75  74  72  73  75  75  74  71  73  75  76  76  76  77  79
 78  77  81  86  83  78  78  83  76  72  63  53  46  38  30  25  34  38  38  33  29  32  37  39
 40  41  42  38  33  30  26  26  33  34  35  42  48  56  55
 31  42  47  41  42  49  53  51  54  21  47  64  61  64  70  62  46  20  12  14  18  26  30  31
 41  54  57  55  32  26  30  31  29  29  30  30  29  27  28  29  30  27  26  27  28  30  32  34
 25   6   0   2   1   0   0   0   3   0   0   0   1   1   0   0   0   1  10  23  22  20  20  18
 14  16  15  13  13  15  12   6   1  10  31  54  69  63  34   5   0   0  12  44  79  85  55  23
  2   3  12  10   0   5   0   0   0   0   4   0   0   0  19  35  72 105 124 101  81  80  85  95
 99  99  99 100 101 103 104 103 103 103 103 104 105 106 105 104 104 105 105 104 102 101 102 103
 99  98  97  96  94  93  91  89  89  87  85  85  87  87  87  86  90  89  90  92  94  95  96  98
 99 100 100 100 100 100 102 103 103 101  99  99 101 103 103 103 104 102 100  99 100 100  98  96
 99  94 101  95  92 149 163 158 163 132  85  98  94  98  87  88  96  93  97  94  98  95  98  94
 97  97  95  95  94  94  94  94  96  95  93  92  92  92  91  90  89  89  89  89  90  91  92  93
 90  91  91  91  89  88  88  88  86  85  84  84  83  83  82  81  79  79  77  76  74  73  73  73
 75  75  75  75  76  76  77  77  77  77  78  79  80  80  80  81  84  82  81  82  85  86  83  81
 84  84  86  86  86  86  85  85  82  82  81  83  83  83  86  85  82  89  84  85 120 154 155 145
150 151 126  94  85  89  88  87  79  80  81  82  83  84  85  85  83  83  83  84  84  84  84  84
 86  86  85  85  85  85  84  83  82  82  83  83  83  83  83  83  83  83  83  83  82  81  80  79
 79  79  80  80  79  77  74  74  75  72  71  71  73  74  74  74  75  75  74  75  77  78  77  77
 76  80  77  78  79  81 123 147 143 144 148 147 140 137 131 118  97  84  77  82  88  86  82  82
 79  90 108 131 148 145 119  91  77  77  80  82  77  70  67  70  67  66  65  64  63  65  68  71
 70  69  69  71  73  74  74  74  74  76  77  76  75  74  73  71  73  72  72  74  76  77  75  74
 77  77  79  80  81  83  83  82  79  81  78  75  71  61  46  36  27  32  31  31  34  37  39  43
 36  34  37  37  37  37  33  36  38  33  33  47  52  44  52
 52  50  55  49  54  65  58  61  53  21  48  69  62  69  64  70  65  62  56  58  54  52  56  45
 35  38  37  33  32  28  29  31  29  29  29  28  28  30  31  31  30  31  31  31  32  29  28  32
 15   4   4   0   0   1   0   1   0   0   1   0   1   0   0   4   6   0   3  16  21  15  19  13
 14   9  16   8   7   5   0  22  58  74  73  44  14   0   0   2  39  72  93  74  36  10   2   1
  0   3   1   0   0   1   0   0   0   0   1   2   9  30  67  97 107  89  69  52  51  71  91  94
 96  98  99 100 101 101 102 102 103 103 103 105 104 103 102 103 103 102 101 100  99  99 100 100
 96  96  95  93  90  89  88  88  87  87  86  85  85  86  88  89  91  92  94  95  95  96  98  99
 99 101 100  98 101 107 104  98  95  99 100  99  98 100 102 102 103 101  99  96  94  94  96  98
100  93  98  92 129 167 156 169 147  91  93  93  90  95  79  91  92  92  93  94  95  95  95  95
 93  95  95  94  93  94  95  95  92  93  93  92  92  94  94  93  92  90  89  89  90  91  92  92
 92  92  91  90  89  89  88  88  86  85  84  82  81  81  82  83  80  79  78  76  74  72  71  71
 73  74  74  75  76  76  76  75  78  78  77  78  79  81  81  81  84  83  82  82  82  83  83  83
 83  83  83  85  85  85  85  86  85  84  82  80  81  84  85  83  88  79  90  88  79 113 152 149
148 151 149 130  93  86  90  85  84  77  79  84  79  82  90  79  80  82  84  84  84  83  83  84
 84  84  86  85  84  84  84  85  83  83  83  83  83  83  82  82  82  81  81  81  81  81  82  82
 79  80  80  80  80  79  78  79  78  76  74  73  73  72  72  72  72  72  72  74  74  75  75  74
 80  73  81  73  74  92 138 133 131 139 139 136 141 135 140 135 133 121 103  81  79  85  79  83
 81  87  83  80  97 125 146 153 136 107  80  83  81  81  79  84  68  60  53  54  55  51  48  48
 50  58  68  71  71  72  72  70  72  73  75  76  77  76  75  74  75  75  73  72  72  72  73  73
 74  75  76  77  78  79  80  81  80  80  81  83  85  84  78  74  59  52  46  42  36  32  33  37
 37  36  41  45  42  38  39  38  42  35  32  36  41  44  40
 65  66  66  53  50  57  47  44  35  21  49  68  64  68  62  60  53  52  47  48  44  41  43  30
 32  37  38  34  32  29  30  32  35  36  37  35  34  35  37  36  36  33  32  31  30  29  27  25
  3   2   0   2   0   0   0   0   0   8   8   6   0   0   3   0   0   0   5  12  14  19  10  16
 13  14   0   0  15  42  89  78  54  27   2   0   5  36  67  80  88  57  20   1   0   1   0   0
  1   0   0   1   4   0   0   0   4   6  11  28  65  96  99  84  61  52  51  57  60  65  81  99
 96  97  99 100 100 101 101 102 103 102 102 103 103 101 101 102 100 100 100  99  99  98  98  97
 94  94  93  91  89  87  87  87  86  86  86  86  86  87  89  91  93  94  95  96  97  97  99 100
 98  99 100 101 102 102 100  98  97 100 101 100  99 100 101 101 101 100  99  97  96  96  97  97
 95 100  89 129 166 161 164 154 112  91  87  92  96  87  92  97  93  93  94  94  95  95  95  95
 94  96  95  94  94  95  95  95  94  95  94  93  93  94  94  93  93  92  90  90  90  91  91  91
 92  91  91  89  89  88  88  87  86  86  84  83  82  82  82  82  80  79  78  77  75  74  73  72
 73  73  74  75  76  76  76  75  77  77  77  78  79  80  80  80  84  84  83  83  83  84  85  84
 85  84  84  85  86  85  85  86  84  84  82  80  81  83  83  83  85  88  81  81  85  78 103 158
154 149 147 151 144  93  85  88  84  88  84  74  81  86  79  86  80  82  83  83  83  84  84  85
 84  84  85  85  84  84  84  85  84  84  84  84  83  82  81  81  82  82  82  82  82  82  83  83
 81  81  81  80  80  79  77  77  78  76  75  74  74  74  74  73  72  72  72  73  73  74  74  75
 77  72  77  77  73 109 140 133 133 141 142 136 134 133 137 151 143 144 136 115  94  83  79  84
 87  84  82  84  83  78  89 108 132 146 143 121  87  80  74  71  83  70  62  65  67  61  59  61
 61  65  67  65  67  73  77  78  73  73  72  72  72  73  74  75  73  72  71  71  73  73  72  71
 71  72  73  75  74  76  77  79  78  78  78  80  81  80  80  78  79  77  74  70  58  42  28  23
 43  41  45  48  46  45  45  41  46  43  39  41  42  39  33
 72  71  66  47  41  47  39  36  35  31  46  50  43  43  41  35  33  34  34  38  39  41  43  32
 38  49  56  54  55  54  53  51  52  54  54  49  46  48  50  48  38  33  31  29  27  29  26  16
  0   2   0   1   0   0   1  17  27  31  49  25  23  14   3   0   0   5   0   9  15  14  10   3
  1   1  41  84  86  68  34   0   0   0   1  47 106 115  74  36   8   1   0   2   3   0   1   7
  0   1   1   1   1   2   8  16  20  39  68  93 101  87  62  44  51  54  58  62  64  65  76  92
 96  97  99 100 100 100 102 103 102 101 100 101 100 100  99 100  97  98  99  99  98  96  95  94
 91  91  90  89  87  86  86  86  84  85  87  87  88  89  91  93  95  96  97  98  98  99 100 100
 98  98 101 104 102  98  96  98 100 101 101 100 100 101 101 100  99  98  98  99  99  98  98  97
100  93 109 155 164 160 161 129  89  91  88  94  88  84  96  96  95  95  96  96  96  95  95  95
 94  95  94  94  94  96  96  94  96  96  95  94  93  94  94  92  92  92  91  91  91  91  90  90
 92  91  90  89  88  87  86  85  86  85  84  83  82  82  81  81  80  80  79  78  75  75  74  74
 73  73  74  74  76  76  76  75  76  76  76  77  79  79  79  79  82  82  82  82  83  84  85  85
 86  84  83  85  85  84  84  84  83  84  84  82  81  81  82  82  80  90  82  77  88  84  82  98
153 151 147 153 150 148 108  83  76  86  88  81  74  78  85  80  81  81  83  83  83  83  84  84
 85  85  84  84  85  85  85  84  86  86  85  85  84  83  82  81  81  81  82  82  82  82  82  81
 81  81  81  80  79  78  77  77  79  78  77  77  77  77  76  76  73  72  72  72  73  74  74  74
 75  70  73  76  77 129 139 133 137 140 139 137 135 134 110 126 144 142 143 147 141 122  98  77
 79  84  86  86  87  85  81  82  87 102 125 148 148 137 109  87  74  80  83  80  78  76  67  57
 56  54  54  55  51  46  51  60  65  67  70  72  73  73  73  73  74  71  72  72  74  74  72  70
 69  70  71  72  72  73  73  74  74  74  75  76  77  78  80  82  81  79  80  82  78  67  57  51
 45  34  30  36  41  44  46  46  48  47  45  44  39  35  34
 66  66  60  43  39  43  37  36  32  34  33  30  26  29  34  32  33  35  35  37  40  41  40  34
 55  65  68  66  67  66  62  61  68  70  68  60  53  48  38  27  33  29  28  28  24  28  24   9
  1   1   1   0   0   0   3  31  31  24  77  28  53  31   4   2   0   0   7   0  18  10   1  21
 67  94  87  57   6   0   0   1  10  26  65  85  56  17   3   1   0   1   1   0   0   1   0   0
  1   4   4   3   8  16  23  27  61  89 106  88  56  41  48  59  56  61  61  61  65  67  76  90
 97  98  99 100 100 100 102 101 101 100  99  99  99  99  99  99  97  97  98  97  96  94  92  91
 89  89  89  87  86  86  86  87  85  87  89  90  90  91  93  94  97  98  99  99  99  99 100 101
 98  99 102 103 101  97  96  98 101 100 100  99 100 100  99  97  98  98  98  99 100 100  98  97
 94 104 155 169 159 164 135  93  92  90  95  92  74  92  94  95  97  97  97  96  96  96  95  95
 94  94  93  93  94  96  95  93  95  96  95  93  92  93  92  91  91  91  91  91  91  91  91  91
 92  91  90  89  88  87  85  85  85  84  84  83  82  81  80  80  81  81  80  78  76  75  74  74
 73  73  73  74  75  76  76  75  76  76  76  77  79  79  78  78  80  80  80  81  82  83  84  85
 85  83  82  84  84  83  82  82  83  84  84  83  81  81  81  83  86  83  87  86  82  83  83  75
 96 148 154 142 150 153 151 121  85  83  80  86  85  77  80  80  83  83  84  84  83  83  82  82
 85  84  83  84  85  85  84  83  86  86  86  85  84  83  82  81  80  80  80  80  80  80  80  80
 81  81  81  81  80  79  78  77  80  79  78  78  78  78  78  77  75  74  73  72  72  73  72  72
 72  71  72  70  92 140 134 133 139 137 136 136 138 134  78  84 107 130 141 141 137 141 139 113
 94  83  74  77  84  84  80  82  85  79  77  89 110 136 147 146 118  95  76  74  79  77  73  70
 65  59  59  63  65  62  59  58  68  69  71  72  71  69  68  68  72  72  72  73  74  73  72  71
 69  69  70  70  70  70  70  71  70  71  72  74  75  76  78  78  79  77  78  80  82  80  79  79
 75  58  50  52  51  44  44  47  46  47  46  43  40  35  34
 24  26  27  25  27  29  27  30  27  32  28  30  33  34  39  39  38  39  38  36  37  38  36  34
 60  63  61  59  61  63  62  60  66  59  45  32  28  28  28  25  26  23  27  27  23  27  21   5
  2   0   0   0   1   0  18  12  25  24  70  22  42  20  31  12   8   0   0   4   7  18  71  99
 73  28   1   1   2   1  11  43  75  77  46   7   0   4   3   0   0   3   5   0   0   0   4   4
  4   5  10  18  22  30  59  94 108  85  56  40  43  53  56  53  57  59  60  63  67  69  79  97
 97  99 100 100 101 101 101 102  99  99  98  98  99 100 100  99  98  98  96  95  93  92  90  90
 87  87  87  86  85  85  86  87  87  89  92  92  93  93  95  96  98  99  99  99  99  99 100 100
 99 101 101 100  99 100 100  99 101  99  98  99  99  98  97  95  99  98  98  98  99  99  98  97
 97 144 166 158 160 151 114  88  95  91  94  79  81 101  93  97  97  97  96  96  95  95  94  94
 95  95  94  93  95  96  95  93  95  96  96  94  92  93  92  91  91  91  91  91  91  91  91  90
 92  91  90  89  87  86  86  85  85  85  85  84  83  82  81  80  80  80  79  77  75  74  73  74
 73  73  73  74  74  75  75  76  75  75  76  77  78  79  78  78  79  79  80  81  80  81  83  84
 85  83  82  83  83  82  82  82  82  83  83  83  83  82  83  84  82  83  83  86  84  81  82  87
 77  98 142 155 150 146 150 155 132  82  82  87  81  88  80  79  82  82  83  83  84  83  81  80
 84  84  83  83  84  85  84  83  84  85  85  85  85  84  83  82  80  80  80  80  80  80  80  80
 80  80  81  81  81  80  79  79  81  80  79  79  79  79  79  78  76  75  73  72  71  71  70  69
 69  70  71  64 112 141 132 134 138 139 141 138 138 127  69  75  75  82 104 138 148 140 141 137
137 115  90  80  82  83  82  83  78  84  89  82  73  78 104 128 145 149 135 106  85  81  81  76
 77  84  83  74  66  64  60  54  60  58  57  56  59  63  67  71  69  69  71  71  71  72  73  75
 70  71  71  71  70  70  70  70  70  70  70  72  74  75  75  74  79  77  77  79  80  79  78  79
 80  75  74  70  58  44  39  39  34  35  35  35  34  35  36
 30  29  27  27  30  28  28  32  33  36  33  35  37  33  32  33  32  32  33  31  33  34  32  39
 56  56  55  52  56  54  49  47  31  29  25  24  24  27  25  22  22  22  25  25  24  24  17   3
  0   0   1   5   0   3  41  11  16  42  59  38  19   6  60  16   0   0   6   3   7  60  55   6
  1   1   2   1  25  48  77  72  27   6   0   2   0   0   1   0   3   0   0   0   1   3   3   2
  7  15  18  30  66 100 102  84  55  41  37  50  60  58  57  61  61  66  69  66  66  74  86  99
 99  99 100 100 101 100 100 100  98  98  98  98  99 100 100  98  98  96  95  92  91  89  89  89
 85  85  85  85  84  85  86  88  90  92  94  94  94  94  96  98  98  99  99  99  99  99  99 100
100 101 100  98  98 101 102 100 100  99  98  99  99  97  95  95  98  98  98  98  98  98  98  97
 97 120 117 108 114 107  91  91  91  95  87  71 100  99  95  97  95  95  95  94  93  93  93  93
 95  96  95  95  95  96  95  93  95  96  96  94  93  93  93  92  92  92  92  91  90  89  89  89
 92  91  90  89  87  86  86  86  86  86  85  85  84  82  81  81  80  80  79  77  74  73  73  73
 72  72  73  73  74  74  75  76  75  74  75  76  77  78  78  78  79  79  80  80  80  81  82  83
 85  84  83  84  83  82  82  83  83  82  82  83  84  83  83  85  78  84  82  80  85  88  84  80
 89  83  84 139 156 153 149 144 146 142  91  77  85  79  87  79  80  80  81  82  84  83  82  81
 83  83  83  83  83  84  83  83  83  83  84  84  85  84  84  83  81  81  81  81  81  80  80  80
 79  79  80  81  82  81  81  80  82  81  80  79  79  79  79  78  78  76  75  73  72  71  70  69
 67  69  67  73 129 136 132 136 139 141 144 139 141 117  72  77  75  74  74  86 110 135 146 140
133 139 133 113  90  76  74  79  85  73  75  83  89  81  77  75  90 111 140 153 140 112  88  78
 76  77  77  74  63  52  50  55  50  48  47  48  53  58  62  64  70  71  71  72  70  71  72  73
 72  73  73  73  72  71  71  71  73  71  69  69  71  72  73  72  75  75  76  77  78  76  77  76
 78  81  82  76  73  74  70  58  44  37  29  26  25  27  31
 26  28  26  28  34  37  40  42  29  28  28  28  29  28  26  29  31  30  30  29  29  28  26  38
 60  58  53  49  45  37  28  25  28  23  22  20  21  21  20  22  21  20  21  22  23  22  12   1
  0   1   2   5   0   8  32  36   1  38  54  49  12  13  52  26   0   8   0   1   1   0   0   3
  6  29  75  76  86  68  18   1   0   0   0   1   7   2   0   1   0   0   0   4   5   3   7  13
 21  34  59  89 103  87  59  44  42  53  59  55  52  56  59  58  61  66  69  67  69  85  98 100
 98  99 101 101 100  99  99  99  97  98  98  97  98  99  98  95  94  94  92  90  89  88  88  88
 85  85  86  85  86  87  88  90  91  93  95  95  94  95  97  99  98  99  99  99  99  99  99 100
100  99  98  98  99  99 100 101 100  99  98  99  99  97  95  96  96  97  98  98  98  97  97  97
 98  89  94  93  90  92  90  93  91  93  84  84 102  95  97  94  95  95  94  94  93  93  93  94
 94  96  96  95  94  94  93  92  94  95  95  94  94  95  93  92  92  92  92  91  89  88  88  89
 90  90  89  88  87  86  86  86  87  86  85  84  83  82  81  81  79  79  79  77  74  73  73  74
 71  71  72  72  73  74  74  75  74  74  74  75  76  78  78  78  79  79  80  80  80  80  82  82
 83  82  83  83  83  81  81  83  84  83  82  83  84  84  83  85  86  79  82  84  78  76  82  84
 81  85  77  80 138 150 146 153 153 146 143 102  80  89  80  85  82  81  80  80  82  83  83  83
 81  81  82  82  82  82  83  83  82  83  83  83  83  83  83  84  82  82  82  82  83  81  80  80
 79  80  80  81  82  82  82  82  83  82  81  80  80  79  79  78  78  77  76  75  74  73  72  70
 69  68  63  97 135 131 133 136 140 138 140 138 145 102  72  74  72  75  77  72  74  88 112 139
144 138 135 139 134 113  89  79  75  78  84  75  76  78  87  84  80  78  79  96 128 150 146 130
105  87  74  78  84  81  78  80  80  76  71  69  69  68  64  61  61  61  64  65  68  69  69  68
 69  70  71  72  72  71  71  71  74  73  70  69  70  70  71  71  73  73  73  72  71  73  73  75
 80  79  78  76  78  87  83  72  73  65  54  44  35  31  31
 23  30  27  27  28  25  18  11  19  20  26  25  25  27  23  25  25  24  27  27  27  25  24  42
 62  57  49  43  38  31  27  29  25  22  21  22  21  17  16  19  18  19  17  19  23  21   9   1
  1   1   0   0   8  17   1  51  20  36  55  29   3  23  27  55  24   0   1   3   0   0   5   0
 38 124 105  53  13   0   0   1   0   1   3   0   0   1   2   0   0   0   1   4   7  12  20  28
 57  93 111  89  57  43  44  51  58  56  56  56  58  60  62  63  69  63  69  81  87  94  99  99
 98  99 100 100  99  98  97  97  97  98  97  97  98  98  96  92  90  91  89  89  87  87  86  86
 87  87  87  87  87  89  91  92  91  93  95  95  94  95  98 100  98  99  99  99  99  99  99 100
100  97  97 100  99  96  97 102 100  99  99 100  99  97  96  97  94  96  98  99  98  97  97  97
 98  98  92  95  92  90  96  92  95  84  85 105  88  96 100  94  96  96  95  95  95  95  95  96
 93  95  95  94  92  92  91  91  92  94  94  93  93  94  93  92  91  91  91  90  89  88  89  90
 90  90  89  88  87  86  86  86  86  85  84  83  81  81  80  80  78  79  79  77  74  73  73  75
 71  71  71  71  72  73  74  74  73  73  73  74  75  77  78  78  78  79  79  79  78  79  79  81
 82  82  83  83  82  80  80  83  85  82  81  83  84  84  84  85  81  82  80  81  84  84  81  80
 86  84  85  86  80 120 159 148 147 148 151 147 112  80  83  86  84  82  79  79  80  82  82  83
 81  81  82  81  82  81  82  83  82  83  82  83  83  83  83  83  82  83  83  82  81  81  79  79
 78  79  80  81  82  82  82  82  84  83  81  80  80  79  79  78  78  77  77  76  75  74  73  72
 72  69  60 118 134 128 134 132 138 134 138 138 142  85  71  76  72  72  77  75  75  73  75  94
124 139 142 135 135 138 128 113  89  75  74  77  84  76  79  81  81  83  83  79  79  92 117 137
153 143 117  86  72  77  80  77  76  69  60  54  52  51  48  44  45  46  49  56  65  68  69  67
 67  70  70  72  72  72  73  72  71  73  72  71  70  69  69  71  68  70  71  72  70  72  73  74
 76  76  81  83  80  77  79  80  79  78  77  75  68  58  51
 25  25  22  23  23  25  25  24  22  22  21  20  20  21  21  20  21  19  14  21  24  10  15  43
 54  51  46  41  36  31  25  22  23  19  15  16  16  15  16  16  15  14  13  17  23  19   8   0
  2   0   4   2   1  55  40  24  46  60  47  25  28  39  33  75  41   0   0   1   0   0   0   0
  8  17  10   0   0   2   0   0   0   1   0   0   1   0   1   3   3   1   9  16  17  28  59  89
109  85  57  41  42  48  53  55  57  58  59  61  62  63  62  61  62  71  83  92  97  99  99 101
 98  98  99  99  98  96  96  96  98  96  97  97  97  95  91  90  86  86  86  85  84  84  84  85
 85  85  85  85  88  91  92  91  92  91  91  93  96  98  98  97  98 101  99 100 101 101 100  93
 93  95  98  98  98  98  99 101  96  97  98  98  99  99  98  95  99  98  98  98  98  98  98  99
 98  93  99  94  90  97  94  91  95  75  88 101  95  95  97  97  98  96  96  96  96  95  95  95
 95  93  92  93  94  93  92  91  93  92  93  95  96  96  92  89  92  89  87  88  89  89  88  88
 89  89  89  88  87  86  87  86  86  87  86  83  82  82  81  80  78  76  75  74  74  74  73  73
 69  69  70  71  73  74  73  72  71  72  74  75  76  77  77  76  78  80  81  81  80  79  79  80
 80  83  83  81  81  82  82  80  80  82  78  80  86  84  79  81  81  82  81  81  80  81  83  84
 83  81  79  81  81  81 111 158 149 152 148 146 151 120  79  88  84  83  82  78  76  81  84  81
 83  83  82  82  82  82  82  82  82  81  82  83  83  83  82  84  81  81  82  85  85  82  80  80
 79  79  80  80  81  80  78  76  82  82  82  82  82  81  79  79  77  78  79  80  77  73  73  76
 76  71  77 131 132 135 130 133 132 138 139 141 136  76  66  77  69  71  74  73  73  77  75  67
 67  95 119 138 137 133 141 140 136 110  91  72  69  78  78  81  80  80  82  84  83  79  80  82
102 131 156 152 125  98  82  72  72  84  81  68  67  72  71  69  66  64  63  64  66  67  69  72
 72  72  72  69  68  68  70  71  69  70  70  70  70  70  69  68  66  66  68  68  68  67  69  69
 70  71  72  73  74  76  78  80  77  77  78  80  79  76  70
 21  22  25  26  27  25  20  17  16  15  12  10  10  13  14  14   3   8  10   5   2   8  33  56
 47  46  43  40  35  30  25  22  22  19  17  18  16  13  11  11  13  17  18  20  21  15   7   3
  0   0   0   0   2  32  33  46  72  46  21  37  97  95  59  25  31   1   4   0   0   0   1   0
  0   5   2   0   0   1   0   3   2   2   0   0   2   1   1   2   8  13  18  28  55  92 105  96
 50  45  41  44  50  54  55  55  56  59  62  62  60  60  62  67  74  82  91  98 101 100  98  97
 98  97  97  97  98  98  97  96  99  96  95  95  94  91  89  88  85  85  86  85  84  84  85  86
 87  88  88  87  88  90  92  92  95  94  94  95  96  97  97  96  97 100  98  99  99  97  99  94
 95  97  99 100  99  98  97  97  99 102 103 101  97  96  97  97  98  98  97  97  98  98  98  98
 96  96  97  96  97  91  93  95  81  83  95  96  95  98  94  92  96  95  94  95  95  94  93  94
 95  93  92  93  95  94  93  92  94  94  95  95  95  94  92  91  88  87  87  89  90  89  87  87
 88  88  87  87  86  85  86  86  85  86  85  83  82  83  82  81  79  78  76  75  75  75  74  73
 71  70  69  68  70  71  72  71  73  74  74  74  76  76  76  76  77  78  79  80  80  80  80  80
 80  81  82  81  81  82  82  80  81  82  79  80  86  83  79  81  80  80  81  80  79  80  81  82
 79  80  78  80  84  80  87 109 161 142 149 145 146 150 130  82  84  76  77  82  77  77  81  80
 82  82  83  82  81  81  81  82  82  82  82  83  83  82  82  84  83  82  83  85  84  82  80  80
 80  80  80  80  80  80  79  79  80  81  82  82  82  81  80  79  78  78  79  79  77  73  73  74
 72  68 100 135 132 133 135 138 136 138 139 139 132  68  67  72  74  66  66  70  72  73  76  77
 75  71  67  92 128 139 136 135 134 135 133 114  91  78  74  76  78  83  83  80  79  83  83  79
 79  80  91 118 144 152 135 114  93  74  75  85  82  77  76  70  65  62  58  57  54  51  49  48
 53  58  65  70  71  70  68  67  70  70  70  70  70  70  69  69  69  69  69  68  67  66  67  67
 70  71  71  72  73  74  75  77  76  76  77  78  78  77  75
 16  15  13  12  12  12   9   9   8   7   5   2   2   3   3   3   5   3   9  16  22  41  53  45
 39  40  40  37  33  27  21  18  18  15  13  12  12  12  11  12  13  12  11  16  21  17   4   0
  0   0   0   4   8   5   4  20  36  37  33  49  38  42  19  49  53   4   0   0   0   0   0   0
  0   0   0   0   0   0   1   2   0   1   1   2   6   7   9  14  18  28  55  88 100  88  62  41
 41  44  50  55  57  56  56  58  58  60  61  61  62  66  73  79  89  93  98 101 101  99  97  96
 98  96  95  96  98  98  97  95  97  94  91  91  90  89  87  87  84  85  85  85  84  84  85  86
 89  91  91  90  89  91  93  94  97  96  97  97  97  98  98  98  98  99  97 100  99  95  97  97
 97  98  99 100 100 100 100 100  97 100 101  99  97  97  98  99  97  97  96  96  97  98  98  97
 95  94  93  97  98  90  97  88  75  92  99  94  96  98  90  93  95  94  93  94  93  92  92  94
 94  91  90  93  95  94  93  92  95  95  95  93  92  91  91  91  87  87  87  89  89  88  88  89
 88  87  86  86  85  85  86  86  84  85  84  83  83  83  83  82  79  79  77  76  76  75  74  73
 72  71  70  69  70  71  71  71  73  75  75  75  75  75  76  76  77  77  77  78  79  80  79  78
 80  80  81  80  81  83  82  81  82  82  79  80  84  83  79  80  82  82  82  81  80  80  80  80
 82  84  79  77  82  81  79  81 104 161 151 154 147 149 154 125  89  80  77  79  78  78  79  76
 80  81  82  81  80  79  80  81  81  81  81  83  83  82  81  82  82  82  83  84  84  83  82  82
 83  82  81  81  81  81  81  81  80  80  81  82  82  81  80  79  79  79  80  80  77  75  74  74
 74  73 127 136 133 129 134 134 138 136 138 139 123  62  69  67  73  71  73  74  72  72  73  71
 72  74  77  71  73  97 123 140 143 139 138 140 129 109  93  79  78  75  75  79  81  80  79  80
 83  80  78  80  86 104 130 151 144 125  96  76  74  78  76  71  61  60  55  51  49  48  50  54
 45  48  55  62  65  65  67  68  67  67  68  69  69  69  70  70  71  71  71  71  69  68  68  68
 71  71  71  70  71  71  72  73  74  74  75  76  77  78  78
 11   9   4   3   2   2   2   3   2   3   6  10  15  22  25  26  41  34  38  41  36  39  40  29
 37  39  39  37  32  27  22  20  18  16  14  13  14  14  11  11  22  25  24  18  13   6   4   6
  2   0   4   0   1  10  26  36  14  18  28  27  14   4  10  52  67   7   0   0   1   0   0   3
  2   1   2   2   0   0   1   0   2   3   1   1   4   9  18  27  52  81 108  99  61  35  37  49
 53  54  56  56  56  56  60  65  63  60  59  64  72  81  88  90  98  98  98  98  98  98  98  98
 97  95  94  94  95  95  95  93  94  92  90  90  89  88  86  86  84  85  85  85  84  84  85  86
 90  92  93  92  92  93  94  95  95  96  97  97  98  99  99 100 101 100  97 101 100  95  98  98
 99  98  98  97  98  99 100 101  97  97  96  96  98 100  99  97  96  96  96  95  97  98  97  96
 97  92  92  98  92  98  98  75  86  94  97  95  97  94  90  98  96  94  94  95  93  92  93  94
 92  90  89  91  94  93  92  91  95  94  94  93  92  91  90  91  90  89  88  88  87  88  90  92
 88  87  86  85  85  85  87  88  84  85  85  84  83  83  83  82  79  79  77  77  77  75  74  72
 71  71  71  72  72  72  71  70  72  73  73  73  73  73  74  75  77  78  76  76  78  79  78  76
 81  80  80  80  82  83  83  82  84  83  80  80  82  82  80  80  83  83  82  82  81  81  80  79
 83  86  81  76  79  82  83  84  79 101 155 149 150 148 142 154 130  94  79  83  79  77  82  80
 77  78  78  79  79  79  80  80  79  79  80  82  82  81  80  81  81  81  81  82  83  83  83  83
 82  82  81  82  82  82  81  81  78  79  80  80  81  81  79  79  80  80  80  80  78  77  76  76
 75  86 136 132 135 130 132 130 137 137 137 143 111  59  70  67  68  69  71  71  70  72  76  76
 69  73  75  73  77  69  66  98 124 136 139 141 140 138 132 111  86  79  76  80  81  75  76  80
 80  81  83  82  78  79  85  93 128 146 147 129 107  84  72  77  82  80  77  79  81  79  72  68
 71  67  65  66  64  63  64  67  63  65  67  69  70  70  71  71  68  70  72  73  72  71  69  69
 70  69  69  69  70  70  71  71  72  72  73  73  73  74  75
 17  19  21  24  27  29  28  29  34  34  34  33  32  33  33  32  25  27  30  32  31  31  33  37
 31  33  33  32  28  24  21  20  19  16  12  12  16  21  24  25  17  15  13  14  19  14   3   0
  0   0   0   0   7  44  28   5  23  64  62  60  41   1   9  17  53   7   2   0   0   1   2   1
  0   1   2   0   0   1   3   1   4   4   9  18  21  26  51  83 111  96  72  48  37  43  50  49
 55  55  55  56  57  58  60  63  63  62  64  73  85  94  97  96  99  98  97  97  96  97  98  98
 96  96  95  94  93  92  92  92  92  90  89  89  89  86  85  85  86  86  85  85  84  84  85  86
 90  92  92  93  95  96  96  94  95  95  97  97  98  99 100 101 104 101  96 101 101  96  98  98
100 100  98  97  97  96  95  94  97  97  97  97  99 100  98  94  95  96  96  95  96  98  97  95
 95  95  93  97  91 101  84  77  97  92  92  96  95  92  94  96  96  94  93  94  93  92  92  93
 91  90  89  91  94  94  93  91  94  93  92  93  94  94  91  90  92  90  88  88  87  87  89  91
 88  87  86  85  86  86  87  87  85  85  85  85  84  83  82  81  79  78  77  77  76  75  73  72
 70  71  71  71  72  71  71  70  71  72  73  72  72  73  74  75  77  77  76  75  76  78  77  75
 79  78  79  80  81  82  82  82  84  82  81  81  80  81  82  80  80  80  79  80  81  81  80  79
 79  82  82  80  80  80  80  80  78  79  92 146 151 147 147 146 149 147 104  73  85  85  74  88
 77  76  76  77  79  81  81  80  79  78  79  81  82  81  81  82  82  82  82  82  83  83  83  82
 81  81  81  82  83  82  81  79  77  78  79  79  80  80  79  79  79  79  79  79  78  78  78  77
 70 103 131 128 136 132 135 135 136 139 137 147  97  61  70  68  68  66  68  71  70  68  65  61
 69  65  73  69  69  78  75  67  79 103 128 147 142 132 138 138 126 111  88  72  72  80  79  74
 76  79  81  80  78  78  79  78  75  86 114 139 148 145 120  85  76  76  76  79  81  78  71  65
 58  53  50  50  50  48  47  47  57  60  64  67  68  69  69  69  69  70  71  72  72  71  70  70
 70  69  69  69  69  69  69  69  70  70  71  71  71  72  71
 41  41  41  40  37  33  29  27  25  24  23  20  19  21  22  21  20  25  22  22  32  33  29  27
 31  31  31  30  26  24  20  19  18  19  21  22  23  19  12   6  12  20  26  27  23  13   6   5
  0   1   2   0   0  16   1   1  25  98  69  27  78  29  11  39  58   8   2   1   0   0   0   0
  0   1   1   0   0   2   4   4   4  20  23  20  47  89 106  99  66  45  35  43  51  53  55  57
 59  58  59  61  62  62  61  61  64  69  78  87  94  97  98  97  97  97  98  98  97  96  96  94
 95  95  95  94  92  91  90  91  89  89  88  88  86  84  83  82  86  87  86  86  85  85  86  87
 90  91  92  93  96  98  97  94  97  97  97  98  98  99  99  99 102  99  94  99 101  97  98  97
 98  99 100 100  99  97  95  93  92  95  98  98  97  97  97  96  95  96  96  95  96  98  97  94
 89  98  92  92  94  90  67  90  98  92  92  96  92  93  98  90  94  93  92  92  92  91  91  92
 92  91  91  93  94  93  93  93  91  90  90  91  93  93  90  87  89  88  88  89  89  87  86  87
 87  87  86  85  85  85  85  85  86  85  85  85  84  82  80  80  79  78  77  76  76  74  73  72
 71  71  70  68  69  69  70  71  70  72  73  73  73  73  74  76  74  76  75  74  75  77  78  76
 76  76  77  78  79  80  81  82  83  81  80  80  77  80  82  80  79  78  77  79  81  83  83  82
 79  79  80  81  81  79  78  77  77  77  81  92 140 153 149 147 150 153 146 114  81  80  87  78
 79  78  77  78  79  81  82  82  81  80  80  81  82  81  81  82  84  85  85  84  83  83  82  81
 80  80  81  82  83  82  81  79  77  77  78  79  79  79  78  78  78  78  77  77  77  77  77  75
 76 124 130 128 133 132 136 141 137 141 137 145  85  65  69  69  66  71  71  67  74  90  93  82
 82  80  75  73  74  68  66  80  74  63  69 104 134 142 142 136 135 138 131 110  86  74  74  77
 81  80  76  75  78  82  81  77  81  81  81  84 102 132 152 156 129 107  81  69  73  79  75  66
 58  56  55  56  59  60  58  56  61  63  66  68  68  69  70  71  71  71  71  70  70  70  71  73
 72  71  70  69  70  69  68  67  68  68  69  69  70  70  70
 21  21  21  20  21  21  22  23  23  22  21  19  19  22  23  23  25  30  28  23  25  26  28  30
 26  26  26  26  26  24  21  19  17  16  13  11  12  18  23  25  25  21  11   6   6   3   0   0
  2   0   0   3   8  12  14  25  42  61  32  18  43  54  26  48  63   7   0   1   2   0   0   0
  0   3   1   1   5   6   6  12  20  25  45  83 110 101  68  43  40  44  52  54  52  52  56  58
 55  55  58  60  62  63  65  68  72  79  89  95  96  96  97  98  95  96  97  98  97  95  93  92
 93  93  92  92  91  90  89  88  87  86  85  86  85  83  83  84  86  87  87  87  87  88  89  90
 91  92  93  93  94  97  97  96  99  98  98  98 100 100 100  99  98  97  93  97  99  96  99  98
 96  97  99  99  99  98  98  98  91  94  96  96  96  97  98  97  96  97  96  95  96  98  97  93
 88  94  92  90  91  78  75  97  95  94  91  96  92  91  97  89  92  91  91  92  92  91  91  92
 92  92  94  95  93  91  92  94  90  89  90  91  91  90  89  87  88  87  86  88  89  87  85  85
 89  88  88  87  86  85  84  84  85  83  83  84  83  81  79  80  80  79  77  76  75  74  73  72
 71  71  70  68  67  67  69  70  70  72  73  73  72  72  72  73  72  75  75  73  73  76  77  76
 75  75  77  78  79  78  81  84  81  78  79  78  75  79  83  80  80  78  77  78  81  83  81  80
 80  78  79  80  79  80  82  82  81  76  83  75  92 143 145 148 146 143 153 152 121  89  81  84
 82  82  81  79  77  78  80  82  82  81  80  81  80  79  80  81  83  84  85  83  83  83  82  80
 81  81  81  82  82  82  81  80  78  78  79  79  79  79  78  78  79  79  78  76  77  77  76  73
 96 137 134 130 131 133 134 136 138 137 136 135  77  68  69  70  66  70  68  61  70 103 133 143
136 131 133 135 130 130 119  90  70  72  74  70  78 107 132 145 137 136 137 139 134 116  90  71
 77  78  80  79  76  75  76  79  78  80  76  77  81  77  91 122 147 148 138 114  88  74  75  82
 82  81  79  76  76  75  68  59  64  65  65  64  63  63  65  67  67  68  69  69  70  70  71  72
 72  71  70  69  70  70  69  68  67  67  67  67  67  68  70
 24  24  23  22  22  21  22  23  20  20  20  18  19  20  19  18  13  10  11  14  11   6   5   6
  5   6   9  13  15  17  15  13  19  26  31  30  24  19  13   9   4   4   1   0   1   0   0   0
  0   0   4   0   0  11  40  26  12  30  25  20  48  25  11  37  39   0   0   0   0   2   2   1
  0   2   1   6  14  12  12  25  42  76 107 107  80  50  39  45  47  49  53  54  55  59  60  54
 56  58  62  63  62  61  65  70  83  87  91  95  96  96  98  99  94  95  96  96  95  94  93  93
 91  90  89  89  90  90  87  85  85  84  83  84  84  84  86  88  86  87  87  88  88  90  91  92
 92  94  94  93  93  95  97  98 100  98  98  99 101 102 101 100  94  96  94  97  98  96 100 100
 97  98  97  95  93  93  96  98 100  98  96  96  98 100  98  94  96  97  96  95  96  98  96  92
 94  89  95  91  86  74  96  95  94  94  90  96  95  88  93  95  91  90  90  91  92  92  92  94
 91  92  94  94  92  90  91  93  91  92  93  93  91  91  90  91  90  87  85  86  87  87  86  86
 90  90  89  88  87  85  84  84  83  82  82  83  82  80  79  79  81  79  77  76  75  74  73  72
 71  72  72  71  69  67  68  68  69  72  73  73  71  71  70  71  73  76  76  73  72  75  76  75
 75  76  78  80  79  79  81  85  80  76  77  77  73  78  83  79  82  79  76  76  78  79  78  76
 77  78  82  81  77  78  82  82  79  81  80  86  76  84 138 152 144 153 146 145 152 129  92  81
 82  85  84  80  75  74  77  82  83  81  80  79  78  77  78  79  79  81  82  82  82  83  82  80
 82  81  81  81  82  82  82  81  78  78  79  79  79  79  78  78  81  81  79  77  77  78  76  72
111 139 134 131 130 137 135 131 138 134 134 125  74  70  71  71  75  67  68  71  64  68 100 137
134 134 135 141 139 141 147 136  84  71  76  78  71  69  81 106 136 142 140 133 134 139 130 114
 85  76  72  77  81  80  77  77  78  75  79  82  80  82  82  76  89 113 140 152 145 122  95  77
 73  76  78  77  76  72  60  47  50  50  48  45  42  42  44  47  58  61  65  68  70  69  69  68
 70  70  69  70  71  72  71  70  67  67  66  65  65  66  68
 23  21  20  20  20  21  19  13  15  10  10   7   8  10   7   6   3   2   2   2   2   3   3   3
  2   1   1   4   1   8  23  37  32  32  22   6   1   1   2   0   0   1   1   0   0   0   0   0
  0   1   0   0   2   4   4   3  28  35  15  11  43  16  24  68  23   6   0   0   0   0   2   1
  4   7  16  21  17  21  49  80 105 107  83  47  35  43  48  48  50  53  55  55  56  58  60  60
 57  59  60  60  59  62  68  73  82  86  91  93  92  91  94  96  94  95  94  93  93  94  92  88
 87  87  87  86  85  85  86  87  84  84  84  82  84  86  85  84  86  88  89  89  87  89  92  94
 91  94  96  95  95  96  98  98  99  98  98  99 100 101 100  99  98  99  98  97  98 101  99  95
 99  97  98  95  95  98  96  95  95  98  99  98  96  96  98  98  96  95  94  94  95  94  94  94
 91  93  95  91  75  87  93  95  96  93  91  92  92  89  89  93  93  89  87  91  93  94  91  90
 92  90  92  94  92  87  88  94  92  92  91  92  90  87  87  89  87  86  86  87  88  89  87  85
 90  90  88  86  84  83  85  87  82  85  85  83  82  82  81  80  80  80  78  76  75  75  73  70
 70  71  70  69  67  67  68  69  71  70  69  69  70  71  72  71  72  74  76  75  73  73  75  78
 75  76  78  78  79  81  80  79  76  77  84  84  77  76  81  79  79  78  81  81  79  76  75  77
 79  77  75  75  78  81  81  81  84  83  77  79  81  72  89 130 155 147 151 149 147 154 136  99
 77  83  84  80  78  79  77  73  77  78  80  79  80  81  80  77  80  81  81  79  79  80  82  82
 82  81  80  80  81  82  83  84  81  81  80  79  77  78  79  81  75  80  81  77  80  76  71  80
122 124 128 132 132 133 136 135 136 133 140 121  67  73  76  69  71  72  67  69  73  66  74 100
136 130 138 134 137 137 136 140 133  86  68  78  72  75  78  69  87 115 140 142 139 140 141 139
126 112  82  72  79  79  78  77  77  76  78  78  76  77  82  82  81  81  83 101 133 154 146 127
 93  82  72  71  76  78  71  64  57  55  55  56  54  50  52  58  58  61  65  66  67  68  68  69
 69  69  69  68  68  69  70  69  69  68  66  64  64  66  66
 16  16  20  10   3   7   4   6   6   5   5   8   7   2   3   3   3   2   2   2   2   2   2   2
  0   6   4   0   3   5   8   5   3   1   1   3   4   0   0   1   1   1   0   0   0   0   0   0
  2   0   0   0   0   0  10  29  59  12  23  13  52   2  45  68   2   0   0   4   3   3   7   9
 17  23  25  26  47  80 100 101  77  58  41  42  50  51  47  48  52  55  57  56  58  60  61  61
 61  60  60  62  64  67  69  70  72  79  88  93  93  93  94  95  95  96  95  93  92  92  92  91
 90  88  86  85  85  85  85  84  84  84  83  82  85  87  87  85  87  88  88  89  89  91  92  93
 92  96  98  97  96  96  96  95  95  96  97  99 100  99  98  97 101 103 104 102  98  97  97  97
 97  96  98  94  94  98  97  99  96  96  95  95  98  99  98  95  95  95  95  94  93  93  93  93
 95  91  97  84  74  93  91  98  93  94  93  92  92  93  94  95  92  92  90  89  90  92  90  87
 90  91  92  91  90  89  90  92  89  90  90  90  88  86  88  91  86  85  85  87  88  89  88  86
 88  88  88  86  84  84  85  86  82  85  85  84  82  82  83  82  80  80  79  76  74  74  74  74
 71  71  69  69  68  68  68  68  69  69  69  70  71  72  72  71  73  74  76  75  74  74  76  78
 76  76  77  78  78  78  77  78  81  80  82  82  78  77  79  78  75  76  79  80  80  79  78  80
 79  78  78  78  79  80  81  81  80  81  75  76  83  79  76  84 133 150 150 149 149 147 148 146
 99  81  81  85  80  81  82  71  80  77  78  82  83  79  77  80  80  82  81  79  79  80  81  81
 81  81  82  82  82  82  82  82  80  80  81  81  79  79  79  79  78  79  80  77  79  76  78  95
125 127 128 125 125 127 131 136 138 132 142 108  68  73  73  71  71  76  73  69  72  71  67  69
102 143 133 136 139 139 134 142 147 139  80  66  68  69  71  74  71  72  90 122 143 140 134 138
138 133 127 113  82  67  77  79  76  74  76  79  79  78  78  76  78  83  82  76  77  94 121 144
158 140 111  84  72  74  78  78  75  76  77  78  78  76  71  65  61  63  65  63  62  63  68  72
 68  68  67  66  65  68  69  69  70  70  70  69  68  68  66
 18  14   9   7   7   7   5   1   1   5   1   1   1   1   2   1   1   1   0   1   0   1   1   1
  3   0   0   0   1   2   1   0   0   3   2   0   0   2   4   2   0   0   0   0   0   0   0   0
  0   0   0   3   0   0   4  25  40  10  28   5  40  43  51  14   0   0   1   5   4   8  14  17
 25  31  34  38  50  64  61  49  41  38  42  49  50  49  52  55  53  55  56  56  58  59  60  59
 60  58  58  62  67  70  68  65  67  75  86  93  96  96  95  95  95  96  95  92  89  90  91  92
 92  88  84  84  85  85  83  80  85  85  84  84  87  89  89  87  89  89  88  89  91  93  93  93
 94  97  99  99  98  97  97  96  95  97  99 101 100  99  97  96  96  98 100 102 101  98  96  96
 97  96  99  95  95  98  99 102  96  95  94  95  99 100  97  93  94  96  97  94  92  93  93  92
 94  91  90  82  80  95  91  94  96  98  96  92  91  93  92  90  92  95  94  88  87  89  90  86
 91  92  91  89  89  91  92  91  89  89  90  89  87  86  88  92  87  86  86  87  88  88  87  86
 86  87  87  87  85  84  84  85  82  84  84  83  81  81  82  82  80  81  80  76  75  75  76  76
 72  71  69  68  69  70  69  68  68  69  70  71  71  71  71  71  73  73  74  74  74  75  76  77
 76  75  75  76  77  75  76  79  84  81  79  79  80  79  77  80  77  77  80  81  81  79  80  81
 80  81  80  80  79  79  81  82  75  78  77  77  82  84  81  78  76 120 154 150 145 150 149 147
144 110  77  73  80  76  74  82  80  76  78  82  83  79  78  81  79  80  80  79  78  79  81  81
 80  82  84  84  83  82  81  81  78  79  82  83  82  81  80  79  81  80  79  78  78  76  82 102
106 116 121 125 130 131 132 139 133 128 138  91  72  76  73  75  75  78  75  69  69  73  69  61
 70 103 138 131 132 131 140 135 138 138 136  87  69  71  79  71  69  75  69  69  98 132 142 137
136 134 131 133 129 114  91  64  74  77  79  78  76  78  80  76  75  76  80  84  83  79  82  87
108 136 159 149 120  94  80  74  75  76  76  75  71  65  57  51  48  48  49  47  45  46  49  52
 59  61  65  67  67  68  68  66  66  67  68  69  69  70  68
  2   4   1   5   6   1   6   7   2   4   1   0   0   3   3   1   1   1   0   0   0   0   0   0
  0   0   4   0   0   0   0   1   1   1   1   0   1   0   0   0   0   0   0   0   0   0   0   0
  0   0   1   1   2   0   0   2  12  43  61  37  69 111  36   6   4   4   6   7  11  18  24  26
 37  40  44  48  46  41  40  41  42  48  55  54  50  55  58  52  55  55  56  56  58  58  59  58
 61  62  67  74  80  83  80  77  77  83  90  95  97  95  93  92  94  94  92  90  88  88  88  89
 92  88  84  83  84  85  82  80  87  86  85  86  89  91  90  89  90  91  91  92  93  94  95  95
 96  97  98  99  99  99 100 101  98 100 102 101  99  97  96  95  98  96  98 104 108 105  98  95
 96  96  98  94  94  98  97  99  94  96  97  96  96  95  94  93  93  97  98  95  92  93  93  92
 87  91  79  86  92  91  95  89  90  91  91  90  91  94  94  94  94  95  97  89  89  87  90  89
 93  92  90  89  91  92  92  91  91  91  90  89  88  87  88  89  89  88  87  87  87  87  85  84
 85  86  87  87  86  84  83  83  82  83  83  82  79  79  80  81  79  80  79  77  76  77  76  76
 72  71  69  69  69  69  69  68  67  69  70  71  70  70  70  71  71  71  71  72  73  75  75  76
 75  72  73  76  76  74  76  80  82  80  76  76  81  79  77  81  79  79  81  82  81  79  80  81
 81  81  79  78  77  77  79  78  78  77  78  78  76  74  79  83  76  73 118 153 147 148 150 142
148 149 113  75  75  84  79  76  76  78  79  77  78  81  82  80  78  79  78  77  77  79  81  81
 80  82  84  85  83  82  81  81  76  78  81  83  83  83  82  81  79  79  80  78  77  76  80  94
 96 108 115 124 133 131 127 132 134 133 129  80  72  76  73  77  77  75  75  73  69  70  73  71
 65  65 112 142 130 132 133 137 144 141 141 141  92  60  66  70  76  72  67  70  74  76  97 130
139 135 138 138 129 136 137 107  85  73  71  78  76  70  72  79  83  78  74  76  79  78  79  81
 76  85 104 129 152 154 131 104  76  69  68  74  74  66  61  62  49  48  49  51  53  55  56  58
 57  60  65  67  67  67  66  65  65  66  67  67  68  69  70
  4   4   1   1   5   7  16  24   7   0   0   1   3   2   0   0   1   1   0   0   0   0   0   0
  0   0   2   0   9   1   0   4   1   4   4   1  11  22  16   0   1   1   1   0   0   0   0   0
  0   2   0   0   1   3   1   0   2  16  26  56  37   7   3   1   0   6  13  19  26  33  36  36
 39  42  43  41  40  44  48  48  54  50  54  57  54  54  56  54  58  58  58  58  59  60  60  61
 62  68  77  85  90  92  92  92  93  95  95  96  95  93  92  91  93  91  90  89  88  87  86  85
 89  88  86  86  85  85  84  83  88  87  87  87  89  90  90  90  91  93  94  95  94  94  96  97
 99  99  98  98  98 100 103 105 100 101 101 100  98  96  96  97 101  98  98 102 104 101  95  93
 95  94  97  95  95  99  96  96  94  97  98  97  95  94  94  93  92  95  97  94  91  92  92  91
 86  86  77  90  99  91  95  92  91  89  88  91  92  92  92  94  94  93  97  91  91  86  91  92
 93  89  88  90  91  89  88  90  91  90  89  88  89  89  87  85  89  88  88  87  87  86  85  84
 86  87  88  87  86  84  82  82  83  83  82  81  79  78  79  81  78  79  78  76  77  77  77  75
 71  71  71  70  68  68  69  69  69  70  70  70  68  68  69  70  69  69  69  71  73  75  77  77
 74  72  73  75  75  73  75  80  78  78  76  76  81  79  76  80  77  76  77  79  80  79  80  82
 81  80  78  76  75  75  75  76  80  74  76  81  79  76  78  79  83  82  70 111 154 150 149 149
143 151 145 114  85  81  83  77  78  79  79  77  77  80  81  81  80  80  79  77  76  78  80  81
 80  81  83  83  82  82  82  82  78  79  81  82  82  82  81  81  78  79  82  77  75  77  77  81
 83  90  93 100 114 119 120 129 126 132 113  78  71  74  75  78  76  72  77  80  73  71  73  72
 70  67  71 119 141 129 126 136 134 139 136 133 144  89  68  67  67  70  71  71  70  68  70  82
111 136 140 137 141 138 137 141 127 102  77  67  71  79  79  72  71  76  79  79  77  77  79  82
 81  76  75  83  99 121 141 154 141 113  84  74  76  76  74  73  71  71  73  74  72  68  66  66
 66  66  64  61  61  63  66  67  67  69  69  68  68  68  68
  2   1  13   6  15  25   2   1   0   0   2   0   0   2   3   5   1   1   0   0   0   0   0   0
  0   0   3   2   0  23  32  36  28  23  28  41  39  19   5   3   0   1   1   0   0   0   0   0
  1   1   0   0   1   0   0   3   0   0   0   0   4   6   1   2   4  17  26  30  35  38  40  42
 44  46  47  47  48  50  48  44  51  52  57  58  53  51  55  59  58  58  59  59  60  60  63  65
 69  76  84  89  90  89  90  91  96  95  94  93  93  94  95  95  92  90  88  89  89  87  84  82
 86  87  88  88  86  86  86  86  87  86  87  87  88  88  89  91  92  94  95  95  95  95  97  99
100  99  97  97  98  99 101 103 100 100  99  98  98  98  99 100  98  98  98  97  94  92  93  96
 96  95  98  97  98 102  98  98  94  94  94  94  96  97  96  93  90  92  93  93  91  90  89  89
 90  77  86  89  96  95  91  98  97  92  90  92  92  88  87  89  93  90  94  89  92  85  90  91
 91  86  86  90  91  87  86  89  89  88  87  87  89  89  87  85  87  87  87  87  87  87  87  86
 86  87  87  86  85  84  83  82  83  83  82  82  80  78  79  80  78  78  77  76  77  77  76  73
 70  71  71  70  68  67  68  70  70  69  69  68  67  67  69  69  69  69  70  71  73  75  77  78
 75  73  73  75  75  74  74  77  76  77  78  78  80  79  76  76  77  76  76  77  78  77  77  78
 80  78  77  76  75  75  75  74  74  75  78  80  81  83  85  82  75  82  84  67 107 154 144 153
150 141 144 147 123  85  69  77  82  78  78  81  80  76  76  81  82  83  82  79  78  78  79  79
 79  79  80  81  81  82  82  82  81  81  81  81  81  80  80  79  79  80  81  75  73  79  78  76
 80  77  71  70  75  74  74  79  89 101  88  78  75  78  77  77  76  74  76  77  74  76  77  70
 72  71  65  71 121 134 134 128 132 140 142 139 141 141  89  51  67  66  66  67  71  75  72  66
 64  87 119 144 146 137 137 135 138 140 130 101  75  70  75  76  78  79  78  75  76  79  78  73
 79  79  81  79  74  79  95 111 141 149 145 122  92  73  68  68  70  73  78  80  73  61  51  48
 51  52  52  49  49  51  54  56  63  65  68  68  68  68  66
  1   5  16  12  16  15   0   2  12  29  29  28  11   0   2   1   1   1   0   0   0   0   0   0
  3   0   0   4  31 103  95  64  46  39  27  14   3   1   1   3   0   0   0   0   0   0   1   0
  0   0   0   2   2   0   0   2   1   3   3   1   0   1   0   8  25  33  36  35  39  40  39  42
 42  41  44  49  50  49  51  56  54  57  56  54  57  60  58  55  58  59  60  61  60  61  66  73
 84  87  91  92  91  90  90  90  93  93  92  92  93  94  95  95  90  89  88  88  87  84  82  82
 82  84  86  87  86  86  85  85  85  86  88  89  88  87  89  93  93  94  94  95  95  96  97  99
 99  98  99 100 101 100  99 100 101 100  98  98  99 100 101 101  97 100 100  97  95  96  99 102
 98  96 100  97  98 101  98  99  93  94  94  93  95  96  96  95  91  90  91  93  91  88  86  87
 88  76  93  89  91  94  91  97  91  89  88  89  91  92  92  92  92  90  94  86  93  87  90  87
 87  86  87  89  90  89  88  89  89  90  89  88  87  88  88  86  87  87  87  87  87  87  87  87
 86  86  85  84  84  84  83  83  82  82  82  82  80  78  78  80  78  78  78  76  75  75  75  73
 71  71  70  69  68  68  68  69  68  68  68  68  69  70  69  69  69  70  70  71  72  73  75  76
 74  73  72  73  75  75  75  74  76  76  78  78  78  81  79  74  79  77  77  77  78  76  75  76
 77  77  78  77  77  76  74  74  74  78  80  76  76  78  80  79  83  79  76  84  70  93 151 149
143 147 147 150 150 125  90  72  79  76  78  81  80  75  75  78  78  80  81  79  78  77  76  74
 77  76  76  78  79  80  79  78  82  80  80  80  80  80  79  78  82  79  81  77  74  79  79  77
 81  77  74  74  74  72  71  73  66  73  74  77  77  81  76  76  77  75  73  71  72  77  80  75
 74  74  72  66  77 130 136 132 135 126 130 145 139 136 142  96  63  65  71  69  61  65  72  70
 69  69  67  90 122 138 142 139 145 134 133 137 123  98  78  69  75  77  76  74  75  79  81  80
 78  76  76  79  81  80  78  75  87 111 134 147 147 134 104  77  72  68  67  71  72  65  55  49
 41  44  47  48  49  49  49  48  59  62  65  66  66  67  68
 71  52   6   1  14  25  59  79 100 115 111 123  78   5   0   1   1   1   0   0   0   0   0   0
  0   0   2   3  63  45  11  16  19  11   2   1   3   4   1   0   0   0   0   0   0   1   1   0
  0   1   0   0   1   0   0   1   0   0   0   1   5  11  19  33  35  38  36  38  45  46  42  43
 45  48  52  55  55  54  53  53  54  58  58  56  60  57  56  60  59  60  62  64  64  66  72  79
 89  90  89  90  91  92  93  93  95  95  94  93  93  91  89  87  88  87  87  87  84  81  80  82
 80  81  83  85  85  85  83  82  84  86  89  90  89  88  91  95  94  93  93  93  95  96  97  98
 96  97  99 104 104 102 100  99 100  98  97  97  98  99  98  98  96  98  98  96  96  99  99  98
 96  96  99  94  93  95  94  96  91  95  97  95  92  92  95  98  93  90  90  94  92  87  85  87
 83  79  93  91  89  89  95  91  91  92  90  88  89  92  91  88  92  91  95  85  93  88  91  83
 83  86  89  89  90  92  91  90  91  93  93  89  86  86  88  88  87  87  87  87  87  86  86  87
 85  84  83  83  83  84  84  84  80  80  80  81  80  78  78  80  78  79  79  76  73  73  75  74
 72  70  68  68  69  69  68  67  67  67  67  69  71  72  70  69  69  70  70  71  71  71  73  75
 72  72  71  72  75  77  76  73  75  74  77  78  77  84  85  76  77  76  76  77  79  79  78  79
 74  77  80  80  79  76  75  75  76  77  77  78  82  82  79  80  78  77  74  76  82  72  88 152
148 145 147 146 146 152 137 100  71  75  79  78  78  78  77  74  73  76  79  79  78  77  75  73
 76  75  75  76  79  79  77  75  80  79  78  79  80  80  80  79  83  78  81  80  76  78  78  78
 77  74  75  78  75  73  73  74  81  75  78  75  74  79  75  80  75  74  73  75  73  73  74  75
 75  68  73  74  68  80 123 134 134 137 132 138 138 145 138 143  96  65  57  68  68  67  70  69
 71  70  71  67  65  94 134 141 139 139 137 132 133 135 119  94  72  73  74  74  76  77  77  75
 76  78  78  76  76  78  80  79  76  78  85 102 128 147 149 143 108  87  69  67  76  79  74  66
 66  68  69  68  67  67  68  68  63  65  65  64  64  66  68
126 125  60   2  33  96 120 117 116 110 110 112 118  77   9   1   1   0   0   3   0   0   2   0
  0   0   1   1   0   1   0   0   0   0   0   0   0   0   0   0   0   0   0   1   1   0   0   0
  0   1   0   0   0   0   0   1   1   1   3  12  25  34  37  37  40  41  43  43  44  44  43  44
 49  52  55  57  57  56  55  55  59  57  56  60  60  60  59  61  59  61  63  65  67  70  81  93
 92  95  92  88  91  92  93  98  92  92  92  91  89  89  89  90  89  89  87  83  81  82  82  82
 81  80  81  83  85  86  86  86  85  86  88  88  89  91  95  98  98  97  93  96  91 101 100  99
 98  99 102 103 103 100  97  95  96  96  98  98  97  99 100  97  97  96  95  95  96  95  94  93
 92  93  93  90  89  91  93  94  89  91  94  94  92  89  92  96  91 102  87  89  91  84  89  81
 76  91  94  94  94  90  91  94  90  92  90  93  93  91  93  90  88  89  90  90  90  89  91  92
 90  88  86  90  94  93  91  89  89  91  90  87  85  84  84  87  87  86  86  87  89  90  89  88
 86  87  86  84  82  82  81  79  78  83  84  80  79  82  81  76  78  77  75  74  75  75  73  72
 74  71  69  67  68  70  71  72  62  66  69  68  67  69  70  70  68  66  64  64  67  69  70  69
 73  73  74  76  76  74  73  73  73  76  78  78  76  78  77  78  74  77  78  76  78  81  81  78
 74  75  77  77  77  77  77  77  79  76  76  79  81  80  80  82  76  75  77  79  78  77  81  87
150 149 152 144 148 149 145 151 108  74  72  80  76  75  81  78  75  75  73  83  81  82  78  81
 76  77  78  78  78  78  78  78  78  79  79  77  76  77  79  83  80  79  79  79  79  79  78  76
 81  79  77  76  77  77  76  75  75  75  77  77  77  79  81  82  78  78  79  78  75  74  73  74
 75  75  72  76  76  64  81 127 135 136 135 140 139 139 145 137 145  95  64  64  65  62  63  70
 72  68  74  67  67  71  77 104 131 139 145 144 141 139 138 137 117  91  72  75  82  79  76  78
 76  76  76  76  77  78  78  79  79  79  79  75  73  83 112 142 147 142 121  89  72  75  78  76
 68  75  74  70  71  66  60  63  60  59  56  52  52  55  57
103 105 114  48  57 122 105 108 109 115 107 106 117 124  92  23   8   5   1   0   2   1   0   0
  0   0   0   0   0   0   0   0   1   1   1   0   0   0   0   0   1   1   0   0   0   0   0   0
  1   1   0   1   0   0   1   4  12  16  23  29  34  37  40  40  42  43  44  45  47  49  51  54
 52  54  55  56  57  56  56  57  58  56  56  60  62  61  60  60  61  62  64  70  80  87  92  99
 86  95 101  99  95  91  89  90  94  94  92  91  89  88  88  88  89  88  85  83  83  83  83  82
 84  84  84  86  86  86  85  84  86  88  91  92  91  91  92  93  95  95  93  97  95 101  98  95
 99  98  97  97  96  94  95  98  97  95  97  99  97  98  98  95  92  95  98  98  95  93  93  94
 94  95  94  93  93  95  96  96  93  93  93  93  92  90  91  93  93  90  91  91  85  85  81  65
 82  92  92  93  93  88  88  89  88  92  91  94  93  90  92  90  88  89  90  91  92  92  92  91
 93  91  89  90  91  89  88  87  90  91  89  86  85  84  84  87  85  84  84  85  87  88  88  87
 85  86  86  84  83  82  81  80  80  83  83  79  77  80  80  76  76  75  74  75  76  76  75  73
 71  70  70  69  68  68  70  71  67  69  69  68  67  68  70  70  69  68  66  67  68  70  70  70
 72  72  73  75  75  74  73  74  74  76  77  76  76  77  79  79  77  79  79  76  76  77  77  74
 75  75  77  80  82  82  79  77  78  77  76  76  79  81  81  81  77  76  77  78  76  74  75  80
 82 145 148 147 147 146 149 146 147 113  74  81  85  80  76  80  80  78  73  69  77  83  80  74
 79  80  79  79  78  78  79  80  77  77  78  79  78  77  78  80  79  79  78  78  78  78  78  77
 79  80  77  76  76  76  76  77  75  75  75  76  77  78  80  81  78  78  78  78  76  74  74  73
 72  75  70  70  74  71  73  88 138 129 139 135 134 142 132 134 140 137  97  64  62  67  68  62
 65  62  70  70  71  74  69  69  86  98 106 105 100 100 104 108 117 106  89  76  74  77  79  79
 76  76  76  75  75  75  76  76  76  76  77  79  74  69  71  77 117 137 154 148 120  90  76  74
 71  69  70  68  63  59  54  49  50  43  42  48  48  42  41
106 106 109 112 108 108 113 109 110 111 117 114 104 108 114 109  93  66  24   0   1   0   0   2
  0   0   0   0   0   0   0   0   1   0   0   0   0   0   0   0   0   0   0   0   0   0   0   0
  3   0   0   2   2   2  10  20  29  31  35  37  38  40  42  44  42  43  45  46  49  52  56  58
 56  56  56  56  56  57  58  58  59  58  59  61  64  63  61  60  62  65  69  75  85  91  90  91
 91  96 101  99  92  90  92  93  94  92  90  89  88  87  86  86  86  83  81  82  83  83  82  81
 85  86  86  85  84  84  84  85  86  88  90  92  92  92  92  92  97  98  96  99 100 103  99  97
100  97  95  93  91  90  94  99  96  94  96  99  97  95  95  94  93  95  98  97  95  93  94  96
 97  96  94  93  95  97  97  95  94  92  90  91  93  92  93  93  93  84  92  87  85  90  75  68
 93  97  94  96  98  93  93  93  86  92  92  95  92  89  92  91  88  88  88  89  91  92  91  90
 92  90  90  89  89  88  88  89  92  90  88  87  86  86  86  86  84  84  83  83  84  85  86  86
 84  86  86  85  83  83  82  81  81  83  82  78  76  78  78  77  75  75  75  75  76  76  75  74
 70  71  72  70  68  67  68  70  69  67  66  66  66  66  68  70  70  70  70  70  70  70  71  71
 71  71  72  74  75  74  73  74  72  74  76  76  76  78  79  80  78  80  81  78  76  76  76  75
 74  76  78  80  81  81  79  78  79  79  77  73  75  79  79  76  75  75  76  78  77  75  75  77
 78  79 142 152 146 148 148 149 145 149 122  71  76  81  79  76  81  82  78  66  77  79  83  81
 78  78  78  77  77  78  80  81  78  76  76  80  80  78  78  79  80  79  78  78  77  77  78  79
 77  78  78  76  75  75  76  77  76  75  75  75  77  78  78  78  77  76  77  77  76  75  74  73
 65  72  73  71  72  73  71  70  95 137 141 133 131 125 133 138 136 143 139  95  62  64  64  65
 66  62  67  69  69  72  74  70  65  69  71  68  65  65  66  66  64  73  76  72  72  77  77  73
 76  75  75  75  74  74  74  75  80  76  75  77  77  78  76  75  70  83 107 133 153 152 128 103
 84  75  74  75  70  69  63  48  41  50  54  50  48  52  56
109 107 100 115 114 105 115 105 113 106 106 105 104 107 106 107  91  59  17   0   1   2   0   1
  1   1   1   1   1   1   0   0   1   1   1   1   1   1   1   1   0   0   0   1   0   0   0   0
  3   3   6  11  14  17  25  32  39  38  37  38  40  43  44  44  43  45  48  50  52  53  55  56
 58  58  57  57  58  59  59  59  60  60  61  62  62  61  61  61  67  77  84  87  90  89  87  87
 89  90  95  97  93  93  93  87  90  89  87  86  85  85  85  84  84  81  80  82  84  83  83  83
 86  87  86  84  84  86  88  90  90  90  90  90  91  93  94  96  96  96  94  94  95  97  96  97
 97  99  99  95  92  92  95  96  95  93  96 100  96  92  93  95  98  96  93  93  95  97  97  96
 98  96  93  92  93  96  95  93  92  90  88  90  93  94  96  96  92  90  91  82  88  88  74  87
 93  93  89  93  95  91  92  92  87  91  91  94  91  89  92  91  88  87  86  86  87  89  91  92
 93  91  89  89  89  89  89  91  91  88  87  88  87  88  87  85  84  86  87  86  84  83  84  85
 84  86  87  85  83  82  82  81  82  83  81  78  76  77  78  77  77  76  76  76  76  75  74  74
 72  72  73  71  69  68  69  69  68  65  63  65  66  66  68  71  68  69  70  71  70  70  71  72
 71  71  72  74  74  73  73  73  70  72  75  76  77  77  78  78  77  80  80  78  76  77  77  77
 76  78  79  77  74  74  77  81  80  80  77  73  71  73  73  73  75  75  77  78  79  77  76  76
 83  80  78 136 155 148 146 148 146 145 150 132  80  77  79  81  78  79  76  70  76  71  74  81
 78  78  78  78  77  77  78  79  80  76  76  80  82  79  79  80  81  81  80  78  78  78  80  81
 76  77  78  77  77  76  75  75  77  76  75  75  77  78  77  77  75  75  76  77  77  76  75  73
 66  70  75  76  72  71  74  75  71 104 131 131 133 135 129 137 137 141 143 142 101  61  65  66
 61  62  63  68  69  67  71  73  73  73  72  72  73  75  75  73  75  76  77  79  79  78  76  73
 75  75  75  75  75  75  75  76  72  72  72  73  73  75  77  75  77  75  73  78  97 125 146 154
137 113  87  70  64  70  75  71  73  67  65  68  70  68  64
104 107 109 103 105 111 109 105 101 108 100 104  96  96 101  62  26   8   0   0   0   0   2   0
  1   0   0   0   0   0   0   0   1   1   0   0   0   0   0   0   0   1   3   3   4   4   5   6
  6  13  21  26  31  36  37  36  39  40  41  43  45  45  44  43  48  50  52  54  55  55  56  56
 58  58  59  59  61  61  60  60  60  61  62  61  60  62  65  68  72  83  90  91  91  91  90  92
 89  87  91  92  89  90  90  84  87  86  84  83  82  82  82  82  84  83  84  85  85  85  86  87
 85  87  88  87  87  90  92  92  97  96  94  92  93  94  95  96  95  97  96  93  95  93  94  98
 95 102 103  97  93  96  97  93  93  93  97 100  95  90  93  97  99  96  93  92  94  96  97  96
 97  95  92  90  92  95  95  94  92  90  90  91  93  93  94  96  93  95  90  84  83  76  77  96
 90  89  86  90  91  88  92  91  90  92  90  91  91  90  93  93  85  87  87  87  87  87  90  92
 96  93  90  89  90  89  89  89  89  85  86  88  85  87  87  83  85  88  90  88  83  80  81  84
 84  86  87  84  82  81  82  82  81  82  81  79  78  78  78  78  79  78  77  76  76  76  76  76
 76  74  71  70  69  69  69  68  69  65  63  66  68  67  68  70  66  67  69  69  69  69  71  72
 72  71  72  73  73  72  71  72  72  72  73  73  74  74  75  77  78  79  80  78  76  76  75  75
 77  77  76  74  72  73  76  79  80  78  77  75  71  68  69  73  75  76  77  78  77  76  75  73
 77  79  78  80 133 153 146 143 149 145 146 155 140  82  80  77  80  78  72  76  77  75  68  70
 80  81  81  81  79  77  76  75  81  77  76  79  82  80  79  80  81  81  79  78  78  79  80  81
 79  79  80  80  80  79  75  73  78  77  75  75  76  76  76  75  75  75  75  77  78  79  77  76
 76  71  71  74  73  73  74  72  74  71 101 132 139 137 132 133 141 133 141 143 138 102  59  57
 60  67  62  63  67  65  65  66  66  70  72  71  70  71  75  77  75  71  69  72  76  77  77  78
 74  74  75  75  75  75  75  75  75  77  77  75  74  73  74  76  81  81  82  81  74  75  94 116
145 150 140 116  92  74  68  73  69  68  70  74  73  69  63
107 110 103 107 112 104 104 106 105 101  94  98  95  77  56  30  19   5   2   4   0   0   3   0
  0   0   0   0   0   0   0   0   1   0   0   0   0   1   2   2   3   4   4   4   5   8  12  15
 21  27  31  31  35  41  42  38  42  45  46  46  44  44  47  50  53  54  54  54  55  56  57  59
 57  58  60  61  62  61  60  60  59  61  62  61  62  66  73  78  79  84  85  87  90  92  93  96
 94  93  92  88  84  85  87  86  87  86  84  82  80  79  79  80  83  85  85  84  84  86  87  88
 83  87  89  89  90  91  90  88  94  93  93  94  95  96  95  94  95  99 101  97 103  96  95  99
 95 102 102  95  93  97  98  93  95  94  97  98  93  91  95  98  94  95  96  95  94  93  94  95
 95  95  93  91  92  95  96  96  93  92  91  91  91  90  90  92  95  90  89  91  75  71  90  94
 93  92  90  93  91  90  94  92  91  92  89  90  90  89  93  92  84  87  90  90  89  88  89  91
 94  91  89  89  91  91  90  89  87  84  86  87  82  83  86  83  85  88  90  88  83  80  81  83
 84  86  86  84  81  80  82  82  80  81  80  81  80  78  78  79  78  77  77  76  76  77  77  77
 76  73  70  68  68  69  68  67  68  66  64  65  66  65  65  65  65  66  67  68  68  68  70  71
 73  72  72  73  73  71  70  71  75  72  70  69  70  71  74  77  78  78  78  78  78  78  77  77
 77  75  73  74  76  77  77  75  78  76  76  77  73  68  70  74  69  73  74  74  74  75  75  74
 73  75  80  79  77 126 151 148 142 149 150 141 148 147  85  77  79  80  76  81  76  81  75  71
 75  77  79  80  79  78  77  77  80  77  75  76  79  79  79  79  81  79  77  77  77  78  79  79
 81  80  80  81  82  80  77  74  77  77  76  75  75  76  76  76  76  76  75  76  78  79  79  78
 77  75  73  72  72  75  75  69  70  75  71 104 137 137 135 134 131 141 134 136 143 133 103  57
 56  64  64  59  62  67  67  67  69  71  71  71  70  70  70  70  68  72  74  74  75  76  74  72
 74  74  74  74  74  73  73  74  74  72  69  67  69  73  76  77  78  75  73  76  77  76  76  77
 86 113 135 146 145 119  88  75  65  73  75  68  64  63  56
108 105 106  98 101 105  95  96  92  92 101  84  69  49  15  14  13   6   2   3   2   2   1   1
  1   1   0   0   0   0   2   2   1   1   1   2   3   4   6   6   8   9  10  11  14  17  23  26
 33  36  36  35  36  40  43  44  46  47  47  45  46  48  52  55  55  56  56  56  56  57  58  59
 57  58  60  61  61  60  60  60  61  61  61  61  66  74  81  85  88  89  88  90  94  93  94  98
 90  92  91  89  90  88  83  81  86  87  86  83  80  79  80  82  83  86  85  81  82  86  88  85
 84  87  89  89  89  91  89  85  89  90  91  93  96  97  96  95  94  98  99  96 105  97  92  95
 96  98  98  95  94  96  97  95  99  96  96  95  93  94  97  96  95  96  96  96  94  93  94  94
 93  95  95  93  91  92  93  94  91  90  89  90  90  89  89  89  94  87  89  89  75  81  99  90
 91  90  88  91  88  88  93  87  90  93  90  91  89  88  92  92  86  88  89  89  88  88  89  90
 89  88  88  90  90  89  89  90  89  85  87  86  79  80  86  84  87  87  86  85  83  83  83  84
 84  85  85  82  80  80  82  83  81  80  80  81  80  78  77  79  77  77  78  78  78  77  76  76
 74  73  71  70  69  68  67  67  68  67  65  63  62  63  63  62  66  66  67  67  68  68  70  70
 73  72  72  73  72  71  70  71  75  72  70  70  70  71  74  77  79  77  77  78  80  81  81  81
 75  75  75  76  77  77  76  75  76  76  76  76  74  72  71  71  66  70  73  71  71  74  76  76
 76  75  77  76  76  81 119 144 147 147 145 149 146 142 148 100  86  76  75  78  74  76  79  75
 69  71  75  77  78  78  79  79  78  78  76  75  76  78  78  77  80  78  76  76  77  79  78  77
 78  78  79  78  79  78  77  77  76  76  77  76  75  75  76  76  76  76  76  75  75  77  78  79
 73  77  79  77  75  75  75  74  71  72  66  65 108 142 130 133 133 136 147 139 136 149 135 104
 62  52  61  64  63  67  64  62  65  64  64  66  70  72  71  68  66  70  72  70  70  75  78  78
 73  73  73  73  73  72  72  72  73  72  74  75  76  76  75  75  74  81  84  78  75  77  79  77
 76  76  84 110 141 155 144 129  98  80  66  69  78  78  71
107 104 105 106  97  94  96  93  92  83  82  64  30  21  22  13   5   9   5   1   3   1   1   4
  1   1   1   1   1   1   3   3   2   3   3   4   6   8   9  11  13  15  18  21  24  28  32  35
 35  38  42  45  45  44  44  47  47  46  46  49  54  56  56  54  55  58  59  60  60  59  58  58
 56  58  60  60  60  59  60  61  63  63  62  63  70  79  85  87  86  90  92  94  93  90  90  95
 92  89  79  76  84  88  84  84  85  87  87  84  81  80  83  86  85  87  85  81  83  89  89  84
 89  91  90  88  89  93  92  89  93  93  93  95  97  98  97  95  99 100 100  97 109 100  95  96
 96  94  95  97  97  95  95  97 103  98  94  93  93  96  98  94 101  97  94  93  95  97  96  94
 91  95  96  93  89  88  88  89  87  86  86  88  91  91  90  90  94  92  89  80  77  90  95  86
 90  89  88  90  89  91  95  86  88  93  92  92  89  86  91  92  90  89  86  85  85  86  89  91
 88  89  90  90  88  85  85  86  93  88  90  87  77  79  87  87  89  86  83  83  84  86  87  87
 83  85  84  81  79  79  83  84  82  81  79  80  79  77  77  79  76  78  80  80  79  77  75  73
 72  73  74  73  70  68  67  67  68  69  66  62  61  63  64  63  68  68  67  67  68  68  70  70
 73  72  72  73  72  71  71  71  73  71  71  73  73  73  73  74  81  78  77  77  79  79  78  77
 73  77  80  79  74  72  74  78  75  77  76  74  74  75  71  66  68  73  75  71  70  73  75  75
 74  77  72  75  78  70  76 115 150 142 149 148 141 144 142 149 109  78  72  77  81  76  81  76
 72  74  76  77  77  77  78  79  76  78  77  75  75  78  78  75  80  77  75  76  78  80  78  77
 76  76  77  75  74  75  77  79  75  75  77  76  74  74  75  77  76  76  75  73  72  73  75  77
 76  77  77  79  80  75  73  76  67  70  73  69  70 105 140 132 133 136 136 139 141 133 135 145
106  59  57  65  61  67  67  66  62  64  67  67  66  66  69  71  71  70  70  71  71  71  71  73
 72  72  72  73  73  72  73  73  75  73  75  76  74  72  72  75  78  74  73  77  79  77  75  75
 78  75  77  77  78 100 131 146 151 136 110  83  71  70  70
 99  99  99  97  91  91  90  85  80  79  60  34  23  20  13  10   9   6   4   3   3   3   2   2
  2   3   5   5   6   6   8   8   8   9  10  12  13  15  17  19  23  24  26  29  33  36  38  40
 39  42  46  48  47  44  43  43  48  50  53  54  54  55  56  58  57  58  57  57  56  57  59  60
 59  59  60  61  60  58  59  62  62  65  69  73  78  84  88  90  91  92  92  92  92  92  90  89
 87  85  82  82  84  84  83  81  84  82  83  84  83  80  79  82  79  80  82  86  87  86  85  85
 91  90  85  86  93  89  85  93  95  95  96  98  97  95  96  98 104  99  98 101 104 101  98  97
103  95  98  99  93  96  99  90  95  93  95  99  98  93  95 102  95  92  90  91  92  94  94  94
 93  92  94  93  89  91  94  91  94  90  90  93  92  88  88  93  92  89  75  66  89  91  86  90
 89  89  88  88  88  89  90  90  91  94  90  93  90  94  89  88  93  90  89  87  86  85  84  93
 89  89  91  86  87  91  90  90  85  88  87  83  82  86  86  83  88  85  84  85  85  84  85  86
 83  84  85  84  83  82  83  84  77  80  83  82  81  81  77  73  75  76  75  72  73  76  75  71
 70  72  73  70  70  72  71  68  71  68  66  66  64  62  64  68  66  67  66  64  64  68  69  68
 69  68  69  71  70  68  69  73  70  75  75  73  74  70  71  79  78  78  78  78  79  79  78  77
 76  74  71  71  73  75  74  72  72  76  76  73  71  72  73  72  70  69  68  69  71  75  77  76
 76  74  72  73  77  78  76  72 107 151 154 144 144 142 146 149 145 122  81  69  81  80  75  78
 77  79  79  74  70  74  80  80  75  77  76  79  77  72  75  75  77  76  76  78  80  80  79  76
 74  74  76  77  76  76  80  84  80  78  76  74  74  75  75  75  78  74  72  72  73  72  71  71
 76  77  78  78  77  75  74  73  66  68  71  72  68  73 105 145 131 137 132 137 140 136 141 143
143 102  62  58  65  63  64  63  65  62  68  67  64  67  68  71  66  67  68  69  70  71  71  72
 74  74  73  73  72  73  74  75  75  74  73  73  74  74  72  72  74  74  75  75  76  76  76  76
 75  77  79  75  70  70  80  90 126 142 148 140 119  86  67
 97  92  94  97  90  83  81  81  76  56  33  24  24  19  13  12  10   7   6   5   5   5   5   4
  5   6   8   9   9  10  11  12  11  12  12  13  15  18  23  26  29  30  32  34  36  38  40  41
 45  46  46  45  43  43  45  46  50  52  54  55  56  56  58  59  59  60  60  59  58  58  60  61
 59  58  58  60  61  59  57  58  66  74  82  86  88  90  89  88  94  92  90  89  89  89  88  87
 90  89  87  87  86  83  80  78  82  82  81  80  80  81  81  79  84  83  82  83  84  84  86  88
 90  88  83  82  86  84  86  95  98  96  95  95  94  93  94  96 100  98  99 102 102  98  95  96
 95  98  95  93  98  98  95  97  93  92  93  95  93  89  90  94  95  93  91  91  92  93  92  92
 90  90  92  92  91  93  95  94  86  85  88  90  93  94  94  95  83  88  71  77  92  92  91  85
 88  89  90  90  90  90  90  89  90  92  91  91  89  92  89  88  84  88  91  85  86  89  85  87
 93  90  90  85  84  87  86  88  89  90  90  86  85  87  86  85  90  89  87  86  85  82  83  83
 85  83  82  83  86  86  84  82  83  83  81  79  77  77  75  72  76  75  75  76  77  76  75  73
 73  74  74  71  71  71  69  65  69  66  66  66  65  63  63  67  64  65  65  64  64  66  66  66
 69  67  67  70  70  70  72  75  69  73  75  77  77  72  70  72  76  76  76  76  78  78  78  78
 77  73  69  71  75  77  74  71  75  75  74  73  71  71  73  75  77  74  71  70  73  77  77  76
 72  73  75  76  76  75  75  74  75 103 149 149 141 151 142 147 143 149 117  80  73  77  80  79
 81  73  80  80  67  72  83  77  79  78  73  76  76  75  78  78  78  77  77  77  79  80  79  78
 75  75  76  76  75  73  75  79  78  78  77  76  77  77  77  77  77  75  75  76  76  75  74  74
 76  77  79  80  79  78  76  74  74  74  74  74  69  67  83 106 133 129 137 134 133 143 140 142
141 140  99  61  59  64  65  63  61  62  64  63  66  71  71  68  67  67  69  69  70  70  71  71
 72  72  72  72  73  74  75  75  74  73  73  74  75  75  74  73  74  74  75  75  75  75  75  73
 73  75  77  77  75  72  76  81  74  94 127 146 145 136 116
 94  92  91  88  84  82  77  68  52  33  23  25  24  15  11  12  11  11   9   9   8   8   8   8
  9  10  12  12  13  13  14  15  15  17  21  24  27  29  31  32  36  37  38  40  42  44  44  45
 48  48  47  46  46  48  51  52  53  54  55  57  58  59  60  60  60  60  61  61  60  60  61  62
 60  62  64  63  59  58  63  69  78  85  90  91  89  88  89  91  92  90  88  87  87  87  85  83
 81  83  85  86  85  83  81  79  81  82  80  77  78  82  83  80  86  84  82  83  83  84  87  90
 91  89  90  92  92  90  93  98  98  96  95  94  94  94  94  94  91  92  95  98  99  97  96  99
 94  99  97  94  96  95  93  96  92  92  94  94  93  92  92  95  95  94  92  92  92  92  91  90
 93  95  95  92  92  91  89  89  88  90  90  90  91  94  92  89  91  83  71  84  88  94  95  94
 92  91  91  90  90  89  89  89  90  91  93  89  90  88  89  88  86  89  91  85  86  88  81  80
 91  87  88  85  84  86  84  88  84  85  86  86  84  84  85  86  89  91  91  88  86  85  85  84
 86  85  84  84  86  85  82  80  85  82  79  78  77  77  76  75  75  72  73  77  78  74  72  72
 72  72  71  69  69  69  66  62  66  64  65  67  66  63  64  65  66  66  65  66  66  66  66  66
 69  67  66  68  70  70  72  74  72  71  73  75  73  72  72  71  75  75  74  74  76  77  77  77
 72  73  76  77  74  70  70  73  77  74  74  75  74  71  73  77  81  78  73  71  74  78  78  76
 73  75  77  79  79  78  76  75  73  72 104 147 150 141 148 144 151 146 144 129  90  71  81  83
 78  83  77  74  79  74  69  77  80  80  75  76  76  74  77  77  78  78  77  77  77  78  79  79
 75  76  76  76  74  72  73  74  78  77  77  77  79  79  78  77  78  77  77  77  77  76  76  77
 76  77  77  78  77  76  74  73  78  78  77  77  75  69  69  77 118 137 127 130 143 139 138 142
140 134 137 116  66  54  70  60  67  69  63  60  61  63  67  69  66  67  68  68  70  70  70  69
 72  72  73  73  73  73  74  74  72  72  74  74  75  75  73  73  73  74  75  75  74  74  72  72
 73  73  75  76  76  74  74  75  75  72  72  86 119 148 152
 90  90  89  83  80  78  67  48  31  26  29  30  21  15  15  11  13  13  12  12  11  12  12  13
 14  15  16  17  18  18  20  20  22  25  30  34  36  37  37  37  40  41  43  44  46  47  48  48
 45  46  48  51  53  56  56  57  55  55  56  57  59  60  61  60  60  60  62  61  60  60  60  61
 62  63  63  60  60  66  76  85  88  90  90  88  85  86  91  95  88  87  86  88  88  86  83  81
 80  82  84  84  82  79  77  76  81  81  79  78  79  82  84  85  83  82  83  85  86  86  87  89
 89  87  91  95  93  92  95  97  95  94  95  97  98  98  96  95 100  98  96  96  96  94  92  93
 93  89  96  98  91  95 102  96  90  91  91  90  90  91  92  93  95  95  94  93  93  93  92  90
 87  92  91  90  94  93  90  92  84  86  87  87  88  91  90  88  88  67  80  92  88  93  83  92
 96  93  90  88  86  87  88  89  92  91  95  89  91  86  89  88  93  89  88  86  87  86  80  84
 89  85  88  88  88  87  84  87  85  84  85  85  82  79  78  80  80  84  86  84  83  83  85  84
 85  87  88  87  85  82  82  83  85  82  81  83  83  81  78  78  77  75  76  78  78  75  73  73
 71  71  71  70  71  72  69  66  66  65  66  67  67  65  64  65  65  63  63  64  65  63  64  66
 72  69  67  69  71  70  70  70  72  70  73  75  72  73  76  73  76  75  74  74  74  75  76  76
 71  74  79  80  73  67  67  71  76  75  76  77  76  74  74  76  78  77  74  72  74  77  78  76
 77  75  75  78  81  82  78  74  79  82  66 103 148 144 144 146 144 150 145 150 141  96  70  80
 81  78  79  82  81  78  74  69  75  78  78  79  77  72  76  77  78  78  78  76  76  76  78  80
 76  76  76  76  75  74  74  75  78  77  76  76  77  77  76  76  77  77  77  75  73  73  74  77
 79  78  76  75  74  74  74  73  76  77  76  77  78  74  70  69  85 130 125 129 138 130 138 139
135 132 137 139 104  62  58  70  62  64  61  66  70  65  66  69  65  66  67  68  69  69  68  68
 71  71  72  73  72  72  72  72  73  73  74  74  74  73  71  71  72  73  74  75  74  73  72  72
 73  71  71  73  75  74  74  74  76  71  80  80  69  85 119
 86  81  82  81  72  59  44  33  33  29  27  24  20  21  21  15  16  16  15  15  15  16  17  17
 19  20  21  22  23  23  25  26  32  33  33  34  36  39  42  44  44  45  46  47  47  48  49  50
 44  46  50  54  57  57  57  56  56  57  57  59  60  61  61  61  61  61  62  61  60  60  60  61
 65  61  57  61  71  81  86  87  88  88  88  89  90  90  91  93  89  86  86  88  87  85  82  81
 79  82  84  84  81  80  80  81  80  79  79  81  81  79  84  91  83  83  84  87  88  87  87  88
 93  89  89  91  91  93  97  99  93  94  95  97  99 100  98  96 105 100  97  98  99  97  93  90
 95  91  96  98  91  94  99  92  95  95  93  90  90  92  93  92  94  95  95  93  93  94  93  91
 89  92  90  89  93  93  89  90  91  91  92  91  91  91  90  90  84  67  90  93  89  90  87  92
 93  91  88  86  85  86  88  90  91  90  92  88  91  86  89  89  90  87  86  86  89  90  87  92
 92  88  90  90  89  87  83  86  85  84  85  87  85  82  82  85  79  84  86  84  84  85  86  85
 82  84  86  85  84  82  83  84  85  82  81  83  82  78  75  74  72  73  73  71  70  71  70  67
 67  66  66  66  67  68  66  64  66  65  66  67  67  66  64  64  65  64  63  66  67  66  67  70
 72  70  69  70  72  71  69  68  67  68  76  79  75  75  77  73  76  74  73  73  75  76  76  76
 76  74  75  78  79  75  70  67  75  77  77  75  74  76  76  75  74  75  75  74  74  75  75  75
 76  73  71  74  79  80  78  73  75  69  82  68  96 150 145 147 140 152 144 144 155 138 100  72
 71  74  79  82  81  80  78  74  70  73  73  77  78  75  78  77  77  77  77  75  74  74  77  79
 77  77  76  74  74  75  77  77  78  76  75  74  75  76  76  76  76  77  77  75  73  72  73  75
 79  78  76  75  75  75  75  74  75  77  75  73  74  74  72  73  63  91 127 130 119 128 134 131
131 138 131 135 136 105  71  58  65  64  61  64  67  66  65  64  64  65  66  67  67  67  66  66
 68  69  70  71  71  71  71  71  71  72  73  73  71  71  70  70  73  74  75  75  74  73  72  73
 73  71  71  71  72  74  74  75  72  79  74  75  84  75  70
 81  78  73  63  49  39  35  34  35  28  25  26  24  21  22  22  20  20  20  20  21  21  22  23
 25  26  27  28  28  29  31  32  37  38  38  39  40  42  44  45  48  49  49  48  47  47  49  50
 51  53  54  56  57  56  56  55  57  58  59  59  60  60  60  60  61  62  62  61  61  61  61  62
 64  64  66  73  82  89  89  86  87  86  85  88  90  91  90  90  90  87  85  85  83  81  81  83
 78  80  82  82  81  82  84  86  80  79  81  84  82  79  83  92  86  85  85  87  87  87  87  89
 94  93  93  94  96  96  97  99  95  96  96  96  96  97  97  96  96  94  94  97 100 100  96  91
 95  98  95  93  97  96  92  93  97  96  94  93  95  97  97  95  94  95  95  93  92  94  93  91
 94  95  93  90  92  90  86  84  90  89  87  85  83  82  80  79  80  84  91  87  86  85 100  92
 87  87  86  86  87  88  89  90  88  87  88  88  90  87  89  89  84  88  89  84  88  95  91  90
 92  89  90  87  86  87  85  89  85  84  84  86  86  85  85  87  83  85  86  84  84  83  82  82
 81  79  77  77  79  78  76  73  75  73  72  72  71  69  68  68  65  67  65  61  60  63  63  60
 61  62  62  62  63  63  62  61  62  62  63  64  64  64  63  62  64  63  64  65  66  67  68  70
 68  67  68  69  71  71  68  66  66  69  74  75  72  73  74  73  73  73  73  75  77  78  78  77
 75  76  77  79  80  79  75  72  75  77  75  71  71  75  76  75  73  76  78  76  74  73  73  72
 73  73  73  73  75  76  77  77  68  76  75  79  68  92 148 147 147 141 146 150 143 148 143 106
 70  77  74  73  80  77  75  83  74  72  67  72  77  77  78  75  77  77  77  76  75  75  76  77
 78  77  75  73  73  75  77  76  77  76  74  74  76  77  78  79  76  79  80  79  77  75  73  72
 75  74  74  75  77  76  75  73  75  77  75  71  71  72  74  77  70  67  91 119 129 127 125 129
135 130 138 145 138 139 117  61  62  62  68  61  57  64  64  61  64  65  65  66  65  65  65  65
 65  66  67  69  69  70  71  71  68  70  70  71  70  70  71  71  72  73  74  74  73  73  72  73
 73  72  73  74  73  71  71  72  74  71  70  72  76  77  76
 74  69  59  44  34  34  37  36  29  29  30  30  29  23  23  27  24  25  26  26  26  26  27  28
 30  31  33  33  34  35  36  37  39  41  44  46  47  47  46  46  51  51  50  49  47  48  50  52
 57  58  58  58  57  56  57  57  58  59  61  61  60  59  59  61  61  60  60  60  59  60  61  62
 65  73  81  85  87  88  89  90  88  85  84  86  88  89  88  89  88  85  83  83  81  79  81  85
 84  84  84  81  79  77  78  79  83  83  85  87  85  82  85  91  85  85  85  87  89  89  90  91
 87  92  93  94  97  94  91  95  96  98  98  97  96  95  95  93  93  94  96  97  95  94  93  91
 92  94  91  92 100 102  97  96  91  89  89  92  95  96  95  93  93  95  94  91  90  92  92  89
 91  90  90  91  92  94  94  89  91  91  89  87  89  91  87  81  72  88  88  89  88  84  92  83
 86  86  86  86  87  89  90  91  88  87  86  89  89  89  87  88  85  89  90  83  85  91  87  85
 89  87  88  84  84  87  86  88  90  87  84  83  80  78  76  74  77  76  76  76  75  73  72  72
 75  73  72  71  72  72  70  68  64  65  65  63  62  63  62  62  63  63  61  60  59  59  60  59
 61  62  63  64  64  63  63  64  61  62  63  64  65  66  65  64  62  63  63  63  65  67  69  68
 69  69  70  71  72  72  71  70  71  73  72  70  70  72  72  73  73  74  75  77  79  79  78  76
 73  78  80  79  79  79  78  76  75  76  75  74  74  74  74  74  74  77  78  77  75  73  72  71
 74  74  74  74  76  77  77  78  77  79  77  75  77  69  85 140 144 146 144 148 148 143 146 150
109  81  74  78  71  74  83  78  77  75  68  71  74  73  77  75  78  78  79  78  78  77  77  77
 77  77  76  74  75  77  77  75  77  76  75  75  77  79  79  79  77  79  80  78  77  77  76  74
 74  73  72  73  75  76  75  73  73  76  75  73  74  74  75  77  79  69  61  91 130 129 121 128
136 132 131 136 138 140 134 113  64  53  68  68  62  69  64  63  65  65  64  64  64  64  64  63
 65  66  66  67  67  68  69  69  67  69  68  68  69  70  71  73  73  74  74  73  71  71  72  73
 73  72  72  73  73  70  71  71  72  77  74  72  77  75  70
 64  48  40  43  40  35  33  34  31  36  31  27  29  28  27  27  27  28  29  29  29  29  30  32
 34  35  36  37  38  39  40  41  43  44  44  45  46  47  49  51  51  52  51  49  49  50  53  55
 55  57  58  58  57  56  57  59  59  61  62  62  60  59  59  62  60  59  59  59  58  59  61  63
 74  78  84  84  85  88  90  91  86  85  87  90  91  89  87  86  82  81  82  83  81  79  81  85
 81  81  81  79  77  77  78  79  86  87  89  88  87  86  87  88  82  82  85  89  91  92  92  94
 89  96  93  91  94  91  91  99  95  98 101 100  98  96  93  91  88  91  95  95  92  93  98 102
105  95  96  98  94  98  97  84  92  90  91  95  98  96  93  91  93  94  94  90  89  90  90  88
 94  90  91  92  91  94  95  89  91  92  88  82  84  88  80  67  86  92  89  91  88  89  85  94
 89  88  86  85  86  88  90  92  90  89  87  93  89  90  85  86  87  86  85  82  83  84  81  86
 89  88  89  84  82  85  81  80  83  81  78  77  78  78  76  74  74  71  71  73  73  71  70  71
 68  69  71  71  70  71  72  75  63  67  68  64  61  61  60  58  54  52  51  54  53  51  51  54
 54  56  58  59  58  58  59  61  64  64  66  69  71  72  72  69  72  73  75  73  73  77  77  76
 75  75  75  75  76  77  76  75  74  78  76  74  78  76  71  71  74  75  77  79  79  78  75  73
 75  77  76  75  78  83  79  71  75  74  76  79  79  75  72  72  74  76  76  76  75  75  73  70
 77  73  71  73  78  79  78  75  82  77  73  76  78  70  72  87 141 149 147 144 143 145 149 144
149 107  76  75  81  80  77  76  73  75  73  74  72  70  77  79  79  79  79  79  79  78  77  76
 76  76  76  75  77  79  79  76  77  77  76  77  78  78  78  77  78  78  77  74  74  76  78  77
 79  76  71  70  72  74  75  76  72  75  75  75  77  76  72  72  74  69  74  66  99 138 125 124
128 127 119 131 143 132 128 140 111  64  62  62  62  70  61  65  66  66  65  64  63  63  63  63
 67  67  65  65  65  65  67  67  68  69  68  68  68  68  69  72  74  74  74  72  70  68  71  73
 72  71  70  71  70  70  72  73  77  68  71  75  69  70  76
 45  43  41  39  38  39  38  37  34  36  35  33  31  31  31  32  33  34  34  33  33  34  37  37
 39  39  39  40  42  43  45  45  45  47  48  49  49  49  49  50  47  47  48  51  53  53  54  57
 59  59  59  59  60  59  57  57  54  61  63  59  59  63  63  58  60  61  61  61  62  66  73  78
 83  85  86  86  85  88  89  89  90  84  86  86  86  88  85  85  83  82  82  83  82  80  80  83
 81  81  81  80  83  82  91  78  79  82  86  87  84  86  88  87  84  86  87  89  92  92  92  94
 94  91  91  90  92  95  91  89  89  98  91  98 100  89  92  91  87  90  95  97  95  93  99 108
 91  91  96  96  92  92  94  95  95  92  96 100  96  91  91  94  92  91  90  93  96  92  90  94
 90  90  90  91  90  87  87  88  87  91  91  77  80  96  57  68  99  93  89  86  84  86  91  91
 83  91  93  95  91  86  90  90  90  90  89  90  90  90  87  84  86  84  81  78  79  81  81  79
 80  80  78  76  74  70  70  75  73  70  74  75  70  70  73  71  70  71  71  70  69  70  70  70
 68  69  66  71  66  50  46  55  32  31  28  22  20  19  19  16  16  17  15  14  13  13  12  12
 16   8  34  67  67  62  66  62  68  64  62  59  55  57  63  62  58  58  60  62  60  59  58  61
 62  62  62  63  61  61  60  61  56  59  55  58  59  56  59  55  57  59  57  57  60  58  57  62
 66  66  73  85  90  85  81  81  80  80  77  75  74  74  75  73  79  77  75  74  74  73  73  73
 68  75  77  72  71  79  82  79  75  75  72  75  75  72  75  75  85 135 151 145 144 146 146 146
145 146 126  72  72  81  74  80  76  74  76  76  72  69  74  79  76  77  80  71  78  76  72  73
 74  76  76  76  77  81  81  77  79  79  77  77  79  81  79  77  75  76  78  77  75  75  75  76
 75  75  75  73  73  74  75  74  75  73  75  75  74  73  74  76  70  70  71  70  67  97 130 120
119 129 128 127 132 130 137 131 140 111  64  62  66  64  65  65  65  63  64  66  64  63  62  60
 65  65  65  66  66  65  65  67  69  68  68  67  69  70  70  70  70  72  73  73  71  71  71  72
 72  71  70  71  72  73  71  70  71  71  72  73  74  74  73
 45  44  42  40  40  40  39  38  37  38  38  37  35  35  35  37  36  37  37  38  38  38  39  39
 42  42  43  43  44  46  47  47  51  50  49  50  52  52  49  47  50  50  51  54  56  56  57  58
 59  59  59  59  60  60  59  58  58  60  61  59  59  61  62  61  64  62  61  64  71  79  85  88
 87  88  87  86  86  88  88  86  87  85  88  85  83  88  86  84  82  81  81  81  79  78  79  81
 86  85  80  83  81  84  90  82  79  81  85  86  85  88  91  90  90  90  87  87  91  93  94  97
 90  94  94  94  94  95  93  88  91  93  92  95  95  90  90  93 100  96  95  98 100  97  95  95
 92  86  87  94  97  96  93  90  93  93  96  96  92  92  91  89  94  94  91  89  92  91  91  93
 91  91  90  90  88  86  86  88  89  87  94  80  85  77  70  84  93  88  87  88  89  91  91  86
 87  91  89  90  87  84  89  88  87  90  89  84  83  86  86  83  82  82  81  80  80  80  79  76
 72  72  71  71  75  74  74  74  74  72  71  76  73  76  74  74  71  70  70  69  71  71  72  71
 69  74  70  63  69  47  10   7  23  11  11  16  11  12  15  13  18  17  14  11  11  13  13  15
 11  10  36  63  62  61  66  60  64  60  60  61  60  59  57  54  58  57  56  56  55  54  54  55
 56  54  53  54  57  58  57  55  60  64  61  65  62  59  64  65  66  64  64  66  65  60  59  64
 50  51  56  62  64  62  65  71  68  64  68  76  81  79  76  76  70  73  76  75  74  74  76  76
 75  68  67  73  77  74  73  76  81  81  76  77  75  72  76  77  70  79 134 147 138 143 149 145
151 141 154 127  79  67  82  77  74  76  78  79  79  72  69  74  71  71  78  72  78  76  75  77
 78  78  75  72  72  76  78  77  74  75  74  75  77  79  79  77  75  78  78  75  76  78  78  75
 74  75  75  73  71  71  72  72  73  72  72  74  75  75  75  76  73  73  71  71  65  74 110 132
118 129 131 126 127 141 126 125 131 147 105  60  69  67  75  62  65  65  63  60  62  67  67  63
 64  63  63  64  64  63  64  66  68  67  66  66  68  69  69  68  69  71  73  73  72  71  71  71
 71  72  71  71  71  72  70  69  71  71  72  73  74  74  74
 48  46  45  44  42  42  42  41  41  41  42  41  39  39  40  41  39  40  42  44  43  43  43  43
 45  46  46  47  47  48  49  50  51  53  54  52  49  47  47  49  55  54  55  57  59  59  59  59
 60  60  61  61  60  60  60  60  60  59  60  61  60  60  61  63  60  61  66  73  81  86  89  88
 89  89  86  85  86  87  87  86  85  86  89  84  81  87  86  84  81  81  81  79  79  80  82  82
 83  83  76  83  78  83  83  80  83  82  83  83  83  87  91  91  96  95  89  86  89  91  91  92
 91  97  92  92  92  92  98  93  97  91  95  94  92  94  92  96  93  91  91  93  95  95  95  96
 95  88  90  98  99  95  92  92  93  97  99  95  93  97  98  91  93  94  90  87  88  91  91  92
 92  92  92  92  90  89  90  92  89  93  95  84  84  57  72  97  95  90  88  89  91  93  91  86
 89  89  85  86  88  88  90  88  88  88  85  79  78  83  87  89  91  90  88  83  81  78  75  70
 73  75  72  70  72  72  69  70  70  71  67  72  74  78  74  75  75  73  72  73  71  70  70  72
 73  69  73  69  74  59  35  50  19  20  17  18  24  21  22  32  29  28  23  18  16  17  20  19
 24  29  54  71  66  61  58  46  41  40  41  43  45  47  49  48  46  44  43  44  43  42  40  40
 41  38  36  35  36  36  35  33  33  33  31  37  42  40  41  38  35  36  40  44  45  47  50  50
 60  57  54  54  56  58  60  61  72  76  72  59  51  55  60  60  66  74  79  81  81  82  80  76
 80  73  67  68  71  74  76  78  79  81  79  80  78  74  76  74  76  71  75 135 157 147 143 149
143 149 145 141 127  84  68  75  75  79  76  75  81  78  71  72  69  68  77  77  78  77  77  78
 77  78  78  76  76  77  76  74  70  73  73  74  75  77  77  77  75  77  76  73  75  81  79  72
 73  76  76  74  70  69  70  70  73  71  73  75  76  76  74  75  73  73  70  75  75  67  84 113
131 117 135 128 133 118 122 128 126 133 139 108  62  73  71  68  63  68  67  64  63  63  62  63
 63  62  62  63  62  61  63  64  67  66  64  64  68  69  69  68  69  71  73  73  71  70  69  70
 71  70  70  70  71  71  70  69  71  71  71  72  72  73  73
 50  50  48  47  45  45  44  44  45  45  45  43  42  41  42  42  42  44  46  47  47  47  47  47
 47  48  49  49  49  50  51  52  52  54  55  52  48  47  50  54  59  59  58  58  59  58  58  59
 60  60  61  61  60  61  61  61  60  61  61  61  61  61  62  63  61  67  75  81  84  86  86  86
 88  87  86  85  86  87  87  88  87  84  87  83  81  85  84  83  78  80  80  79  80  83  84  82
 78  78  76  83  81  82  80  79  84  81  81  82  83  88  92  91  93  93  89  87  90  91  89  88
 92  96  88  93  94  90 100  96  99  92  93  96  94  95  97  96  98  96  94  93  93  94  95  96
 90  86  89  94  93  91  91  92  88  93  97  94  91  96  99  93  89  91  89  88  90  90  90  91
 89  88  88  88  88  87  88  89  92  87  81  86  77  73  86  93  92  87  87  88  90  91  89  84
 88  88  85  87  88  86  87  84  90  88  88  89  87  82  79  80  77  76  73  73  73  74  74  72
 67  71  71  70  69  71  71  73  67  76  79  74  74  68  62  59  57  51  48  48  46  46  50  57
 56  59  81  81  58  48  56  83  82  42  25  29  26  23  27  23  22  21  21  20  20  25  27  27
 24  24  33  38  32  33  35  30  26  28  29  30  31  33  37  44  42  40  40  42  42  40  37  35
 32  32  33  31  30  31  34  37  34  33  30  28  26  22  25  26  21  24  26  23  21  25  26  16
 20  19  20  25  34  43  46  48  53  52  61  78  83  72  57  50  58  56  54  55  59  65  70  71
 78  79  78  74  70  70  71  71  77  78  76  78  77  73  73  69  77  75  73  75 131 154 150 139
147 150 142 145 151 126  94  77  70  75  77  76  77  78  77  74  71  66  76  78  77  76  75  75
 75  77  79  78  77  77  75  73  72  75  76  75  75  75  76  76  75  76  75  74  77  81  79  74
 75  76  77  75  72  71  71  70  73  72  74  76  76  75  74  75  71  74  72  77  82  73  69  80
115 136 134 124 125 127 136 132 118 139 123 127 108  58  73  73  62  63  63  65  68  64  63  70
 63  62  62  63  63  62  64  66  66  65  63  65  68  70  70  69  69  70  72  72  71  70  70  71
 70  70  70  70  71  72  71  70  71  70  70  70  71  72  72
 52  52  51  50  49  49  48  48  48  48  47  47  46  44  44  46  45  47  47  48  49  49  50  50
 49  50  51  51  51  52  53  54  52  50  50  52  55  58  57  55  60  59  59  57  57  58  59  60
 59  59  59  60  60  61  61  62  61  63  62  58  59  64  66  65  75  79  82  84  86  87  88  88
 86  87  87  87  87  87  89  90  89  82  83  83  81  82  80  81  77  78  79  78  80  82  82  79
 79  78  82  82  88  85  84  84  82  80  83  87  88  91  92  90  87  89  88  89  94  97  95  94
 91  93  88 100 102  92  96  92  97  93  87  96  95  92  99  91 100  96  92  92  95  96  94  90
 88  86  88  91  94  97  95  90  88  91  96  96  92  93  97  97  92  90  88  90  92  89  89  94
 93  90  88  90  91  90  88  87  86  80  87  91  63  83  97  87  86  87  91  95  95  93  90  85
 85  86  80  81  80  77  79  77  78  77  76  75  75  75  74  72  71  70  71  71  74  75  76  77
 75  78  76  74  74  71  69  67  66  55  47  44  76  83  74  53  50  47  46  47  45  41  41  45
 37  36  35  34  29  29  31  24  58  60  48  37  41  42  37  35  30  32  33  35  39  42  43  43
 46  43  43  44  42  42  46  45  46  49  50  50  50  44  39  41  43  43  42  43  42  39  36  34
 32  32  30  27  23  22  24  26  23  19  17  17  20  21  18  17  16  14  17  18  17  22  21  12
 10  15  18  15  12  13  16  17  20  27  31  38  53  71  75  68  65  60  56  56  55  56  58  63
 57  57  62  67  67  68  76  86  78  78  72  73  74  72  73  69  66  72  80  75  69 128 155 148
142 141 152 149 140 152 141 108  75  67  73  80  74  74  78  75  74  67  72  75  73  76  75  75
 77  77  75  72  72  73  74  75  73  76  77  76  75  75  76  76  76  75  75  76  79  78  78  78
 76  76  76  75  74  75  73  71  71  72  74  75  73  71  71  73  71  75  78  76  75  74  70  70
 80 114 112 111 127 126 126 133 125 128 133 125 138 111  64  64  69  67  63  64  68  69  68  69
 66  65  65  65  64  63  64  65  66  64  64  65  68  69  69  68  68  68  69  69  68  69  70  72
 69  69  70  70  71  71  70  71  72  71  71  71  72  72  72
 54  54  54  53  52  51  51  51  50  50  50  49  48  48  48  49  47  49  49  50  50  51  52  53
 51  52  54  54  53  53  54  55  45  47  50  55  59  60  59  57  58  58  58  56  57  59  61  61
 59  59  59  60  60  61  62  63  63  62  60  57  60  67  72  73  83  82  82  85  89  90  88  85
 88  88  88  88  88  87  87  88  89  79  80  81  81  81  78  81  80  80  79  78  80  81  79  77
 81  79  84  78  87  86  86  88  85  84  88  93  92  91  89  85  89  92  90  90  96 100  99  99
 95  95  91 101 102  93  94  92  94  95  87  97  98  91  98  91  88  91  92  93  94  96  95  92
 90  92  97  97  95  97  95  90  90  91  94  95  90  88  92  94  96  93  89  90  91  87  88  95
 96  93  90  91  92  91  89  88  70  83  90  77  73  85  87  89  88  89  91  93  88  86  85  82
 79  79  75  75  75  74  77  76  74  76  74  70  72  79  79  74  81  79  80  79  77  73  72  71
 62  59  54  53  54  47  37  32  31  35  41  37  51  51  52  44  47  40  33  29  27  27  30  35
 47  56  44  41  46  36  30  36  26  27  30  27  34  63  78  65  66  69  74  79  85  91  93  92
 94  94  95  99  99  96  92  92  96  96  93  95  99  91  80  78  99  97  95  94  92  89  88  88
 83  79  73  68  64  60  57  54  51  41  32  22  20  23  19  16  18  13  13  17  17  14  13  13
 15  16  14  11   8   7   7   8   7   4   5  10  11  15  29  46  58  56  54  50  48  45  48  53
 57  55  55  56  58  60  64  66  70  73  72  77  80  80  80  75  73  72  75  81  83  73 119 151
147 140 145 146 140 150 148 141 110  78  65  73  74  74  77  75  77  71  70  71  70  77  77  80
 78  77  75  74  74  74  73  72  72  75  76  76  75  75  77  76  74  72  73  76  77  75  75  78
 77  76  75  75  75  77  75  72  72  72  73  73  72  69  69  71  73  70  76  76  74  76  74  74
 65  86 125 122 126 132 136 127 131 126 133 141 128 138 105  62  64  68  71  68  64  67  69  63
 68  67  66  65  63  61  61  63  65  65  64  64  66  66  65  65  66  66  66  67  66  68  69  70
 67  68  69  69  69  69  68  69  73  72  72  73  73  73  73
 55  56  56  55  54  54  53  53  51  51  51  51  51  51  51  50  50  51  52  53  53  53  54  54
 53  54  56  55  54  53  53  54  46  51  57  59  58  57  58  59  59  60  60  59  59  61  62  61
 60  60  60  60  60  61  63  63  64  62  62  63  68  75  80  83  85  83  83  86  90  90  86  82
 89  87  86  88  89  87  84  83  86  79  81  80  79  81  80  82  85  82  79  79  80  79  78  77
 78  80  82  76  81  85  81  85  89  87  89  91  89  87  87  85  90  94  92  90  94  96  96  95
 96  96  96  97  97  95  95  94  94  97  94  98  99  93  96  97  93  99 102  98  95  95  96  96
 90  92  97  95  89  88  90  91  90  89  89  89  85  84  85  85  92  91  88  87  89  87  88  93
 90  88  86  86  86  86  87  89  71  78  71  65  92  94  83  87  86  84  84  80  77  76  78  77
 77  77  73  75  77  76  79  77  80  81  81  81  78  74  69  66  54  52  51  50  47  44  42  42
 46  44  42  45  49  45  43  48  55  47  44  47  53  65  80  91  83  72  60  59  73  92 110 121
125 124 113 110 106  74  44  52  51  54  65  79  84  80  87 106 102 101  99  96  95  94  90  87
 89  91  89  88  92  94  93  95 100 101  97  97 102  96  88  91 114 113 113 112 110 110 111 113
117 116 114 113 112 110 108 106 108 103  92  63  40  32  23  22  14  18  19  18  21  21  23  27
 25  20  15  15  18  17  13  10   9  11   9   6   7  10   8   2  10  22  36  46  53  54  49  41
 36  41  44  47  52  55  52  47  56  62  65  72  76  78  81  78  77  81  72  70  84  78  64 113
153 146 142 152 142 141 143 141 144 115  84  71  73  77  77  77  78  77  73  71  69  76  72  77
 76  75  76  77  78  76  74  71  71  74  75  75  75  76  77  76  72  72  72  74  74  73  74  75
 78  78  77  76  76  77  77  75  75  73  72  73  74  72  71  71  73  69  73  73  76  78  71  72
 71  64  95 134 111 123 121 124 134 136 129 124 128 122 136 105  66  61  68  72  64  66  71  68
 69  68  66  65  63  61  60  62  63  64  64  64  63  63  63  63  65  65  65  66  66  67  68  68
 68  69  69  69  68  67  67  68  72  72  72  73  74  73  72
 55  56  56  56  56  55  55  56  54  53  53  52  51  51  51  50  51  53  54  55  55  55  55  55
 54  55  56  55  53  52  52  53  59  59  60  60  60  59  59  58  61  62  63  62  61  62  62  60
 60  60  60  60  61  62  63  63  63  61  64  73  79  81  85  88  91  90  90  88  87  87  88  88
 88  84  82  85  88  87  83  80  82  79  82  79  76  81  82  83  86  80  75  76  77  77  76  77
 78  83  83  80  81  89  79  83  90  86  85  86  84  86  91  93  85  90  90  88  91  93  91  90
 89  94 100  97  96  98  94  92  94  97  99  97  98  95  92 101  98  98  96  92  93  97  97  94
 97  90  89  90  90  92  95  96  95  94  92  91  88  89  90  85  85  89  88  86  87  88  87  88
 88  87  86  86  86  87  92  96  89  80  79  88  85  80  82  82  81  79  81  81  78  78  79  78
 80  81  78  80  80  77  76  71  65  51  45  48  45  37  42  56  60  57  54  52  49  48  47  50
 47  47  49  54  59  62  72  88 109  98  98 125 128 137 133 137 133 124 112 108 112 114 110 104
101  98 111 116 118 105  82  90  99 102 115 124 122 121 120 116 108 107 105 103 104 105 105 103
 97 103  99  93  94  92  89  90  83  89  88  87  86  77  72  80  90  92  95  97  98  99 101 104
102 106 109 109 107 106 107 109 109 108 113 106 102  88  46  15  29  43  40  23  19  22  22  20
 20  18  17  18  21  19  16  15  11  11  12  12   9   7   8  10   6   5   3   4  20  44  55  52
 35  26  22  29  33  34  41  54  51  55  54  56  58  62  73  75  77  82  77  75  78  75  78  71
110 151 141 140 143 144 145 147 149 152 121  82  73  75  74  79  76  81  77  73  68  72  62  67
 75  73  72  72  74  75  75  75  71  74  75  75  75  75  76  75  73  74  74  73  74  76  77  74
 78  79  79  77  76  77  78  77  78  74  71  73  76  76  74  72  72  75  76  69  72  73  64  71
 67  76  71  93 110 126 123 110 127 130 134 125 125 134 123 133 100  67  59  69  66  64  68  65
 68  67  66  66  64  63  62  64  61  62  64  64  63  63  64  65  66  66  67  68  68  68  67  67
 69  71  71  69  68  66  66  67  71  71  72  73  73  72  71
 56  56  57  58  58  58  55  55  57  56  57  55  54  52  52  52  51  53  55  56  56  56  56  56
 57  59  56  49  47  53  59  60  64  64  62  62  61  60  59  59  62  60  59  61  62  61  61  62
 59  61  62  61  61  61  64  65  65  71  77  81  81  81  86  90  87  86  86  88  87  85  85  85
 85  87  83  86  92  83  89  80  84  77  83  78  80  79  83  84  84  81  79  76  81  82  78  83
 85  79  81  88  87  84  84  86  86  96  89  91  87  94  99  96  89  93  96  94  93  92  90  87
 89  92  97  92  95 100  92  91  92  96  90  94  97  98  91  98  97  93 100  99  88  90  96  91
 96  90  86  94  94  91  98  94  92  91  90  94  98  94  88  87  83  90  89  88  90  88  83  83
 84  91  88  83  87  88  84  85  78  81  77  71  72  76  77  77  81  83  81  84  83  78  76  73
 63  59  50  44  39  38  38  39  43  43  43  39  43  41  48  65  61  55  52  54  56  59  67  77
 88  97 107 111 116 121 124 124 123 114 114 127 130 120 112 113 107 104 100  95  91  88  86  86
 86  87  88  88  90  94 101 107 104 115 114 115 123 112 109 104 103 101 101 101 105 110 115 117
117 115 111 105 101  97  94  89  85  87  87  85  82  80  76  72  92  93  91  94  97  93  99  88
 91  92  92  92  94  96  96  96 103 102 100 102 103 114  61  17  36 100  98  88  85  69  49  37
 29  21  22  25  21  19  20  15  15  17  14  10   9  10  10   8  12  10   8   7   3   5  18  34
 47  57  51  27   7   7  19  27  29  32  35  47  47  51  53  61  72  74  76  76  75  76  77  79
 70 113 148 145 141 146 142 141 149 142 148 135  94  73  77  75  77  71  73  76  74  71  69  66
 73  76  76  74  74  76  77  76  71  74  74  73  74  77  78  75  75  75  75  74  75  81  83  77
 72  75  76  75  77  79  78  74  77  76  75  75  74  74  76  79  78  69  64  70  74  73  71  71
 72  73  73  79 105 119 114 127 125 112 133 143 130 128 128 126 132 107  64  64  69  67  67  67
 68  68  67  66  64  62  61  60  63  61  61  62  62  61  62  63  66  66  65  64  63  64  65  66
 67  68  68  66  66  67  66  64  67  69  70  71  71  71  71
 58  58  58  58  57  57  55  55  56  56  57  57  56  55  55  55  55  55  55  56  57  58  57  56
 59  52  47  49  54  56  57  57  62  62  62  61  61  60  59  59  62  60  59  60  62  62  62  61
 61  60  59  61  63  63  63  63  77  82  84  84  80  79  81  84  86  85  85  86  86  84  85  85
 84  84  79  83  85  85  84  80  83  77  81  80  78  76  80  87  81  78  79  80  83  82  79  85
 85  81  82  85  87  89  89  85  90  92  88  95  94  92  95  96  88  87  90  96  97  93  93  97
 93  92  95  91  95  95  94  96  94  96  92  93  95  94  90  94  90  91 101 104  97  96  95  88
 89  88  87  93  94  90  94  91  97  96  92  90  92  91  86  83  87  92  92  89  89  87  87  91
 84  91  90  86  85  82  76  77  77  76  73  73  75  75  74  77  67  65  57  54  46  37  37  35
 32  35  41  47  51  53  54  54  54  49  47  49  54  43  58  78  85  94 108 122 132 135 136 136
133 131 125 115 108 107 106 104 108 102 100 103 104 100  97  98  96  94  91  88  87  87  86  86
 87  88  90  91  92  93  94  93  91  99 102  94  97  95  98  97 101  99  98  99 101 105 107 108
116 116 116 115 114 110 109 110 108 105 100  97  99 101  98  93 119 127 128 127 121 103 106 107
102 100  96  92  89  86  83  81  76  80  84  89  87  95  50  16  39  97 102  99 104 108 101  87
 81  66  52  39  25  23  25  21  15  14  13  12  12  13  10   8  11  11  13  17  14   6   2   3
 10  22  42  58  49  26   6   1   6  19  22  24  24  38  41  42  50  56  62  69  74  75  75  76
 77  71 111 147 147 143 139 144 143 147 142 140 130  95  68  72  75  76  79  75  71  76  79  71
 68  70  72  73  75  76  77  75  73  73  70  71  74  76  74  69  75  75  78  78  73  73  76  77
 73  76  76  73  74  75  75  73  77  75  75  75  74  72  71  72  76  75  74  74  72  72  72  73
 76  65  72  70  75 111 127 113 111 123 127 132 134 144 124 128 125 132  99  60  61  67  69  73
 71  70  68  66  64  64  64  64  63  63  61  60  60  61  63  64  64  64  65  64  64  64  64  65
 66  68  68  66  65  66  66  66  66  67  69  70  70  71  71
 61  60  59  57  55  55  55  55  56  56  57  58  57  57  57  56  58  57  56  57  59  58  55  53
 46  48  54  59  61  58  57  59  59  61  62  62  61  60  61  61  61  61  61  61  63  64  63  61
 59  61  61  60  59  62  69  74  78  80  82  83  83  84  87  89  86  85  85  85  86  85  84  85
 84  83  79  80  78  87  81  81  81  79  80  80  78  82  80  85  83  78  82  85  84  84  83  86
 84  83  82  81  85  92  91  83  90  88  89  93  95  88  90  90  92  89  91  97  97  94  94  97
 96  91  89  88  93  86  93  96  92  91  92  91  93  90  91  92  88  90  94  95  95  95  93  91
 89  93  92  95  96  94  95  94  97  98  94  90  92  93  89  85  95  93  89  89  93  92  86  85
 92  90  87  82  79  77  75  74  72  75  77  79  75  61  44  36  33  35  35  41  46  48  55  56
 52  51  49  47  46  48  51  54  62  69  92 103 113  81 117 144 148 153 154 149 145 140 131 122
111 111 110 106 103 103 101  97  95  96  95  93  94  97 100 100  97  95  91  89  88  89  89  90
 87  87  88  90  90  89  86  84  85  73  80  74  74  73  73  76  79  77  75  72  70  67  65  63
 62  64  66  68  68  66  67  68  68  69  68  65  65  67  68  70  86  82  81 102 130 120 117 113
110 108 105 102  98  93  88  86  85  83  82  82  78  84  51  25  27  76  85  89  91  92  96  99
 98  96  98  93  82  78  71  59  44  39  31  24  18  13  12  14  14   9   7  10  13  13  12  12
  4   5   7  15  40  59  51  29  15  13   7   7   4  10  16  23  32  34  40  48  57  66  74  78
 71  76  67 103 146 145 141 144 143 143 146 150 148 134 103  71  67  74  75  75  77  73  71  79
 72  71  69  70  72  73  76  77  76  75  74  74  74  73  72  69  75  73  74  75  75  77  77  74
 75  77  77  75  75  75  74  71  76  74  74  76  75  72  69  67  71  74  75  71  69  70  71  70
 74  71  72  66  64  83 105 117 112 123 134 137 126 137 130 136 127 133 138  89  64  64  67  70
 68  69  69  69  67  67  67  68  64  65  62  59  58  62  65  64  64  65  64  64  64  63  63  63
 64  66  67  66  64  65  67  68  66  67  68  68  70  70  70
 61  60  59  57  55  55  55  55  57  56  57  57  57  57  56  56  58  57  58  59  58  55  50  48
 42  56  67  66  61  60  61  60  59  61  64  64  62  60  61  62  62  63  63  62  63  65  64  62
 59  61  62  61  61  68  77  86  82  83  84  84  84  84  85  85  87  86  86  85  85  84  84  85
 86  83  85  79  77  86  79  82  79  81  79  79  79  90  81  79  86  80  84  84  81  85  84  82
 84  83  83  83  85  91  90  82  87  90  94  90  92  86  91  89  89  90  92  93  95  98  98  97
103  97  93  92  97  88  98  96  88  86  92  90  92  89  94  92  90  93  91  89  92  92  92  96
 89  94  92  90  94  94  93  94  93  95  93  92  95  95  90  88  94  90  87  90  95  94  87  83
 80  78  80  80  75  74  74  73  72  78  73  55  37  28  32  39  47  48  45  52  57  56  56  51
 52  58  67  76  87  99 111 118 122 119 136 134 148  96 137 151 146 144 135 123 117 117 114 109
108 106 102  96  91  90  89  87  86  89  91  91  93  97 100 100  94  94  92  93  96  98 100 101
 98  97  96  95  95  95  94  95  75  36  41  43  44  40  34  39  38  37  36  35  35  33  32  31
 25  28  30  30  30  31  31  30  28  30  32  31  28  28  31  34  31  30  27  55 102  95  89  88
 91  87  81  78  77  77  80  82  80  80  80  82  83  87  50  16  35  81  87  91  97 101 100 102
100  97  98  97  95  97  99  96  94  89  82  70  55  45  44  49  45  33  21  13   9   6   6   7
 12   9   7   3   1   7  28  49  51  28   8   6   4   1   1   4   6  11  20  30  39  47  54  58
 72  68  71  75 102 142 154 139 147 137 146 145 132 146 141  98  70  72  74  75  74  74  74  72
 80  74  69  67  67  69  76  82  76  78  79  77  72  69  70  72  77  76  76  74  75  79  76  67
 73  75  75  76  78  78  74  69  73  72  74  76  75  73  71  70  72  71  68  66  68  70  70  68
 65  74  71  68  72  67  81 120 105 107 124 126 130 121 116 129 133 129 134 133  98  64  71  68
 66  68  69  68  66  65  66  69  65  67  64  59  59  62  64  62  64  64  63  63  62  62  61  61
 63  64  65  64  64  64  67  69  68  69  68  69  70  69  69
 59  58  58  58  57  56  55  55  58  57  56  55  57  58  57  57  58  58  59  59  56  52  51  51
 60  64  64  60  59  62  62  58  59  62  64  64  62  60  61  61  62  63  63  62  63  63  63  62
 62  61  62  68  75  80  82  82  82  83  84  85  85  85  83  83  86  86  86  85  84  83  84  84
 83  78  89  77  78  82  78  83  78  80  76  77  77  84  75  78  85  81  83  78  76  85  84  78
 84  83  86  89  90  91  91  87  88  91  98  92  92  89  95  99  93  93  94  94  95  96  95  94
 95  99 100  97  93  87  99  96  89  88  95  93  94  90  94  90  90  96  95  93  94  91  90  96
 90  94  92  88  93  95  91  92  92  90  88  92  94  89  85  88  90  89  88  85  80  77  78  79
 77  75  76  78  77  78  81  81  74  60  40  31  37  44  47  50  42  44  45  57  69  78  90  93
105 108 112 116 119 124 129 133 144 140 144 137 137  86 118 122 105 104 101  99  97  95  92  90
 87  87  88  86  84  86  88  89  86  87  88  89  90  90  90  89  90  90  90  91  92  92  93  92
 91  91  89  87  86  86  89  91  78  27  28  29  30  29  26  32  31  30  31  31  29  28  27  27
 21  25  26  22  24  30  29  25  26  24  23  23  24  23  20  19  23  28  26  44  94  87  83  84
 75  73  74  75  75  73  70  69  71  69  67  69  74  79  50  18  22  90 106  95  98 104 100  99
100 100 102 107 107 105 103 102 101 105 108 108 101  95  96 101  96  90  80  68  54  40  30  26
 10   8   7   6   5   3   6  10  33  55  59  31   9   4   3   0   4   4   3   3   7  16  29  39
 49  57  63  77  73  98 150 144 140 137 142 147 146 147 147 142 110  75  70  80  72  71  79  72
 77  74  71  69  66  66  72  78  76  78  79  77  72  70  71  72  70  71  75  77  75  76  77  76
 74  73  74  76  79  79  74  68  72  72  74  75  75  73  73  75  77  72  67  68  70  71  70  70
 71  70  70  71  68  70  77  83 115  98 114 115 119 129 134 123 130 116 124 133 120  94  61  68
 68  69  69  67  64  63  64  66  65  68  66  62  62  64  63  60  62  61  60  60  61  61  62  63
 64  63  61  62  63  64  65  66  67  68  68  69  69  69  70
 57  58  59  59  59  57  56  55  58  57  56  56  59  60  59  58  58  57  57  57  54  52  56  60
 66  61  58  59  62  61  60  60  60  61  63  63  61  60  60  60  61  61  62  63  62  61  62  65
 62  66  72  79  84  85  81  79  78  79  81  84  86  86  86  86  82  83  84  83  82  82  83  83
 78  73  85  74  77  78  76  81  78  76  74  75  75  72  68  81  83  81  82  76  77  86  85  80
 82  81  86  92  91  89  90  90  90  88  95  95  94  92  96 105  96  91  91  96  96  90  89  95
 99  90  82  87  95 104  98  77  93  95  97  95  94  91  89  87  90  95  94  91  91  87  87  94
 92  92  94  91  94  96  90  90  91  87  85  89  92  87  85  90  89  86  83  78  72  74  79  79
 83  79  75  78  84  82  71  62  31  30  31  37  44  47  52  63  81  95 109 126 130 125 123 119
114 113 110 109 110 116 123 129 127 135 130 129 108  73  93  95  97  95  97 100  99  97  95  96
 91  92  94  94  91  90  91  91  94  92  90  90  89  87  86  86  88  87  85  83  80  77  75  71
 72  73  73  72  70  70  73  75  66  22  24  22  20  25  24  24  25  24  24  24  22  18  16  16
 17  19  18  15  17  22  20  15  19  17  17  18  17  17  18  20  17  19  14  35  94  93  91  88
 87  89  93  99  98  89  80  75  83  88  91  88  81  72  42  11  27  88 108 103 100 102  96 100
101  98  96  98  99  99 100 105 106 107 106 106 103  98  95  95  91  95 101 105 103 100  98  99
 86  62  43  38  30  13   3   6   0   2  24  50  56  31  10   2   0   0   3   3   3   4   6   8
 18  33  41  44  59  68  90 143 144 141 136 141 148 141 135 144 142 111  80  71  76  76  73  77
 73  73  74  74  69  64  63  63  75  77  76  75  75  76  74  70  71  64  68  77  78  75  76  79
 79  76  73  74  77  78  76  72  74  73  73  73  72  72  74  77  77  74  71  70  68  67  69  72
 75  68  66  70  66  68  72  59  91 118 122 105 114 134 129 135 131 124 136 135 129 132  89  68
 65  66  69  71  72  70  67  65  65  68  67  64  64  65  63  61  60  59  59  59  60  62  63  63
 64  62  60  62  63  63  63  64  65  65  66  67  68  70  71
 58  59  59  60  59  58  58  57  58  57  57  58  60  61  59  58  56  55  55  57  56  55  59  64
 59  59  60  63  62  60  60  63  60  61  62  62  61  60  60  60  60  60  62  65  63  60  63  71
 71  77  83  84  84  82  81  83  84  83  84  84  84  83  83  82  81  83  85  83  81  81  81  81
 79  73  78  75  75  76  73  79  77  77  77  73  80  77  73  82  81  82  85  82  84  86  83  85
 82  82  86  90  89  87  88  88  91  87  90  93  94  98  92  96  89  85  88  95  95  90  91  99
 90  93  98  99  85  94  93  91  95  99  95  93  93  92  85  86  92  92  90  87  87  85  88  94
 90  87  93  90  88  91  86  87  89  87  85  87  89  85  83  85  81  79  78  77  76  81  82  74
 63  71  76  76  75  62  41  29  26  42  62  76  94 111 126 135 146 146 138 131 119 106 101  98
 98  98  98  99 101 104 106 108 109 109  99 101  93  82 103 104 113 110 108 106 104 101 101 104
110 105  98  93  91  91  94  96  96  95  92  89  86  84  83  82  78  78  76  76  76  76  74  72
 74  74  74  73  72  72  73  74  60  21  22  20  19  20  20  18  22  23  25  27  25  23  21  20
 18  18  18  17  17  17  14  13  12  12  14  15  13  13  17  22  19  21  19  39  98  95  98 100
103  99  99 100 100  97  95  97  92  92  92  91  88  83  78  68  68  80  85  97 101 104  98  96
 94  94  93  92  91  91  91  93  92  92  91  90  91  93  93  92  90  91  92  92  92  91  93  94
100 105 101  88  80  70  40   8   5   4   3   1  16  29  35  30  11   8   3   0   0   0   1   3
  3  13   8  17  33  36  53  87 139 145 146 142 142 144 143 142 140 149 118  78  74  81  76  73
 74  76  77  76  73  69  63  58  69  73  75  74  77  80  77  69  80  73  71  74  76  75  71  66
 77  75  72  73  75  76  76  76  77  75  73  72  72  72  74  77  72  74  74  71  67  66  68  70
 66  66  60  68  73  68  70  70  55  88 121 114 105 118 119 117 121 137 123 131 125 124 128  76
 68  64  60  63  69  73  72  68  65  66  67  67  66  66  65  64  61  60  59  59  61  62  61  60
 62  61  61  62  63  62  61  63  64  64  64  65  67  68  67
 60  60  60  60  60  59  59  58  58  58  58  60  61  60  57  54  54  53  53  58  60  58  59  62
 62  65  64  59  58  62  63  61  61  61  62  62  62  62  62  61  61  60  63  67  64  61  65  76
 86  85  81  80  81  83  86  88  87  86  86  85  84  83  83  83  83  86  87  84  81  80  79  78
 82  77  73  77  73  76  70  77  74  80  80  72  88  93  85  78  79  82  86  87  89  84  79  87
 86  86  88  90  88  88  88  86  92  91  90  90  93 105  91  83  93  95  96  94  90  86  85  86
 93  92  96  99  81  94  88  89  92  98  90  89  90  93  84  88  93  92  92  92  92  91  92  94
 96  89  95  92  86  90  89  92  89  91  89  87  87  82  76  74  73  77  81  77  66  60  53  39
 48  72  80  65  45  29  27  40  74 119 152 153 150 151 147 137 123 116 103  99  98  95  97  94
 95  95  96  98  99 100 101 101 102 105 113 108 106  91 122 126 128 130 131 129 127 123 122 121
120 117 114 112 111 108 105 102 100 100  99  91  86  83  80  78  78  77  75  75  75  75  76  77
 76  75  73  72  72  73  74  75  67  20  14  16  16  13  14  16  25  27  28  28  25  20  16  14
 15  14  16  20  19  15  13  18  16  12  11  14  15  16  14  14  15  10   7  32 100 101 105 103
108 108 112 118 119 116 113 113 110 102  98  97  93  89  95  95  95  87  87  92  79  85  92  91
 90  91  88  83  83  86  86  86  85  90  90  88  85  85  85  84  87  87  88  89  89  88  88  89
 87  89  88  88  91  93  85  75  63  51  40  22  16   7  10  13  15  11   5   3   3   2   1   0
  1   1   6   7  16  24  23  36  58 102 138 147 146 143 140 143 144 139 142 122  81  68  77  76
 77  77  75  74  75  77  74  68  59  70  75  74  75  78  75  69  70  77  78  72  70  78  79  68
 69  69  70  71  72  73  74  74  80  76  72  72  73  74  76  77  72  75  76  71  70  74  74  70
 72  73  66  70  73  69  70  67  64  65 104 110 115 116 126 121 131 134 133 117 127 135 133 128
 82  66  48  44  53  65  71  71  65  64  66  66  67  66  66  67  64  63  62  61  60  60  57  55
 61  61  63  64  63  59  60  63  65  64  63  63  65  64  63
 62  61  61  62  62  60  59  59  61  60  59  61  60  55  51  51  57  59  61  61  60  60  60  62
 61  62  62  61  60  61  62  64  62  62  62  63  62  61  60  59  62  62  61  64  71  78  81  80
 81  86  88  83  79  82  85  85  82  86  88  87  85  84  83  82  78  83  84  81  80  80  76  71
 81  76  77  76  82  85  76  76  77  81  78  77  77  78  84  84  78  81  82  88  88  84  84  81
 89  93  89  84  91  94  93  93  96  92  85  94  90  88  86  90  98  98  93  93  95  84  77  86
 87  92  92  91  94 100  98  92  91  90  96  97  90  89  89  84  86  87  91  90  92  96  92  88
 91  91  89  86  86  90  93  94  90  88  88  86  79  79  79  77  83  66  55  51  40  31  42  61
 79  65  46  31  25  38  75 108 141 152 156 149 143 144 138 126 113 108 103 103 102  99 100 102
107 110 113 111 107 105 109 113 120 120 114 129 120 105 149 141 140 147 149 146 139 138 138 139
133 132 126 122 122 127 126 122 121 115 109 101  96  93  90  87  84  82  81  82  82  80  81  81
 86  85  82  79  76  77  78  80  73  20  15  19  10  16  19  18  26  23  21  19  17  15  13  11
 16  15  14  14  15  14  13  13  12  14  16  16  17  19  24  29  30  36  39  58  93 102  95 100
102 103 105 106 105 102  99  97  93  93  91  91  90  90  89  90  91  92  92  91  92  93  94  94
 92  92  91  90  89  89  90  90  92  92  91  91  90  90  89  88  87  86  86  85  84  83  82  82
 80  78  78  80  82  82  83  85  92  92  90  89  87  83  75  66  21  13   2   0   0   4   3   0
  1   0   0   0   2   8  16  22  28  33  56  95 133 149 147 140 142 144 140 138 128  91  66  73
 74  74  73  71  76  74  67  73  71  73  73  72  73  77  76  72  69  74  76  72  69  71  72  72
 69  73  76  74  72  71  72  74  75  75  73  71  72  76  76  74  75  74  73  72  73  74  75  75
 70  72  72  74  74  72  71  71  69  58  76  99 114 117 113 126 110 138 142 124 126 131 126 126
132  81  54  51  53  62  65  64  67  64  64  67  68  65  64  66  61  65  66  63  62  63  59  53
 63  62  59  59  61  65  66  64  63  62  62  61  61  62  65
 64  63  63  63  61  60  60  61  57  60  63  60  51  47  51  58  60  61  63  63  62  62  62  63
 62  62  62  61  61  61  62  63  60  61  61  61  61  61  61  61  61  62  65  69  75  79  80  77
 80  84  86  81  79  82  85  84  84  84  85  83  82  82  81  79  78  80  79  75  75  77  77  73
 76  74  70  76  72  81  75  77  75  80  81  81  76  71  78  84  90  92  90  90  86  82  86  87
 85  92  86  86  86  94  91  95  93  90  88  91  92  88  91  93  92  90  91  95  89  72  74  93
 90  93  94  94  95  99  96  90 101  88  86  92  93  92  93  93  88  86  90  90  92  95  90  87
 91  92  91  87  84  85  89  92  83  83  76  73  80  81  71  63  47  36  33  31  30  52  72  67
 49  38  34  47  74 106 133 149 147 152 154 151 150 146 135 121 117 114 110 109 112 120 128 133
135 135 134 132 130 131 136 140 136 143 141 150 135 118 152 149 162 163 162 158 154 151 144 138
140 136 130 127 130 136 137 135 125 121 115 111 108 107 104 102 102  99  96  96  96  96  99 102
 96  93  89  85  83  82  82  82  74  21  10  18  14  13   8   9  12  15  17  17  16  15  13  13
 20  19  18  18  18  18  17  17  21  24  32  40  51  62  70  75  81  86  83  81  85  78  73  81
 78  78  77  76  73  70  66  64  62  62  62  62  61  61  61  60  52  53  52  54  54  56  57  59
 57  58  57  59  59  62  62  64  65  64  66  66  68  68  70  70  71  72  74  76  78  80  81  81
 89  88  87  89  89  87  87  88  80  82  83  85  87  89  91  88  98  77  45  19   2   0   0   0
  0   2   2   2   2   5  14  22  21  26  27  31  47  82 120 145 144 137 145 143 123 116 102  69
 76  72  69  78  80  75  74  65  68  69  71  72  76  79  76  71  71  74  76  74  68  66  70  75
 71  70  69  70  72  74  75  75  77  75  72  71  73  76  77  76  73  74  73  73  72  72  74  75
 74  73  71  72  72  72  73  75  68  69  66  79 106 124 121 111 117 131 138 132 125 137 131 113
123 140  74  65  55  65  64  67  69  68  67  65  64  64  66  67  66  67  65  62  61  63  62  60
 67  65  62  60  61  63  64  62  63  62  60  60  61  63  64
 62  62  63  63  61  60  60  63  63  61  60  56  53  53  56  60  62  63  64  65  64  63  63  63
 62  61  61  60  61  61  61  61  62  62  63  64  64  63  63  62  63  67  73  78  83  85  84  81
 81  84  84  81  80  83  85  83  86  86  86  84  84  84  81  78  77  80  80  75  73  75  78  78
 78  77  74  78  72  76  82  81  79  76  72  78  81  75  76  75  81  84  85  88  87  83  87  88
 86  94  89  94  86  93  84  88  87  87  93  91  96  90  92  90  89  91  92  87  83  85  89  88
 91  91  92  93  94  96  95  92  97  89  89  93  91  87  88  89  94  89  89  88  89  89  82  81
 89  87  86  87  88  87  81  75  80  81  88  87  68  46  38  39  31  31  26  46  75  70  59  72
 80  98 120 136 146 153 155 154 150 148 144 138 139 140 138 131 125 129 133 133 134 138 136 132
130 133 136 140 142 142 140 139 144 147 143 144 134 124 143 142 148 147 145 142 142 141 137 132
129 133 135 135 134 133 130 127 119 117 115 115 115 117 117 118 127 125 122 118 114 109 105 103
105 102  97  94  92  92  91  91  88  43  24  21  20  24  27  34  28  31  32  31  28  25  25  26
 22  21  19  19  19  19  18  18  18  16  13  13  12  12  10   8   6   7   4   3   4   0   1   4
  0   0   0   0   0   0   2   2   0   1   1   1   1   1   1   0   0   0   0   0   0   0   1   1
  0   0   0   0   0   1   1   1   1   2   1   3   3   3   4   5   6   8  10  12  14  15  17  17
 19  20  25  31  36  38  42  43  52  55  57  59  63  68  73  75  76  85  94  97  87  67  48  35
 13   8   0   0   0   2   6  10  16  16  21  28  31  37  58  82 127 140 147 144 137 124 108  98
 73  84  79  66  70  77  75  77  79  73  65  61  65  74  79  80  72  72  75  77  73  66  66  70
 75  70  67  69  71  72  73  74  81  77  74  73  74  74  73  72  70  72  74  73  71  70  73  75
 75  74  72  72  73  72  73  75  73  73  69  70  71 102 132 114 119 119 111 122 124 115 140 124
118 131 115  77  63  64  65  66  68  71  70  65  63  66  69  69  69  67  64  63  63  63  64  64
 68  67  64  61  59  60  62  62  64  61  59  60  63  65  65
 61  61  62  63  63  61  60  61  61  55  52  53  59  63  63  60  62  63  64  64  63  63  62  62
 62  61  60  60  61  61  61  60  61  61  61  61  61  61  61  61  72  76  81  84  87  88  87  84
 82  84  84  82  82  85  86  84  81  82  83  82  82  81  78  75  75  81  84  79  74  74  77  77
 74  72  79  75  78  74  96  90  73  75  75  79  78  73  76  78  84  85  85  88  89  85  85  82
 89  94  90  95  88  93  88  91  87  87  93  90  95  95  95  93  97  86  85  90  90  93  96  91
 92  89  87  88  90  93  95  96  91  95  99  97  92  90  88  86  97  90  89  90  92  92  87  88
 82  86  91  94  93  89  82  77  82  68  50  38  34  33  33  29  38  40  63  79  74  86 116 131
144 150 152 147 141 139 138 136 141 142 141 140 140 139 138 136 138 139 140 138 138 140 139 137
139 135 130 128 131 134 135 136 136 141 146 150 148 140 139 133 126 125 119 111 104 104 105 106
108 120 131 134 131 125 121 118 124 123 121 120 119 120 120 120 119 115 109 102  93  84  75  70
 62  57  49  42  35  31  27  25  22  11  12  11  10  11   3   2   3   3   3   1   0   0   0   2
  2   2   1   1   1   1   1   1   1   0   0   1   2   3   1   1   3   0   0   1   2   4   2   1
  2   1   1   0   0   0   1   1   3   3   3   3   3   3   3   3   2   3   2   1   1   1   1   1
  3   3   3   3   2   2   1   1   1   1   1   0   0   0   0   0   0   0   0   0   0   0   0   1
  1   1   1   1   1   1   1   1   1   1   2   2   2   2   5   7  15  18  25  31  39  50  60  67
 77  60  35  16   7   5   5   3   2  10  14  14  20  33  39  36  45  85 122 138 145 142 125 105
109  77  72  77  73  73  73  76  78  73  69  66  68  72  73  72  76  73  73  75  75  70  67  67
 73  70  69  70  70  70  72  76  78  75  73  76  77  74  70  68  71  72  74  74  72  71  73  75
 74  74  75  76  76  73  71  72  76  67  70  72  64  86 118 111 116 116 121 128 125 116 114 126
138 126 137 115  77  62  62  71  64  66  68  66  65  67  69  69  68  66  65  66  66  63  63  63
 64  65  63  60  59  60  62  63  62  60  59  60  63  65  65
 62  61  62  64  63  60  58  58  48  50  53  56  59  62  64  64  62  62  63  63  63  63  62  62
 61  60  59  60  61  61  61  60  62  61  60  60  62  67  70  73  83  84  84  84  84  85  83  83
 84  85  84  82  83  85  85  82  80  82  82  80  79  79  79  78  77  80  81  78  76  75  74  71
 74  73  80  75  75  68  88  80  72  77  76  78  77  76  80  79  86  87  83  85  84  82  86  86
 90  87  86  88  90  95  99 103  90  89  89  88  89 101  98 100  93  87  91  93  88  90  97  93
 94  90  88  88  88  90  92  94  87  91  93  91  92  92  89  87  91  85  86  88  93  96  95  98
 91  86  81  80  82  81  78  74  43  36  24  25  34  31  29  41  53  79  82  93 134 150 142 150
147 144 140 137 134 132 132 133 137 139 141 143 142 140 138 138 133 131 129 129 126 120 116 114
112 113 118 125 133 138 139 138 149 149 148 143 137 135 133 137 138 135 129 120 113 112 117 122
134 136 134 124 111  99  92  88  67  63  57  49  41  34  29  26  16  13   7   2   0   0   0   0
  0   0   0   0   0   0   0   1   0   2   3   0   0   1   0   2   3   1   0   0   0   0   0   1
  0   0   0   0   0   0   1   1   0   1   1   0   1   0   0   0   2   0   2   3   0   0   0   0
  2   3   2   1   0   0   0   0   0   0   0   0   0   0   0   0   0   0   0   0   1   1   2   1
  0   0   0   0   0   0   0   0   0   1   0   1   0   1   0   1   0   0   0   0   0   1   1   0
  0   0   0   0   0   0   1   1   0   0   0   0   0   0   0   0   0   0   1   2   2   1   1   2
  1   6  11  14  13  11   9   9  10   2   1   4   8  11  21  33  39  47  61  86 121 143 141 131
 98 109  84  74  74  64  72  71  73  74  74  74  73  71  68  64  77  76  74  72  71  71  71  71
 70  68  68  70  72  73  75  78  71  69  69  74  77  75  72  71  72  73  74  75  74  73  73  73
 71  72  74  77  77  74  71  71  71  71  72  69  70  72  84 112  98 116 102 118 105 117 117 122
114 128 114 130 115  66  72  67  64  63  63  66  67  66  66  68  69  66  66  68  67  64  62  63
 61  63  62  60  59  60  62  62  60  60  60  61  62  62  63
 62  61  61  61  58  55  54  54  53  57  62  63  62  62  63  63  63  62  62  63  64  64  63  62
 61  60  60  60  61  61  61  61  64  62  61  61  67  74  81  87  84  84  82  80  81  84  85  85
 84  84  83  82  82  83  82  80  82  82  81  78  77  79  82  84  81  78  75  74  77  78  75  70
 78  81  80  80  69  71  74  71  78  79  74  76  80  81  82  76  79  83  84  86  83  79  85  88
 91  86  88  90  92  93  97  97  90  90  92  92  89 100  90  91  88  93  98  91  83  91  98  88
 96  93  92  91  90  89  88  88  82  86  89  92  91  84  82  88  93  88  89  89  91  94  92  94
 82  81  82  81  74  59  42  30  28  25  34  35  22  28  52  69  81  85 116 137 133 134 138 133
136 132 128 126 122 120 126 134 131 132 136 141 148 149 147 144 140 134 127 127 127 127 130 135
136 137 141 147 154 158 158 157 160 156 152 148 141 137 125 123 112 105  92  75  62  53  47  44
 32  26  18  11   7   3   0   0   1   1   0   0   0   0   0   0   1   0   0   0   0   3   4   5
  3   3   4   3   3   3   2   2   0   0   0   1   3   0   0   0   0   0   0   0   0   0   0   0
  0   0   1   1   0   1   1   1   0   1   2   1   0   0   0   0   0   0   0   1   0   0   4   4
  0   0   0   0   1   1   1   2   0   0   0   0   0   0   0   0   0   0   0   0   0   0   0   0
  0   0   0   0   0   0   0   0   0   0   0   0   0   0   0   0   0   0   0   0   0   0   0   0
  1   1   0   0   0   0   0   0   2   0   0   0   0   1   0   1   0   1   2   2   2   1   0   0
  1   1   1   0   0   0   3   3   3  11  13   6   3   8   8   4  10  17  31  53  69  87 118 153
136 111 106  80  69  77  63  73  77  76  74  71  69  69  69  70  68  73  78  77  74  72  72  72
 73  70  68  69  74  76  76  74  71  69  69  71  72  73  73  73  72  73  75  75  75  74  72  71
 69  70  71  73  74  73  73  74  69  72  76  67  64  63  69 100 115 108 122 120 113 127 114 108
137 126 121 110 121 112  74  68  70  65  64  66  68  66  66  69  70  67  66  67  67  65  65  66
 62  63  63  61  60  60  61  61  60  62  63  62  61  60  60
 62  62  59  56  52  50  53  58  65  66  65  64  64  65  63  60  63  62  62  63  65  65  64  63
 61  61  62  62  63  63  64  64  62  62  63  66  71  77  81  83  83  81  80  80  83  87  88  86
 84  84  83  82  81  81  80  78  77  77  75  73  73  75  78  79  77  77  76  76  78  80  79  77
 75  79  78  81  74  83  78  80  76  82  83  84  80  76  81  83  85  88  87  90  88  83  85  84
 92  89  90  96  89  89  89  89  90  90  99  94  91  94  83  84  94  88  91  95  90  87  91  93
 94  93  92  91  90  91  90  88  87  94  97  97  93  85  85  95  94  92  95  92  91  92  88  88
 84  83  75  59  40  27  26  32  31  28  29  26  34  65  86  81 101 132 150 147 139 126 123 131
119 113 109 111 114 113 113 115 120 126 135 143 147 145 137 130 124 126 131 136 139 140 138 137
144 145 145 141 133 120 106  98  84  69  52  43  28  22  10   4   2   0   0   0   0   0   0   0
  2   0   0   0   0   2   1   0   0   1   1   1   2   2   3   3   3   3   2   1   1   1   0   0
  0   0   2   2   0   0   0   0   1   1   0   0   1   0   0   2   0   2   4   7   8   8   7   7
 10  10  10   9   8   8   8  10   7   8   9  10  10  12  13  14  15  13  10  10  11  11  10   8
 12  12  11  10  10   9   9   9  10  10  10  10  10  10  10   9  12  10  10   9   9   8   8   7
  6   5   4   4   3   3   3   4   4   4   3   3   3   2   2   2   2   2   1   1   1   1   1   1
  0   0   0   0   0   1   1   0   0   0   0   0   0   0   0   1   0   0   0   1   0   1   1   1
  4   1   0   0   0   1   0   0   0   0   0   0   2   2   4   8   6   0  10  13  10  33  64  64
101 135 113  93  84  68  74  71  73  73  74  76  76  74  69  67  64  67  73  79  79  74  71  71
 76  75  71  69  72  75  74  70  73  74  71  70  70  71  72  71  71  73  76  76  74  71  71  71
 71  70  71  72  72  72  73  74  72  67  71  73  70  70  69  66 102 105 109 113 114 109 124 118
108 123 104 128 125 138 104  69  70  69  69  68  69  68  68  69  68  67  65  65  66  66  66  66
 63  65  64  63  62  62  61  59  59  61  63  62  61  59  59
 62  62  60  55  49  49  58  67  64  65  64  61  60  62  64  64  62  61  61  62  64  66  65  63
 61  62  63  63  64  64  65  65  66  69  74  80  83  82  81  80  83  83  82  83  86  88  86  83
 85  85  84  82  81  80  79  78  74  75  74  74  76  77  76  74  67  73  79  79  77  76  80  83
 80  80  83  78  80  85  78  79  81  80  79  85  85  80  81  82  89  84  77  81  87  89  92  89
 90  88  85  94  81  89  91  99  94  91 102  91  91  90  87  92  86  91  94  90  85  89  95  94
 90  91  89  88  89  92  94  93  98 101  94  85  87  92  94  98  79  81  87  86  87  90  85  84
 79  62  41  30  30  29  29  29  29  39  26  40  77  74  80 131 149 141 137 125 110 107 104  91
 91  88  88  88  92  96 102 106 120 124 127 124 117 112 108 106 110 109 103  93  84  76  68  60
 48  43  32  21  10   3   0   0   0   0   0   4   0   0   0   1   0   0   0   0   0   0   0   0
  0   0   1   1   0   0   0   1   0   0   0   0   0   0   0   0   0   0   0   2   7  14  17  16
  4   8  14  18  20  22  25  27  21  28  28  24  25  28  32  30  28  30  30  29  26  25  24  26
 22  23  22  21  20  19  19  20  19  18  17  15  14  13  13  12   8  10  10  10  12  12  10  10
 10  11   9   9   8   9   9  10  10  10  10  10  10  10  10  10   7   7   7   8   8   8   8   8
 11  10  10   9   9  10  11  12  17  17  17  17  18  18  18  18  15  15  15  15  15  15  15  15
 17  18  17  14  12  11   9   7   0   0   0   2   1   0   0   0   1   1   0   0   0   0   0   1
  0   0   1   2   2   1   1   1   0   1   1   0   0   1   0   0   0   7   2   0   9   9   8  20
 33  66  95  99 101  86  64  71  73  73  74  77  78  76  70  65  72  64  63  72  77  76  73  75
 72  76  75  70  69  72  75  74  70  73  74  71  71  72  73  71  69  73  77  76  72  70  70  71
 71  71  72  73  72  70  70  71  69  78  70  69  70  64  66  66  69 115 112 126 109 115 107 115
118 129 125 118 120 130 129 116  66  70  72  70  69  69  68  66  64  64  65  65  66  67  66  65
 64  66  65  64  64  63  62  60  58  59  61  61  61  60  60
 56  55  54  57  60  62  63  62  64  64  64  64  62  60  62  64  63  63  63  62  62  62  63  64
 65  63  63  65  65  64  64  64  72  77  80  81  79  79  81  83  85  86  81  81  86  89  85  81
 86  83  79  77  79  81  80  76  79  79  83  76  77  72  77  78  74  73  69  69  75  79  78  79
 73  77  89  82  74  79  79  79  75  74  74  86  81  87  89  81  82  84  79  85  91  92  93  83
 93 107  87  81  90  85  92 106  91  87  95  86  81  92  91  91  84  92  95  96  89  92  98  79
 92  88  91  90  89  90 100  78  98  99  90  90  92  90  91  94  85  85  87  83  79  85  79  60
 37  36  34  31  29  28  29  30  36  33  30  39  67 102 125 133 119 110 102  98  92  83  80  82
 84  81  84  89  88 100 106 100  97  91  84  78  72  62  49  39  24  19  11   4   0   0   0   0
  0   0   0   0   0   1   3   4   3   4   3   1   0   0   0   1   0   0   0   0   0   0   0   0
  0   0   0   0   0   0   0   0   0   0   0   1   0   0   1  10  28  35  41  41  34  23  16  12
  3   6  11  15  18  19  19  18  11  11  13  16  16  12   8   5   2   2   1   0   1   3   3   1
  0   3   5   3   2   5   6   5   3   2   3   4   5   5   3   2   0   0   2   3   2   1   0   0
  1   1   0   0   0   0   0   1   1   0   1   0   0   1   2   0   0   1   0   0   1   0   0   0
  0   0   0   0   0   0   0   0   0   0   0   0   0   0   1   1   0   0   1   1   1   1   2   2
  3   3   2   3   3   5   3   3   2   3   3   1   1   2   1   0   1   1   0   0   0   0   0   0
  0   0   0   0   0   0   0   1   0   1   0   0   0   0   0   0   1   0   0   0   0   0   3   4
  9  14  34  61  79  92  92  75  79  74  70  73  75  74  70  69  73  72  63  54  59  72  74  68
 74  73  73  73  72  74  75  73  74  72  70  71  72  72  72  72  67  72  76  74  72  72  73  72
 70  71  69  73  76  72  72  72  73  72  70  68  67  68  67  65  66  73 104 101 104 116 105 120
122 109 115 111 120 119 113 122  97  55  66  65  68  67  68  68  66  67  69  69  68  67  67  66
 67  64  64  68  69  66  64  64  65  63  63  65  64  60  56
 49  51  54  59  62  63  63  62  64  63  63  62  61  59  60  62  63  63  61  61  61  61  61  60
 60  63  66  65  64  67  74  79  83  82  80  79  80  82  83  82  85  83  80  80  83  85  84  80
 84  84  81  78  77  78  80  79  78  78  81  76  77  72  76  77  80  78  74  75  78  77  74  76
 74  76  81  79  78  83  81  79  84  81  80  86  82  84  86  77  81  80  95  91  85  90  85  93
 91  94  94  92  92  95  91  84  88  81  86  89  88  87  85  91  95  92  87  95  99  96  98  94
 92  89  87  90  84  88  99  91  93  88  84  87  84  81  85  83  88  91  91  88  84  70  50  34
 31  32  30  25  27  35  35  30  22  22  39  77 110 120 109  96  87  88  87  82  80  87  93  90
 90  84  86  85  72  60  47  32  21  12   3   0   0   0   0   0   0   0   0   1   1   1   1   0
  4   5   4   3   1   0   1   2   0   0   0   0   0   0   0   0   1   1   0   0   0   0   0   0
  0   0   1   3   6   7   6   5   5  13  13   9  17  40  57  60  41  30  16   5   2   3   7   9
  7   8   8   8   8   7   7   6  10  10  11  14  14  11   9   8   0   1   1   2   5   9  11  11
  9  11  10   7   5   7   6   4   4   3   4   4   5   6   5   4   8   7   6   6   6   7   8  10
  0   2   5   5   1   0   3   6   4   1   2   3   0   0   0   3   0   1   0   0   1   1   2   1
  1   1   0   0   1   1   2   3   0   2   4   4   2   0   0   0   0   0   0   0   0   1   1   1
  0   0   0   0   0   0   0   0   4   0   0   1   2   0   2   5   0   0   1   3   3   2   0   0
  0   0   0   1   1   1   2   2   1   2   2   1   1   0   0   0   0   1   0   0   0   0   0   0
  5   3   3  13  25  49  89  88  76  78  76  72  71  72  70  67  76  75  71  63  61  66  72  75
 75  75  74  73  73  72  71  72  75  73  72  72  72  71  71  71  74  77  78  75  72  71  72  74
 73  74  70  72  74  71  71  72  74  72  68  65  64  66  66  65  68  60  90 110  99 111 128 115
122 122 111 119 126 124 127 123 139 108  52  74  61  65  71  68  64  65  66  67  67  67  69  69
 67  65  66  68  67  63  62  63  63  63  63  62  59  57  58
 54  57  60  63  64  63  63  63  64  63  62  61  60  59  59  60  65  63  62  63  63  63  62  61
 62  64  66  66  69  76  81  84  86  84  80  78  79  82  82  80  84  82  82  81  79  82  83  81
 81  83  83  80  77  76  77  79  75  75  78  75  76  73  76  77  77  76  74  75  78  76  74  76
 83  85  80  80  82  82  83  82  86  82  82  84  84  83  88  81  82  79  81  85  82  83  91  90
 94  86  92  88  86  95  89  83  94  90  87  95  97  90  91  96  89  92  89  96  98  89  93 106
 92  91  85  94  88  92  95  94  91  88  92  93  83  79  92  92  89  93  88  79  65  41  25  30
 31  31  33  38  34  27  24  27  56  82 106 110  98  89  90  95  93  90  91  88  73  62  51  41
 28  16  11  11   5   2   2   0   2   2   1   2   3   3   1   0   1   0   0   0   0   0   0   0
  0   0   0   1   0   0   0   2  11  12  14  16  19  21  23  24  25  25  25  25  25  25  25  25
 28  25  21  19  19  20  19  18  17  17  17  17  19  22  22  20  18  12   8   9  15  20  21  19
  8   7   5   2   1   0   0   0   0   0   0   1   1   0   1   1   3   1   1   0   0   1   2   1
  0   1   0   0   0   2   3   1   0   0   0   0   0   0   0   0   0   0   0   0   0   0   0   0
  4   4   4   4   5   4   3   3   3   2   4   5   4   5   4   1   1   2   2   0   0   0   0   0
  0   0   1   2   2   0   0   0   0   0   0   0   0   0   0   2   2   2   1   1   1   0   0   0
  3   3   2   0   0   0   0   3   2   1   3   6   7   4   1   1   5   4   3   3   3   4   3   2
  2   1   0   5   9  11   5   0   3   3   3   3   2   2   3   2   1   1   1   1   2   2   2   3
  4   3   7   1   2   1  18  52  72  73  72  73  75  76  75  73  75  75  74  70  64  62  67  74
 73  75  73  72  73  68  66  72  70  69  70  72  74  74  74  75  75  75  75  73  69  67  68  70
 72  74  69  71  73  69  69  68  71  71  70  69  69  70  69  66  72  65  73  93  96 102 114 103
102 116 107 122 122 120 125 120 124 128  97  62  76  62  64  71  72  71  70  68  67  67  69  69
 66  67  67  70  67  64  64  67  66  67  67  64  59  57  60
 64  65  64  65  65  65  66  66  65  63  62  62  62  61  61  62  66  65  65  65  66  66  65  65
 65  69  72  73  77  82  82  78  82  82  82  80  80  80  81  82  84  82  83  83  78  80  83  81
 78  80  81  80  78  76  75  75  74  73  74  73  75  75  78  79  74  75  72  71  75  77  76  76
 82  88  78  77  79  75  80  82  82  80  82  82  84  81  90  88  78  85  85  89  81  79  96  93
 90  87  91  87  89  90  82  88  93  99  87  88  91  87  93  92  89  89  86  89  94  93  92  91
 92  91  86  93  96  99  95  91  91  92  90  85  87  88  91  78  82  89  77  49  32  29  31  34
 34  29  26  24  23  33  61  90 114 115 111 104 100  93  77  60  49  30  18  14   5   0   0   1
  3   0   0   1   1   1   2   1   0   0   2   2   0   0   0   0   2   0   0   1   5  11  17  20
 23  25  27  29  30  31  31  32  26  25  22  20  18  16  15  14  10   9   8   6   4   3   2   2
  0   0   0   2   5   9  13  15  18   8   7  16  17   8   5  11   5   5   5   6   6   4   1   0
  2   1   0   0   0   0   0   1   1   1   2   2   1   1   1   2   1   1   2   2   2   2   2   2
  1   1   0   0   0   2   2   0   1   1   1   1   1   1   1   1   1   0   0   1   1   1   2   4
  1   0   0   1   2   3   3   2   4   3   5   6   3   2   1   0   0   0   2   5   3   4   2   4
  3   3   0   0   0   1   1   3   3   2   1   0   0   0   1   1   0   0   0   0   0   0   0   0
  0   0   0   2   1   1   0   0   0   0   0   0   0   2   2   0   0   0   2   4   4   4   2   1
  3   0   0   0   0   1   1   0   0   0   0   0   0   0   0   0   0   1   1   3   4   4   5   5
  1  11  24  33  25  11  65  98  68  59  58  68  76  74  72  73  71  71  72  73  70  65  64  67
 71  74  72  72  74  67  64  72  73  72  73  74  74  72  72  72  72  71  73  74  72  70  71  75
 66  70  68  71  74  71  70  69  69  70  70  70  70  70  68  65  62  61  57  64  89 102 103 112
113 119 117 124 124 125 123 124 139 130 132  86  62  73  71  70  69  69  68  67  68  69  70  71
 67  66  67  68  67  66  66  69  66  67  66  64  60  59  60
 64  62  62  63  64  66  67  67  66  63  62  63  63  62  63  64  64  65  67  66  65  65  66  67
 67  76  82  81  79  80  80  79  82  82  83  82  82  82  83  84  83  83  82  82  79  79  80  80
 80  78  77  78  78  78  76  74  73  72  71  73  74  78  79  80  77  79  74  67  72  79  78  74
 77  84  76  78  82  78  82  83  81  82  84  83  83  77  87  89  82  81  94  88  84  92  87  88
 91  93  92  89  89  90  89  89  89 101  87  83  84  83  92  89  93  88  90  91  89  95  94  84
 92  91  90  86  97 100  97  93  99  89  83  90 100  77  72  82  81  55  37  35  35  34  27  18
 25  41  62  81  99 116 117 110  95  76  54  39  25  12   4   3   3   0   0   0   0   2   4   1
  2   3   3   0   0   0   0   0   1   0   0   0   0   5  15  21  22  25  29  34  35  33  30  26
 24  22  19  15  12   8   3   0   4   2   1   0   0   0   1   2   0   0   0   0   1   1   2   2
  3   7  11  14  15  15  16  17  12   8   4   2   1   0   0   0   1   1   0   0   0   0   2   4
  0   0   1   2   2   2   2   1   0   1   3   2   0   0   0   1   1   1   2   3   4   3   4   4
  7   6   5   5   6   7   7   6   6   6   7   7   7   7   8   9   4   4   6   8  10   9   8   8
  6   9  12  10   6   5   9  14  12   7   8  10   4   0   1   6   4   0   0   0   0   0   0   1
  0   0   0   2   1   1   0   0   0   0   2   8  13  15  15  12  20  20  22  23  26  26  29  29
 33  32  31  31  31  31  30  30  25  24  24  25  25  25  26  27  28  27  25  20  14   8   5   3
 10  17  26  30  33  35  41  45  49  50  52  55  58  60  61  61  60  61  63  63  64  64  65  66
 64  65  67  56  78  72  63  71  71  62  61  70  74  71  68  69  68  70  72  72  72  70  67  65
 69  73  71  71  75  68  65  73  72  71  73  73  73  72  71  72  70  70  71  72  72  71  75  78
 76  79  75  75  76  72  71  68  74  72  68  66  66  69  70  69  73  69  67  67  73  92 111 114
117 108 101 106 120 119 122 121 121 119 119 123  82  72  71  71  73  73  73  72  70  69  69  69
 68  67  67  68  69  68  69  70  68  67  64  63  63  64  64
 62  61  61  63  65  67  66  65  65  64  63  63  63  63  64  66  64  65  67  66  64  63  66  69
 73  78  81  80  80  81  82  81  89  84  81  81  82  83  83  83  82  84  81  81  82  78  75  77
 83  78  75  74  76  77  77  76  72  72  70  74  74  79  78  79  76  80  74  67  72  79  78  74
 77  80  76  80  86  87  85  79  80  85  86  86  84  77  84  88  86  84  82  82  89  96  91  85
 93  91  95  93  86  98 105  90  92  99  90  90  89  85  94  93  95  88  96  96  86  89  94  92
 90  91  96  87  94  92  91  89  81  95  96  74  51  15  37  83  63  33  23  30  31  40  68  92
110 119 118 101  77  53  32  17   2   1   0   0   0   0   0   3   0   0   2   1   0   0   0   0
  0   0   0   0   2  12  19  21  26  33  43  49  49  44  38  34  25  19  10   2   0   0   0   2
  0   0   0   0   1   1   1   0   1   1   0   0   0   0   2   4  11  11  11  11  12  13  14  14
 12  13  11   7   2   0   0   0   0   2   3   0   0   3   3   0   3   3   3   4   6   6   4   3
  6   7   8   9   8   6   4   3   4   7   8   7   6   5   6   6   9   9  10  10   8   6   5   5
  7   6   6   5   5   5   5   4   1   1   1   1   0   0   0   0   0   0   0   0   0   1   0   0
  0   0   2   2   2   2   6   9   8  12  13  11  14  22  19   6   3  11  38  53  53  59  59  65
 70  73  75  79  79  79  76  75  79  77  75  73  73  69  66  61  56  55  53  50  47  44  41  40
 39  37  34  34  35  36  35  33  39  33  34  38  39  34  38  47  46  52  62  72  81  89  95  97
105 106 108 107 105 100  94  91  85  84  82  81  78  76  74  72  72  73  74  74  73  73  73  73
 74  76  70  70  71  60  73  63  70  71  72  71  69  70  69  68  66  70  71  68  67  68  69  68
 67  69  69  69  72  68  66  71  69  68  68  68  68  67  68  71  73  72  71  70  69  68  71  74
 67  70  66  67  69  68  69  68  68  68  66  65  66  69  70  69  61  68  65  68  61  74 110 108
110 107  96 107 123 112 124 118 129 133 127 128 125  80  71  79  74  75  75  74  72  70  68  68
 70  71  70  70  71  72  73  73  74  69  64  61  63  65  65
 64  64  64  65  65  66  66  65  66  65  65  65  63  63  64  67  66  67  68  68  67  69  71  74
 80  78  76  76  79  82  83  82  88  84  81  81  82  82  82  82  80  85  80  79  85  79  70  73
 79  77  75  74  73  73  74  77  70  71  69  75  75  79  75  74  71  75  74  72  74  76  76  76
 76  74  75  75  78  84  80  74  78  84  84  89  85  81  83  88  83  93  84  89  93  84  92  95
 87  84 100 100  94 101  97  91  91  92  88  91  89  86  93  91  97  88  90  90  91  95  92  92
 91  89  95  90  89  90  86  88  98  95  67  24  20  18  37  48  21  39  62  85 110 126 119  99
 72  44  14   2   2   2   0   0   1   2   3   0   2   5   2   0   0   6   3   0   6   8  10  17
 26  33  37  43  46  43  37  33  28  23  16   8   3   1   1   2   0   0   0   1   1   0   0   0
  2   2   1   0   0   0   0   1   0   3   6   8   9  11  14  17  12  11   9   6   4   2   1   1
  3   3   1   0   0   1   3   5   4   3   1   1   1   1   6  10   9   7   7   8  11  13  13  12
  7   9   9   9   8   6   4   3   4   6   6   5   5   6   7   7   0   0   0   2   2   2   3   5
  0   1   1   2   1   0   0   0   0   0   1   2   1   1   2   3   4  10  13  18  32  52  66  71
 73  72  73  77  83  86  85  83  86  92  93  88  91  99  89  68  12  25  67  85  80  76  67  67
 59  53  44  35  28  24  23  23  14  12   9   6   5   6   6   8  11  13  15  19  22  26  29  30
 36  38  45  49  54  55  54  54  50  54  61  72  82  96 111 122 138 138 137 134 127 115 104  95
 90  81  71  67  67  67  64  61  64  65  66  67  68  69  70  70  69  70  69  68  67  67  67  68
 68  68  68  67  73  65  62  73  64  68  67  64  63  65  66  65  65  67  68  66  65  66  67  67
 65  66  67  67  67  67  66  66  70  69  66  66  65  64  66  69  67  69  71  71  71  72  72  74
 82  88  87  91  96  97  99  98 104 105 105 105 105 105 102  99  95 106  97  94  90  88 102 104
108 113 108 113 114 104 108 107  96  89  96 104 106  94  68  53  62  64  66  67  68  68  67  68
 68  69  69  68  68  70  72  75  72  71  69  66  66  68  69
 64  64  65  65  64  66  67  69  68  67  67  66  64  63  65  68  70  70  70  71  73  77  80  82
 81  81  81  80  77  77  83  87  83  83  86  86  83  80  81  84  80  86  80  79  88  80  67  72
 72  74  76  76  72  69  71  74  69  71  69  77  75  79  71  69  71  75  78  79  78  73  72  77
 76  73  79  74  70  83  82  81  77  84  81  90  86  83  81  86  85  84  87  90  97  88  72  83
 94  87  99  93  91  89  77 104  92  90  88  88  85  87  94  88  86  93  98  90  89  93  88  96
 96  86  84  86  84  93  90  97  82  43  21  16  18   2  36  75 105 112 103  81  62  37  12   1
  0   0   0   0   0   0   2   2   0   0   0   2   2   0   0   3  30  42  26   6  17  37  38  34
 34  27  17  12  10   4   0   1   0   0   0   0   2   2   1   0   0   0   0   0   0   0   0   0
  0   0   1   1   0   1   5  10   9  11  13  10   5   2   0   1   0   0   1   2   3   5   7   8
  9  10  12  15  16  15  11   8  11  12  10   6   4   6   9   8   8   8   8   7   4   1   1   0
  0   0   0   0   0   0   0   0   0   1   1   0   1   3   5   5   9   8  10  11  12  12  16  19
 18  22  29  36  41  46  51  53  54  55  60  64  67  70  73  75  76  87  95  98 104 112 111 104
100  99  97  95  91  85  79  75  72  65  63  59  45  30  26  29  21   8  18  17  11  16  12  14
 19  21  24  28  31  32  33  33  43  47  50  52  53  55  60  63  68  68  68  68  68  69  69  70
 71  68  64  62  64  71  81  88 102 121 133 131 128 130 124 112  98  88  75  68  65  64  63  61
 58  62  65  67  67  66  66  67  65  65  65  65  65  65  65  64  66  67  66  66  65  66  67  67
 64  69  66  69  67  66  70  64  69  65  62  66  66  67  65  67  68  65  64  66  68  68  65  64
 66  65  65  65  63  64  65  61  60  60  61  65  69  73  79  84  86  93 102 108 112 117 118 116
120 126 123 122 121 114 109 103 103 101  97  93  89  87  84  81  83  78  80  74  74  75  64  65
 69  66  68  64  61  70  60  71  59  61  50  42  45  43  35  38  25  25  25  24  22  20  18  18
 15  18  20  19  18  20  24  27  31  36  39  38  38  40  43
 68  65  64  65  65  65  66  68  68  69  68  66  64  65  67  68  70  69  71  76  79  80  80  80
 85  82  79  80  81  80  79  79  80  80  81  82  82  81  80  80  78  77  79  79  76  75  78  80
 72  74  78  78  72  70  73  73  72  73  73  73  71  71  75  80  74  72  78  74  78  86  79  77
 76  66  73  78  84  78  85  86  81  87  91  92  88  83  86  94  85  93  94  79  89  83  88  89
 87  94  92  84  76  89  90  94  90  84  93  99  95  93  93  95  88  96 100  89  94  89  87  91
 88  81  99  91  80  91  81  72  35  21  24  27  41  97 134 114  64  36   8   0   0   0   0   0
  1   1   1   0   0   0   0   1   0   2   1   0   1  20  46  65  62  29   6   2   0   0   0   0
  0   0   0   0   0   1   1   2   0   0   0   0   0   0   0   1   1   0   0   0   1   1   0   0
  3   0   2  13  25  25  17  13  11   4   4   8  11  12  12  11  16  17  17  15  13  11   7   4
  6   3   0   0   0   0   0   0   5   4   3   2   3   4   5   6  18  18  19  21  23  26  29  31
 35  38  40  45  52  59  65  69  81  69  55  52  60  70  75  75  78  78  82  85  88  88  92  96
 97 101 103 103  98  93  90  90  88  83  78  76  74  71  68  66  52  56  60  59  53  50  46  46
 43  42  39  37  35  35  36  37  39  40  40  42  44  47  49  51  56  57  60  62  65  68  69  68
 72  68  65  66  66  66  67  68  68  67  64  63  65  69  65  61  61  62  63  65  63  59  59  61
 58  68  80  94 111 127 132 130 125 118 107  94  82  70  65  64  57  58  59  60  61  62  63  63
 62  63  63  64  64  64  65  65  63  64  65  64  63  62  62  62  62  62  64  62  63  61  61  62
 66  63  60  61  62  62  61  61  64  62  58  59  66  64  60  62  62  59  60  63  62  57  56  58
 56  53  52  52  53  53  61  69  76  85  94 102 106 109 112 114 114 113 110 105 100  91  79  69
 63  58  53  49  47  44  43  43  38  39  40  39  38  39  43  45  48  48  48  49  52  52  51  49
 51  51  50  49  49  51  54  57  56  57  58  60  61  61  63  65  63  63  64  63  61  56  52  50
 41  38  34  28  23  17  11   7   5   4   2   2   2   2   4
 70  67  66  66  67  66  64  64  69  65  67  72  72  70  73  78  84  82  83  86  87  85  83  82
 86  84  83  83  82  81  81  83  82  81  82  83  83  81  80  81  78  78  81  81  76  74  75  76
 74  70  72  75  72  70  71  73  75  72  71  73  75  74  71  69  71  78  73  76  77  76  80  74
 76  88  84  78  82  83  81  87  84  86  87  85  82  82  86  90  86  92  89  86  90  87  85  87
 89  92  99  89  88  84  85  86  79  91 100 100  88  84  95  95 104 107  93  84  91  93  92  82
 83  91  88  79  83  85  53  12   9  39  49  53  69  58  19   0   0   0   0   3   6   4   2   4
  2   3   2   0   0   3   2   0   0   0   6  26  45  47  26   4   4   0   0   4   4   4   3   0
  5   3   2   1   1   0   0   0   2   1   2   0   0   0   0   0   0   0   0   0   0   0   0   2
  2   4   9  17  22  18  11  10  10  12  11   9   6   5   2   1   0   0   0   0   0   2   6   7
 11  15  19  23  27  32  38  43  44  47  53  60  66  71  72  74  80  83  88  92  95  95  93  91
 95  98  99 100 100  98  90  82  82  87  90  90  87  83  83  84  76  69  63  59  56  52  48  46
 46  36  28  30  40  48  50  48  49  47  46  47  47  47  48  50  50  52  53  55  55  55  57  58
 62  63  63  65  67  69  71  72  69  69  69  69  69  69  69  69  66  66  65  63  62  62  63  63
 62  61  61  63  64  63  62  62  63  64  66  65  63  61  61  63  66  59  55  59  65  72  85 100
115 121 125 125 119 106  89  74  67  64  63  62  61  60  61  64  62  61  61  60  59  58  58  58
 59  59  59  61  61  60  60  60  57  58  58  58  57  58  58  58  57  58  58  58  56  54  53  52
 70  80  85  80  80  87  92  91  86  92  98  85  59  50  52  45  51  49  48  48  46  45  48  53
 52  65  77  84  91 100 104 101 106 104  99  91  84  77  70  66  57  53  46  42  46  52  57  58
 62  62  64  68  72  74  77  80  82  80  79  78  77  73  67  61  55  54  53  53  54  54  52  51
 52  53  54  55  54  54  54  55  56  55  54  54  53  52  53  56  57  57  57  57  57  58  58  58
 65  65  65  65  65  63  61  59  57  54  50  46  43  43  42
 72  70  70  72  75  75  74  74  78  74  75  80  81  79  80  84  86  84  81  81  81  81  80  80
 85  85  85  84  82  80  81  84  77  77  79  80  78  76  75  77  74  75  80  81  77  74  75  75
 75  69  70  75  72  69  71  76  75  74  75  77  77  74  72  71  68  75  73  77  75  70  75  72
 75  93  88  82  79  83  77  83  80  83  88  88  85  86  85  80  84  92  86  96  90  91  89  96
 97  86  85  78  87  89  88  84  89  93  87  92  84  74  92  95  90  95  81  86  90  92  93  77
 91  94  83  88  70  26  22  40  57  56  29   7   9   3   0   2   4   3   2   2   0   0   0   0
  0   0   1   3   0   0   0   5  10  27  40  32  11   0   0   4   0   0   0   0   0   0   4   3
  0   0   0   0   0   0   0   0   0   0   0   1   1   1   0   0   0   1   7   6   3   0   0   1
  0   0   0   0   0   0   0   5   6  12  16  20  28  33  41  54  56  64  76  88  99 105 107 106
110 112 113 112 110 109 110 112 110 109 108 106 106 107 107 108 101  96  86  77  71  69  69  70
 68  72  73  69  67  62  49  34  41  37  30  20  15  13  17  21  20  18  17  21  26  28  29  28
 32  31  34  44  57  65  66  63  61  62  62  63  63  62  62  65  66  64  61  61  62  64  63  63
 61  61  61  62  61  61  60  60  62  62  63  63  63  62  61  61  59  61  63  64  64  63  64  65
 63  63  63  64  64  63  63  65  66  61  60  65  68  66  64  63  62  78  95 108 118 125 123 116
110 101  87  73  65  61  61  62  57  57  57  58  58  58  57  59  56  56  55  55  54  55  53  54
 54  55  55  54  54  53  52  52  51  51  50  50  50  50  49  48  48  49  50  50  50  49  49  49
 45  65  89 101 100  96  96  99 101  96  97  99  80  46  33  45  41  42  43  43  43  46  51  55
 68  69  73  76  77  77  79  82  73  69  62  59  62  68  72  74  75  78  81  83  83  81  77  73
 77  76  74  71  66  62  61  62  63  60  58  60  65  67  65  63  59  58  57  58  59  60  60  60
 60  60  61  61  61  61  61  62  63  61  60  60  60  60  62  65  66  65  64  62  61  61  61  61
 62  64  65  66  66  65  63  62  66  66  67  68  68  66  64
 77  77  79  81  83  84  85  85  83  85  85  84  84  87  86  81  81  79  78  79  81  82  82  82
 80  81  83  83  81  80  80  81  79  79  80  82  81  78  78  80  70  71  75  78  75  75  75  74
 74  72  74  75  70  68  73  78  71  70  71  72  72  72  72  73  71  70  80  79  79  81  76  82
 78  79  83  88  79  80  81  83  90  90  90  85  82  85  87  81  83  88  80  93  87  90  92  95
 85  86  85  85  80  89  86  91  94  92  82  85  83  79  90  93  84  93  92 101  92  87  87  80
 84 104  75  43  36  41  47  35   4   1   1   3   0   0   3   0   0   0   0   0   0   2   2   2
  2   0   0   0   0   0  12  27  38  22   4   0   2   6   3   0   1   1   2   5   4   1   0   0
  5   5   4   3   1   0   0   1   5   3   0   0   0   0   2   4   1   5   8  11  14  21  31  38
 44  51  61  71  81  87  94 103 118 121 124 131 132 117 114 131 132 131 128 123 117 109 101  97
 88  84  80  77  75  72  69  66  70  67  63  60  59  61  64  67  55  53  50  49  50  53  56  58
 58  60  62  63  68  71  67  60  55  53  54  57  62  65  63  59  65  67  68  67  67  65  66  67
 65  67  66  65  61  58  56  55  59  59  60  61  61  60  58  59  59  57  57  58  60  61  60  58
 63  63  64  65  65  64  64  63  64  65  65  66  66  66  65  65  65  65  66  67  66  65  64  64
 65  65  65  63  61  61  62  65  61  62  62  60  58  64  80  95 111 118 117 105  95  90  77  61
 51  51  52  54  53  50  47  48  50  50  49  48  47  46  45  45  49  49  49  49  49  49  50  50
 49  49  50  51  51  49  47  47  50  49  48  48  48  48  46  44  45  45  44  43  42  40  39  39
 41  32  34  58  86  99  96  90  91  97  96 100 101  78  46  33  36  42  48  50  52  54  55  54
 59  59  64  71  73  69  68  72  71  70  70  70  71  68  61  55  57  57  56  55  55  56  58  59
 54  53  53  54  55  57  62  66  69  66  61  57  56  57  59  59  59  58  58  58  59  59  58  58
 56  58  58  60  58  58  55  55  54  52  51  51  51  51  52  53  59  60  62  63  64  64  64  63
 60  60  63  65  67  69  69  69  66  67  69  71  72  71  68
 83  84  85  84  82  82  84  85  83  85  85  84  86  88  87  81  77  78  80  82  84  85  83  81
 77  79  81  82  83  82  80  79  79  78  80  82  82  79  79  82  71  70  71  73  72  73  74  71
 73  73  73  71  67  69  73  73  76  71  68  70  76  77  75  72  83  78  83  79  77  78  73  79
 86  78  82  86  87  83  89  90  95  95  92  87  84  85  86  84  90  89  82  91  91  91  97  87
 92  89  83  82  84  98  91  85  82  94  96  84  80  88  90  86  82  89  91  91  81  85  82  81
 82  58  38  42  43  26   9   2   3   3   1   0   0   0   0   0   0   1   3   1   0   0   0   0
  0   1   0   0   9  22  25  20   4   5   6   5   1   0   4   8   0   1   0   0   0   0   0   0
  0   0   0   2   4   7  12  16  21  29  40  54  68  79  86  89  99 102 110 114 118 118 121 121
117 116 112 107 102  95  90  89  83  83  81  83  80  62  55  68  63  61  58  56  55  56  58  59
 62  60  58  58  60  61  61  62  64  64  66  68  70  72  72  73  73  73  73  75  77  76  76  75
 77  74  72  72  72  70  69  69  76  75  73  71  69  69  71  72  68  68  67  64  62  60  61  62
 62  59  55  52  52  51  50  49  47  46  49  54  58  59  59  58  57  59  59  61  63  64  63  63
 57  57  58  58  59  60  61  61  62  61  60  59  57  57  57  58  59  55  51  51  50  50  50  51
 45  49  54  55  53  49  47  45  48  56  68  83  97 107 109 106  88  77  63  55  48  43  44  49
 51  49  49  51  50  47  47  50  46  46  46  46  47  48  49  49  49  49  48  47  47  46  46  46
 45  46  46  46  45  45  44  43  44  43  42  41  41  41  40  39  40  40  39  38  39  40  40  40
 37  41  40  36  42  61  84  98  93  96 103 101  97 100  88  58  66  70  74  75  76  77  75  71
 69  71  68  61  58  61  63  59  59  56  54  54  57  58  58  58  52  53  55  56  54  52  50  49
 49  45  41  40  40  40  40  41  38  37  37  37  38  39  39  38  38  37  39  40  42  42  41  42
 36  39  41  44  43  40  35  33  36  35  32  32  29  27  25  26  15  17  16  16  13  11   7   5
 10   9   8   6   3   2   2   2   3   2   1   1   1   2   3
 84  85  85  82  81  82  83  84  87  85  85  88  88  85  83  82  81  80  79  78  78  80  80  78
 78  80  82  82  83  83  81  79  76  73  74  78  78  74  74  76  74  72  71  70  68  70  71  68
 74  72  70  68  67  71  72  67  72  69  68  71  73  72  69  67  72  75  68  72  75  76  86  86
 88  88  82  75  90  87  88  92  86  89  90  91  93  89  87  90  86  88  90  97  94  88 101  88
 84  89  96  82  83  87  93  93  87  95  97  84  80  86  83  83  87  90  89  83  87 100  89  76
 55  39  29  13   0   0   0   0   0   0   0   0   0   1   1   1   1   0   0   0   0   1   2   2
  0   2   3   3   8  12   7   0   1   0   0   0   0   0   2   2  12  20  19  13  19  30  39  44
 61  66  73  80  86  94 103 108 118 121 125 127 124 117 109 103  90  86  78  68  61  56  53  53
 49  48  46  46  51  54  55  57  53  56  55  56  61  65  68  74  69  69  71  74  75  75  75  76
 75  76  77  76  75  75  79  81  76  77  78  78  78  76  73  72  77  75  72  71  73  76  78  79
 75  74  74  77  77  73  73  75  71  73  74  74  72  71  70  70  71  66  58  52  50  50  49  46
 46  45  44  45  45  43  39  37  43  42  45  49  55  56  54  52  51  51  50  50  50  50  50  51
 53  53  52  51  50  50  50  50  54  53  52  51  49  49  49  50  51  49  49  52  53  52  51  51
 54  51  46  41  43  54  67  76  92 103 110 103  88  72  58  48  44  41  42  45  46  46  46  50
 49  47  46  46  45  44  45  47  46  46  45  44  45  46  46  45  47  46  45  44  43  43  43  43
 41  42  42  42  41  41  40  40  38  38  37  36  36  36  36  35  36  35  35  35  37  39  40  41
 35  38  39  35  31  35  49  61  74  67  66  72  73  70  72  74  68  68  65  62  61  62  60  56
 52  54  55  55  54  52  48  45  42  40  38  39  37  33  29  27  29  29  30  32  33  34  36  39
 37  36  36  39  41  41  42  41  45  40  38  37  40  38  36  31  35  34  32  28  25  21  17  15
 13  12  12  11  11  11  10   9   7   5   5   6   6   5   4   4   8   9  10  12  14  15  16  16
 16  17  17  18  20  22  25  26  31  30  30  31  35  39  42
 83  83  82  82  83  86  87  86  90  88  88  89  88  84  81  80  84  83  79  76  78  81  82  81
 81  83  83  81  80  80  81  80  81  77  76  79  79  75  73  74  74  73  73  71  68  70  73  72
 75  74  74  73  71  72  73  71  76  78  80  82  81  79  78  79  83  87  79  78  76  74  81  77
 85  90  82  76  86  87  84  88  87  87  82  86  94  90  88 101  84  82  85  97  93  84 100  88
 78  81  91  86  92  92  89  83  97  94  84  82  87  84  83  84  90  89  80  78  88  81  58  35
 20   2   1   4   4   3   0   3   1   0   2   3   0   1   4   0   4   1   0   0   2   2   0   0
  4   0   0   2   1   0   1   9  12  15  24  36  50  63  73  80  89 101 104  99  98  94  86  82
 77  74  69  62  54  48  44  43  42  42  42  43  45  48  49  50  50  52  56  60  64  66  68  69
 71  75  76  78  81  79  75  74  74  80  81  79  79  81  78  71  79  77  77  77  77  75  75  77
 76  77  78  77  76  76  78  80  77  77  76  76  77  78  79  79  76  75  75  77  79  80  79  78
 78  78  79  78  76  73  70  70  71  69  68  68  69  68  67  65  65  60  53  48  47  47  46  43
 42  44  44  42  41  41  43  45  42  40  41  43  44  44  43  43  42  42  42  42  43  45  46  48
 48  48  48  48  48  48  49  50  48  48  48  48  48  49  49  49  46  47  49  52  51  47  47  49
 37  47  62  76  88  99 105 107  87  76  60  48  43  43  43  41  44  48  47  43  42  45  47  45
 44  44  45  46  47  45  44  43  43  44  44  43  43  45  44  42  41  41  40  39  39  39  40  40
 39  39  38  38  38  38  38  38  39  39  39  39  39  39  40  41  40  39  39  39  39  38  37  36
 47  41  41  48  49  45  46  52  48  54  51  50  55  49  43  49  44  42  40  36  36  35  37  36
 40  32  29  30  32  29  32  38  50  45  40  40  41  44  46  49  43  40  39  38  36  32  30  29
 29  28  27  26  24  20  16  16  14  12   7   8   9  12  10  10   7   7   8   9  10  12  13  13
 19  17  14  13  14  15  16  17  20  19  20  23  25  26  26  27  26  26  25  25  24  25  25  25
 28  27  27  26  25  25  26  27  29  30  31  33  35  35  34
 83  82  81  81  85  89  89  86  85  89  89  85  84  86  83  77  75  77  78  80  83  84  81  77
 81  84  83  79  76  77  79  81  84  78  76  79  79  74  70  71  69  71  73  71  68  71  77  78
 76  77  82  83  75  71  76  81  72  70  70  74  78  79  77  76  76  77  85  78  77  84  79  81
 84  83  84  90  82  87  86  84  87  88  83  91 102  90  81  94 101  85  77  99 100  94 103  85
 79  84  88  89  83  88  84  90  89  95  81  84  93  91  94  87  91  88  75  80  88  55  32  12
  1   1   2   0   0   0   0   1   0   0   0   0   0   0   0   2   0   0   1   2   3   7  17  26
 32  38  45  53  61  66  70  71  80  79  81  86  89  89  88  89  83  81  74  71  74  70  66  71
 68  67  67  68  71  73  75  76  75  75  77  79  81  82  81  79  80  80  79  76  74  73  75  77
 75  78  78  76  78  78  78  81  77  76  78  79  79  81  81  78  78  78  80  83  83  81  80  80
 80  78  78  78  80  81  79  78  80  80  79  78  78  77  77  76  78  76  73  72  72  71  70  68
 66  67  66  63  63  65  64  62  56  57  58  57  56  54  52  52  48  50  49  46  44  44  44  44
 42  42  43  42  42  41  41  42  43  42  42  43  43  43  44  47  45  44  45  46  46  46  45  44
 47  48  48  48  47  47  47  47  46  47  47  48  48  47  47  46  48  47  46  46  44  45  52  61
 84  93 102 103  95  80  62  48  45  42  41  44  46  44  43  44  42  41  43  46  45  43  45  48
 47  46  45  43  43  44  44  43  42  43  43  42  42  42  40  38  42  41  40  39  38  38  38  38
 39  39  38  37  37  37  37  37  35  36  37  38  38  38  40  42  43  44  47  51  55  57  57  57
 52  55  57  54  51  48  47  46  38  37  39  35  27  29  37  37  34  35  37  38  39  40  41  43
 42  43  41  38  36  36  33  27  29  25  21  21  21  18  13  11  13  11   9  10  10   9   9  10
  6   7   8  11  12  12  15  18  19  21  22  21  20  19  21  21  25  24  22  22  21  23  23  25
 19  21  23  26  26  26  22  21  22  20  18  19  19  20  19  20  19  21  20  21  20  21  19  19
 19  19  19  19  18  17  17  18  17  17  17  17  18  19  19
 84  86  88  86  85  85  85  83  86  83  85  92  96  92  84  79  79  79  81  82  84  83  82  80
 78  83  84  80  76  78  80  82  80  75  74  72  74  71  66  70  71  73  72  68  69  74  76  73
 73  72  79  76  72  73  69  76  80  75  74  80  72  75  74  73  79  78  83  76  79  86  91  77
 91  89  83  84  81  90  85  74  82  89  88  88  88  86  89  91  87  84  83  89  82 103  94  82
 83  85  87  90  91  88  88  93  95  86  89  86  87  86  93  86  84  84  85  73  63  73  72  46
  6   3   1   1   0   0   0   0   0   1   4   9  13  18  27  35  47  56  67  76  78  79  84  90
 90  89  89  89  88  89  88  88  86  84  82  81  80  79  78  77  77  78  79  79  80  80  82  82
 81  80  79  78  78  79  80  81  79  79  79  80  81  80  79  77  78  79  80  80  80  78  77  76
 77  75  74  75  77  80  79  79  79  79  80  79  78  76  77  79  78  79  80  82  82  79  77  75
 76  75  75  74  74  72  72  72  72  71  70  69  68  66  65  65  61  61  59  58  57  56  56  56
 56  56  56  56  55  54  52  51  52  51  51  50  50  50  50  49  50  48  45  44  44  43  42  41
 42  43  42  41  39  39  39  40  41  40  40  40  41  42  43  44  44  44  44  44  46  47  46  44
 47  47  46  45  45  45  46  46  47  46  46  46  47  47  47  46  41  41  44  55  71  87  98 103
 96  80  60  48  42  39  40  42  47  46  44  43  42  42  43  43  43  42  43  43  44  44  43  42
 42  43  44  43  42  42  41  42  41  41  40  39  38  38  38  38  39  39  40  40  39  38  40  40
 40  40  40  40  39  39  39  40  42  45  48  51  52  55  59  62  56  55  52  49  46  43  41  38
 35  33  31  31  32  32  32  31  36  36  35  34  34  33  33  33  28  26  23  21  19  18  16  15
 12  11  11  10  10  10  10  11  12  12  13  13  14  15  17  19  22  22  21  21  21  22  25  27
 20  21  21  21  22  21  21  21  22  21  19  18  18  18  20  21  18  17  17  15  15  16  17  18
 15  15  15  15  15  15  15  15  12  12  12  12  12  12  12  12  11  11  11  11  11  11  11  11
 13  13  13  11  10   7   7   7   8  10  11  11  10   9   9
 84  84  84  83  83  84  84  82  88  84  83  86  88  84  80  78  79  79  82  83  84  83  81  80
 79  81  82  79  77  77  76  76  80  74  73  72  73  72  67  72  72  73  71  69  70  73  74  72
 76  73  69  61  63  72  75  75  77  75  75  81  73  75  75  74  69  82  83  78  87  89  86  85
 81  92  89  87  86  93  90  90  91  87  86  91  94  88  85  92  90  78  91 106  85  87  84  77
 84  79  82  91  94  88  86  90  93  89  91  95  91  93  94  87  77  73  68  53  73  19   1   5
 14  14  15  22  31  42  50  54  61  66  74  82  86  89  93  97  96  93  91  91  92  89  86  84
 85  85  85  84  85  85  84  84  85  83  82  80  80  79  78  77  80  80  80  80  79  80  80  82
 80  80  82  82  82  82  83  83  79  80  80  81  82  81  81  80  79  79  79  79  79  78  76  76
 72  74  77  80  80  80  80  80  76  78  78  77  78  78  74  69  72  69  65  62  62  62  63  64
 61  61  61  61  61  60  59  59  58  59  58  58  57  57  56  56  59  58  56  55  54  54  54  55
 56  56  56  56  55  54  52  51  51  51  50  50  49  49  49  49  51  50  47  46  45  44  43  42
 41  41  41  41  40  39  40  40  40  40  40  41  41  43  44  45  45  46  47  46  43  43  47  51
 47  47  46  46  46  45  44  42  40  47  53  50  42  41  48  56  63  75  91  99  95  80  62  50
 40  38  40  45  48  46  45  45  44  43  43  42  42  43  44  44  43  42  42  41  42  41  40  39
 43  43  42  41  39  38  38  39  38  38  38  38  39  39  39  40  39  39  38  36  34  36  38  40
 42  43  46  49  52  56  58  59  62  57  52  50  48  45  40  36  36  35  34  32  31  30  29  27
 27  25  23  22  21  20  17  15  12  12  12  11  11  11  11  12  16  15  14  14  16  18  19  20
 22  23  24  24  25  26  27  27  28  28  27  25  23  21  22  22  18  19  17  18  16  17  16  18
 20  20  20  20  19  18  17  16  18  16  15  13  13  12  13  13  13  11  10   8   6   5   5   5
  3   3   2   3   2   3   2   2   1   1   1   1   1   1   1   1   1   1   1   1   1   1   1   1
  2   2   3   1   1   1   1   1   1   1   1   1   1   1   1
 85  83  81  80  83  84  83  81  88  84  82  82  82  79  77  77  78  79  81  83  84  83  81  79
 79  78  78  79  78  75  73  72  77  73  74  73  72  71  68  71  71  70  70  70  71  72  72  72
 73  75  73  74  77  78  78  72  74  74  76  81  75  76  76  76  70  80  80  82  88  90  84  84
 84  97  90  86  91  98  92  95  85  91  99  89  83  85  87  98  91  86  96  91  74  78  83  78
 90  92  96  94  87  87  89  85  88  86  86  93  85  90  87  83  86  61  59  86  63  69  73  78
 86  88  92  96  97  97  95  94  96  95  95  95  92  87  85  85  90  87  85  85  85  85  84  85
 84  84  84  84  84  84  84  84  84  83  82  81  81  81  80  79  79  79  79  79  80  82  84  86
 87  88  88  89  89  88  88  87  88  87  86  86  85  84  84  83  84  84  84  83  82  81  81  80
 83  80  76  72  70  69  68  68  61  62  60  59  59  59  59  60  57  58  59  60  59  57  55  54
 56  56  56  57  57  56  56  57  56  56  56  56  56  56  56  58  57  56  54  53  53  53  54  54
 55  55  55  55  54  53  51  51  50  50  50  49  49  48  48  48  51  50  48  47  45  44  43  42
 39  40  40  40  40  40  40  40  38  38  39  39  41  42  44  45  44  42  43  47  49  47  45  44
 45  44  42  42  43  44  43  43  42  40  41  49  63  77  86  90  91  80  64  51  43  42  43  44
 46  44  43  43  41  38  38  40  45  45  44  43  42  42  42  42  45  44  41  40  40  40  39  40
 37  38  38  38  38  38  40  40  36  37  39  40  41  42  43  43  42  45  49  53  56  58  59  60
 60  58  54  48  44  39  35  33  20  21  21  20  19  17  16  15  11  11  10  10  10  10  10   9
 11  12  14  17  21  22  22  22  26  26  26  26  26  26  27  27  27  24  22  20  19  20  21  21
 16  16  17  17  18  18  18  19  17  17  17  16  15  16  16  18  20  20  20  20  18  16  15  14
 11  11  11  10   9   7   6   6   5   5   4   2   1   1   1   0   4   4   2   0   0   0   0   0
  0   0   0   0   0   0   0   0   0   0   0   0   0   0   0   0   0   0   0   0   0   0   0   0
  0   0   0   0   0   0   0   0   0   1   2   2   1   1   0
 86  84  81  81  83  84  83  81  84  83  83  83  82  79  78  79  79  80  81  81  82  81  80  79
 79  76  76  79  78  73  70  71  73  71  75  74  72  71  67  67  70  68  69  71  73  72  72  74
 74  73  69  76  76  69  74  76  72  73  76  79  78  79  77  76  81  82  86  93  83  89  89  86
 84  92  83  80  84  92  87  88  85  87  92  78  79  91  88  94  89  93  88  67  73  83  87  88
 89  90  94  89  79  84  92  88  91  88  87  89  84  86  85  83  82  86  94  82 100  92  97  93
 89  90  90  90  89  88  88  88  88  86  85  86  87  87  87  89  83  84  85  86  86  86  87  88
 84  84  84  84  84  84  84  84  83  83  83  83  83  83  83  83  84  84  83  84  85  86  87  88
 87  87  86  86  85  84  82  82  81  80  78  77  77  76  74  73  71  71  70  69  69  68  68  68
 63  62  61  63  65  64  60  57  67  55  47  50  56  57  55  56  55  56  56  57  56  56  56  56
 55  56  56  56  56  56  55  55  57  55  55  55  55  56  56  56  55  55  54  54  54  54  54  53
 54  54  54  53  53  52  51  50  49  49  49  49  48  48  47  47  48  47  46  45  43  42  42  41
 39  39  40  40  40  40  40  40  39  39  39  40  41  42  44  44  46  45  46  47  45  42  45  50
 44  45  45  45  44  44  43  43  52  62  78  89  90  79  63  51  45  41  37  37  41  43  43  41
 43  42  43  43  43  42  43  46  42  42  41  41  40  40  39  39  39  38  36  36  38  40  41  43
 39  40  40  41  42  43  45  46  48  48  46  45  43  41  40  39  43  43  40  37  31  25  18  15
 10  11   9  10  11  11  11  11  11  14  18  19  18  18  20  22  28  28  27  27  28  27  28  26
 30  29  28  27  25  23  20  18  14  14  14  14  14  14  15  14  19  18  16  15  14  14  15  15
 19  19  19  16  16  15  15  15  14  15  14  13  12  12  12  12   5   6   6   5   3   2   1   0
  2   2   1   1   0   0   0   0   0   0   0   0   0   0   0   0   0   0   0   1   1   1   1   1
  0   0   0   0   0   0   0   0   0   0   0   0   0   0   0   0   0   0   0   0   0   0   0   0
  2   4   3   3   1   0   0   1   0   1   1   1   1   1   1
 85  84  83  83  84  83  82  81  82  82  83  83  81  79  79  81  79  80  80  80  79  78  78  78
 77  75  76  78  76  71  70  74  70  67  72  71  69  71  69  67  71  69  69  72  74  72  72  73
 73  72  66  71  72  67  74  76  73  73  75  77  82  82  79  76  82  83  87  93  80  84  87  87
 79  84  85  87  82  90  91  90  87  80  85  81  83  88  83  93  85  80  79  75  90  87  86  96
100  84  82  89  86  84  89  89  91  88  89  85  87  85  87  85  86  92  87  88  84  91  87  91
 88  89  88  86  82  81  81  82  86  86  87  90  90  88  84  84  86  84  81  83  85  84  81  77
 82  82  82  82  82  82  82  82  82  82  81  82  82  81  81  81  82  82  81  81  81  79  78  77
 75  74  73  72  71  71  70  70  67  66  65  65  65  65  65  64  67  67  65  65  64  65  65  65
 63  62  61  60  61  61  60  59  51  52  53  53  53  53  54  55  56  56  56  56  57  57  56  56
 55  55  55  55  55  55  54  54  55  54  54  53  52  52  52  52  52  53  55  56  56  55  53  52
 51  51  51  51  51  50  50  50  49  49  48  48  48  47  46  46  45  44  43  42  41  41  40  40
 40  40  41  41  41  41  41  40  41  41  41  42  42  43  44  45  45  44  45  48  48  45  42  41
 49  47  44  43  47  58  71  81  82  77  67  53  42  38  41  46  39  43  46  47  45  43  43  44
 41  41  41  42  42  39  37  37  41  41  42  43  44  45  45  46  45  43  41  40  40  40  40  40
 39  37  34  30  27  23  21  19  14  13  12  11  10  10  10  10   8   8   8  10  13  17  21  23
 26  26  26  29  30  33  33  35  32  31  29  30  32  32  29  26  17  16  15  15  15  15  14  13
 16  15  15  15  16  16  16  15  19  19  18  18  18  18  18  17  16  16  15  16  14  15  14  14
 10   9   8   6   4   4   4   4   2   2   2   2   2   2   2   2   4   4   4   4   3   1   1   1
  0   0   0   0   0   0   0   0   0   0   0   1   2   2   2   1   0   0   0   1   0   0   0   0
  0   0   0   0   0   0   0   0   0   0   0   0   0   0   0   0   0   0   0   0   0   0   0   0
  2   2   3   1   1   0   0   0   0   0   0   0   0   0   0
 84  82  82  82  83  82  81  82  83  82  80  79  78  78  79  80  79  79  80  79  78  77  77  77
 75  74  76  77  75  71  72  76  69  64  69  68  66  73  73  69  72  70  70  72  73  72  71  72
 70  75  74  75  80  83  82  73  75  75  75  75  84  84  81  78  83  85  78  80  88  89  82  84
 82  82  86  95  91  96  93  87  83  86  93  88  87  88  83  91  79  66  80  89  91  84  86  89
 96  87  86  89  86  84  85  84  85  84  87  83  88  83  85  83  79  80  81  87  83  83  80  82
 80  82  85  85  84  84  83  83  79  80  82  84  84  82  80  79  78  78  78  77  77  80  81  81
 77  77  76  77  76  77  76  76  77  77  78  76  75  73  74  74  72  72  72  71  72  69  67  66
 67  66  65  64  65  66  67  67  65  64  64  63  64  64  64  64  61  61  61  60  60  60  61  61
 60  61  61  59  59  65  74  82 103 110 106  85  68  63  59  53  50  51  52  53  54  54  53  53
 56  56  56  56  56  55  55  55  56  55  54  53  52  51  51  51  51  52  54  55  55  53  52  50
 50  50  50  50  50  49  49  49  49  49  48  48  47  46  45  44  43  43  42  41  40  40  40  40
 40  40  40  41  41  41  41  41  41  42  42  42  42  42  44  44  42  42  42  43  44  44  42  40
 40  52  70  81  83  76  65  59  43  39  35  35  40  43  42  39  44  44  43  43  43  45  47  49
 48  46  44  44  44  44  43  42  39  37  34  30  26  22  20  18  14  12  11  10   9   8   7   6
  9   9  10  12  15  17  18  19  26  26  27  29  30  32  34  34  36  34  32  30  29  29  30  30
 23  23  22  22  23  23  24  22  20  20  19  19  19  19  18  17  17  17  16  16  16  16  16  15
 20  19  18  16  15  15  15  15  13  13  12  12  12  11  11  11   7   8   8   6   5   3   1   1
  3   2   1   0   0   0   1   2   0   0   0   0   2   3   4   4   0   0   0   0   0   0   0   1
  2   2   2   1   1   1   1   1   0   0   0   0   0   0   0   0   0   0   0   0   0   0   0   0
  0   0   0   0   0   0   0   0   0   0   0   0   0   0   0   0   0   0   0   0   0   0   0   0
  0   0   1   0   0   0   0   0   0   1   0   1   1   2   1
 83  80  79  80  82  82  82  83  84  82  78  77  79  80  80  79  78  79  81  81  79  77  76  75
 72  73  74  75  74  71  72  75  69  64  69  69  68  75  75  68  70  69  69  71  72  73  73  73
 74  76  76  71  75  85  84  78  76  77  77  74  85  84  83  81  96  91  81  78  92  93  87  84
 84  83  80  90  93  91  81  77  86  88  87  84  90  93  86  79  78  71  83  85  79  80  83  80
 74  81  84  80  78  81  83  81  80  82  82  81  83  80  78  78  78  76  79  80  75  78  80  77
 82  80  77  74  72  71  73  74  75  72  70  70  68  65  65  67  65  68  69  66  64  66  69  72
 70  70  71  70  71  69  70  70  70  70  70  70  67  67  66  66  66  66  66  68  68  68  67  65
 65  65  65  65  64  65  66  66  66  64  64  64  64  63  61  60  61  61  62  62  62  62  61  61
 58  61  63  62  59  58  58  60  64  77  92 103 111 112  96  76  68  64  58  52  49  50  52  54
 52  53  53  53  53  53  53  52  53  52  51  50  49  49  50  50  52  52  53  53  53  52  50  50
 49  49  49  49  49  49  49  49  48  48  48  47  46  45  44  43  41  41  41  40  38  38  38  38
 39  39  38  39  40  41  41  41  43  43  43  44  44  45  45  45  44  49  50  43  38  43  56  66
 83  77  66  55  47  43  42  43  44  46  48  48  47  45  44  45  43  41  38  38  37  33  27  23
 17  17  17  17  15  12   9   7  10  11  12  13  16  19  21  22  29  29  31  33  36  37  37  37
 39  38  37  38  39  39  39  39  33  34  34  33  32  30  28  27  31  29  28  28  27  26  24  22
 23  21  18  17  16  16  14  13  14  16  17  15  11  10  11  13  18  17  17  17  17  18  17  16
 13  12  11   9   8   8   9  10   3   3   3   2   2   2   2   2   0   0   0   1   0   0   0   0
  0   0   0   0   0   0   1   1   3   2   1   1   2   1   0   0   0   0   0   0   0   0   0   1
  1   0   0   0   0   0   0   0   1   1   0   1   0   1   0   0   0   0   0   0   0   1   1   1
  0   0   0   0   0   0   0   0   0   0   0   0   0   0   0   0   0   0   0   0   0   0   0   0
  0   0   1   1   0   0   1   2   1   0   0   0   1   1   1
 84  79  76  78  82  83  83  84  84  82  79  80  83  85  82  81  77  79  81  82  80  79  75  75
 72  73  74  75  74  72  72  72  69  64  72  73  71  77  74  63  66  67  68  69  72  74  75  75
 76  75  79  74  74  80  79  84  77  79  79  74  85  83  84  84 100  90  90  81  77  79  89  85
 85  90  85  90  92  84  73  82  82  82  80  85  85  76  77  82  81  80  81  77  77  77  73  77
 76  78  77  77  79  77  75  75  71  74  70  72  70  72  67  70  65  69  63  66  61  67  61  65
 62  62  63  65  65  65  63  63  62  60  61  62  61  60  62  64  63  63  61  62  64  67  66  62
 64  64  64  64  64  64  64  64  63  64  65  65  64  63  63  63  64  62  63  63  63  63  62  61
 62  62  62  63  63  61  62  62  62  62  63  64  63  63  62  61  61  61  62  61  62  61  60  60
 60  59  57  58  60  60  58  55  53  52  53  56  61  67  81  94 103  99  90  81  70  61  53  50
 50  50  51  51  52  52  52  52  53  53  52  51  51  52  51  51  53  54  52  52  51  51  50  50
 49  50  48  48  48  49  49  50  49  48  48  47  46  45  43  42  41  41  41  39  37  36  37  37
 39  39  38  39  40  43  42  43  45  46  46  47  48  48  49  49  52  50  49  54  67  79  76  67
 47  42  37  34  33  34  33  32  24  23  22  18  15  13  13  13  10  12  13  13  11  12  14  16
 23  24  26  28  32  36  40  42  47  46  43  41  39  38  37  37  36  36  37  37  36  34  31  30
 31  30  30  30  31  32  32  31  31  32  34  35  33  31  27  26  25  21  19  17  17  17  17  17
 20  18  15  14  15  15  15  14  16  14  12  11  12  13  11  10   8   7   6   6   6   6   6   5
  5   5   4   3   2   1   1   1   1   1   0   0   0   0   0   1   0   1   0   0   0   0   0   1
  0   0   1   2   2   1   0   0   0   0   0   1   1   2   1   1   0   0   0   1   0   0   0   0
  1   1   1   0   0   1   1   1   0   0   0   0   0   0   0   0   2   2   1   0   0   0   0   0
  0   0   0   0   0   0   0   0   0   0   0   0   0   0   0   0   0   0   0   0   0   0   0   0
  0   0   0   0   0   0   0   0   2   1   1   1   2   3   2
 78  80  79  76  79  83  83  78  82  81  82  82  80  76  76  78  74  80  79  74  74  74  75  75
 75  68  69  76  74  66  66  74  69  72  72  72  71  67  67  71  70  72  73  72  69  69  70  72
 75  79  80  75  75  80  83  79  78  83  83  77  77  83  80  71  76  84  85  81  82  90  89  81
 88  86  83  81  80  79  78  75  77  77  76  74  72  72  73  74  73  73  74  72  71  69  71  71
 67  70  71  69  68  69  69  68  65  65  64  64  65  65  64  63  66  63  63  63  65  63  62  62
 63  60  60  62  61  61  61  58  57  59  59  57  57  58  59  58  57  57  57  58  57  57  57  56
 57  57  57  56  56  56  56  56  57  56  55  55  54  54  54  55  56  57  56  56  56  56  57  56
 59  58  59  58  59  61  60  60  61  61  61  61  61  61  61  61  60  59  59  59  61  62  62  61
 60  60  60  58  57  58  58  59  59  59  59  57  54  52  51  52  56  63  73  80  83  79  67  54
 52  52  51  50  50  51  52  52  52  53  53  52  50  51  51  52  52  52  52  51  48  48  48  49
 49  50  49  47  48  51  50  46  46  46  45  44  43  45  48  49  44  44  44  45  46  47  49  50
 50  50  49  49  50  50  47  46  42  38  35  34  33  31  29  28  19  18  16  16  16  15  10   7
 10  11  12  13  14  16  19  21  25  27  30  34  36  37  38  37  42  41  42  41  42  43  45  46
 44  45  45  49  55  58  54  48  37  35  29  24  22  23  26  26  26  28  30  31  31  31  32  32
 31  32  32  31  30  31  31  30  31  28  21  18  14  16  17  18  17  16  14  14  15  15  14  13
 14  13  12  10   7   5   5   4   3   3   2   2   2   2   2   2   1   1   1   1   1   1   1   2
  1   1   1   1   0   0   0   0   0   0   0   0   0   0   0   0   1   0   0   0   0   0   0   0
  1   1   0   0   0   0   0   0   0   0   0   0   0   0   0   0   1   0   1   0   1   0   0   0
  1   1   0   0   0   1   1   2   0   0   1   1   1   1   0   0   0   0   0   0   0   0   0   0
  0   0   0   0   0   0   0   0   0   0   0   0   0   0   0   0   0   0   0   0   0   1   1   1
  0   0   0   0   1   1   1   1   1   1   1   1   1   1   1
 76  77  78  78  79  80  81  81  71  74  78  81  80  77  75  76  76  79  77  74  75  76  76  74
 70  72  72  71  71  70  69  67  76  74  69  69  72  71  69  71  74  74  74  73  72  71  70  72
 78  76  73  70  71  76  79  79  86  88  85  81  85  93  91  82  76  78  78  76  77  80  79  76
 72  71  71  71  72  72  71  70  72  72  72  72  71  70  70  71  70  71  72  72  70  68  66  65
 65  68  69  68  67  66  65  63  66  64  62  63  66  68  66  64  67  66  65  65  65  63  61  61
 64  63  62  61  59  60  63  60  59  61  61  58  57  58  59  58  59  59  59  59  58  58  57  57
 57  57  56  55  55  55  54  55  56  56  56  57  57  57  57  57  52  52  53  54  54  55  56  56
 58  57  56  56  55  55  54  54  59  59  59  58  57  57  56  57  57  56  56  56  57  57  58  57
 56  56  57  56  55  55  56  56  55  55  56  55  55  55  55  55  56  55  52  49  51  55  55  53
 52  51  51  50  49  49  49  50  49  49  48  48  49  49  48  47  49  49  50  50  49  50  51  52
 56  54  53  55  57  57  56  56  55  54  52  51  50  48  46  44  42  40  38  34  31  28  27  26
 21  19  17  16  14  13  11  11  12  12  12  14  18  21  22  22  29  28  29  31  35  38  39  38
 42  42  42  41  42  41  40  38  41  41  41  41  39  38  38  37  36  37  39  41  41  39  39  37
 39  41  45  49  53  53  50  46  32  31  30  29  29  30  29  27  30  30  31  31  31  30  30  31
 27  27  26  24  21  17  15  13  16  17  18  19  17  16  13  11  16  14  11  10   9   8   6   5
  2   2   2   2   1   2   2   2   2   2   2   1   1   1   0   0   0   0   0   0   0   0   0   0
  0   0   0   0   0   0   0   0   0   0   0   0   0   0   0   0   0   0   0   0   0   0   0   0
  1   1   0   0   0   0   0   0   0   0   0   0   0   0   0   0   0   0   0   0   0   0   0   0
  1   1   0   0   0   0   1   1   0   0   1   1   1   1   0   0   0   0   0   0   0   0   0   0
  0   0   0   0   0   0   0   0   0   0   0   0   0   0   0   0   0   0   0   0   0   0   0   0
  0   0   0   0   1   1   1   1   1   1   1   1   1   1   1
 77  79  80  82  79  77  78  82  75  78  83  85  83  80  78  79  77  77  76  74  76  77  72  68
 70  74  75  71  71  73  70  65  72  74  73  73  72  70  70  73  72  71  71  75  77  76  75  75
 83  81  81  84  85  83  79  76  66  71  73  71  71  75  78  78  74  72  72  75  75  73  72  73
 70  71  70  70  69  68  68  68  71  72  72  70  70  69  69  68  69  70  70  72  72  71  70  68
 72  72  71  70  69  70  72  72  72  70  68  68  68  67  66  65  66  67  68  67  66  66  65  65
 60  62  64  64  63  63  63  62  62  62  62  61  61  62  63  63  62  62  61  61  59  58  57  56
 59  59  59  59  59  60  60  60  58  58  58  58  57  56  55  55  54  54  54  53  52  52  51  51
 52  52  52  52  52  52  53  53  51  51  52  51  50  49  50  51  53  53  53  53  52  52  53  53
 55  56  56  56  55  55  55  55  56  55  54  53  53  52  51  50  50  51  52  51  52  55  54  52
 51  52  52  53  55  56  57  58  59  58  57  57  60  61  60  59  58  57  55  53  50  48  47  46
 41  37  34  35  33  28  25  25  22  20  19  19  18  16  14  10  15  15  15  15  16  17  18  19
 24  24  22  23  26  27  30  36  36  42  48  48  46  44  42  40  36  36  35  35  37  38  39  39
 35  34  35  37  39  38  36  34  33  33  33  33  35  36  37  38  36  35  35  35  38  41  44  46
 50  50  47  41  34  29  27  24  30  29  29  29  30  31  29  26  25  25  25  24  22  20  20  20
 14  12  12  14  15  13  15  17  10  11  11  10   9   7   6   5   6   5   4   3   5   5   4   3
  0   0   0   0   0   0   0   0   1   1   1   0   0   1   0   0   0   0   0   0   0   0   0   0
  0   0   0   0   0   0   0   0   0   0   0   0   0   0   0   0   0   0   0   0   0   0   0   1
  1   1   0   0   0   0   0   0   0   0   0   0   0   0   0   0   1   0   0   0   0   0   0   0
  1   1   0   0   0   0   1   1   0   0   1   1   1   1   0   0   0   0   0   0   0   0   0   0
  0   0   0   0   0   0   0   0   0   0   0   0   1   1   1   1   1   1   0   0   0   0   0   0
  0   0   0   0   0   1   1   1   1   1   1   1   1   1   1
 80  82  85  84  80  77  77  80  80  82  83  82  79  76  76  77  75  74  75  76  77  78  75  69
 75  71  70  72  71  68  65  66  67  70  71  70  70  71  73  79  74  73  74  79  81  77  72  70
 66  58  48  42  41  45  50  54  60  66  71  71  68  68  70  73  71  70  71  75  75  72  70  70
 74  75  76  74  72  69  69  70  68  67  66  66  67  67  67  65  65  63  61  59  59  59  56  56
 60  59  58  56  54  54  53  52  51  53  54  52  48  45  45  47  55  58  61  60  60  61  62  61
 61  62  62  62  63  61  61  63  62  62  61  61  61  62  63  63  59  60  60  61  61  62  62  62
 61  61  61  61  61  61  61  61  63  64  64  63  62  61  60  59  56  56  57  57  58  59  59  60
 58  58  57  56  54  53  52  52  56  55  54  53  51  51  50  50  49  49  50  49  48  47  48  49
 47  48  49  52  52  53  53  55  58  59  58  60  61  64  62  62  63  65  65  63  62  62  60  59
 60  58  55  52  48  44  41  40  34  32  28  25  25  23  21  20  18  16  15  14  14  14  13  12
 16  14  16  21  24  24  24  24  30  27  24  25  26  24  23  24  20  19  18  16  14  12  11  10
  6   6   3   3   4   4  12  26  25  37  45  42  33  29  28  27  32  33  34  35  36  35  35  35
 38  37  34  34  34  35  34  32  36  37  37  37  38  37  37  37  42  44  46  47  46  43  39  36
 30  30  29  28  27  28  32  33  28  27  24  22  23  25  23  20  20  19  17  15  13  12  12  12
 18  14  13  14  10   4   1   3   6   5   3   1   0   0   1   2   0   0   0   1   2   3   4   4
  3   2   1   0   0   0   0   0   1   1   0   0   0   0   0   0   0   0   0   0   0   0   0   0
  0   0   0   0   0   0   0   0   0   0   0   0   0   0   0   0   0   0   0   0   0   0   1   1
  1   1   0   0   0   0   0   0   0   0   0   0   0   0   0   1   1   1   1   0   0   0   0   0
  1   1   0   0   0   0   0   0   0   0   0   1   1   0   0   0   0   0   0   0   0   0   0   0
  0   0   0   0   0   0   0   0   0   0   1   1   1   1   1   1   1   1   1   1   0   0   0   0
  1   1   0   0   0   0   1   1   1   1   1   1   1   0   0
 79  82  85  82  79  80  80  79  83  84  82  79  76  74  74  74  76  75  77  77  75  75  74  68
 72  66  65  71  72  67  65  69  72  74  75  78  83  82  78  75  70  60  48  40  32  27  23  24
 28  37  47  56  66  75  80  80  77  76  75  77  78  77  74  72  71  71  71  71  71  70  69  68
 57  58  60  58  58  55  55  55  53  50  47  45  43  41  40  39  39  38  36  35  36  35  36  34
 28  28  31  33  34  33  30  27  29  28  28  29  28  27  29  32  33  35  38  38  37  37  36  36
 34  34  31  33  40  42  49  59  65  64  63  63  62  62  62  62  64  64  64  63  63  62  62  61
 64  64  63  63  63  62  62  62  60  61  61  62  62  62  62  62  60  60  60  59  59  58  58  58
 58  58  58  57  55  53  53  53  52  50  49  51  53  55  55  54  56  57  57  57  55  55  56  57
 55  57  56  57  54  54  52  53  47  46  42  41  38  37  33  31  30  30  27  23  19  16  15  14
 10  11  13  14  16  18  20  21  26  27  28  29  32  35  39  42  47  46  45  46  48  50  50  48
 54  55  55  53  52  50  44  39   8   8   6   6   5   2   3   4   1   1   1   1   1   2   2   2
  3   5   2   1   1   1  11  34  38  45  47  40  32  31  34  35  31  33  37  38  37  37  37  37
 36  36  35  35  34  35  35  36  35  38  42  45  47  48  48  48  42  38  32  27  25  25  26  27
 27  28  26  26  24  22  20  19  19  18  16  14  15  16  15  13  12  11  10   9   7   7   5   5
  0   1   6  12  13   7   3   3   0   0   0   0   0   0   0   0   1   1   0   0   0   0   1   0
  0   0   0   0   1   1   2   2   1   1   0   0   0   1   0   0   0   0   0   0   0   0   0   0
  0   0   0   0   0   0   0   0   0   0   0   0   0   0   1   1   1   0   0   0   0   1   1   1
  0   0   0   0   0   0   0   0   0   0   0   0   0   1   1   1   2   1   1   1   1   0   0   0
  1   1   0   0   0   0   0   0   0   0   0   0   0   0   0   0   0   0   0   0   0   0   0   0
  0   0   0   0   0   0   0   0   1   1   1   1   1   1   1   1   1   1   1   1   0   0   0   0
  1   1   0   0   0   0   1   1   1   1   1   1   0   0   0
 74  79  81  78  79  83  83  80  84  83  82  80  78  76  74  72  70  69  74  77  73  74  76  72
 72  73  72  73  73  72  70  69  61  57  47  35  27  18  11   7   9  11  16  26  39  55  68  75
 77  82  83  81  78  76  72  67  69  67  64  63  62  60  58  57  53  53  50  46  45  47  48  46
 41  42  42  42  41  39  39  38  39  37  35  33  31  30  31  30  32  33  33  34  35  34  33  32
 32  32  33  36  39  39  39  38  37  33  30  33  36  37  37  38  35  35  38  39  38  36  34  35
 37  46  50  52  60  63  67  76  63  62  62  63  64  63  62  63  60  60  60  60  60  60  59  59
 58  58  59  59  60  60  60  60  62  62  62  62  62  62  62  61  63  63  64  66  67  69  70  71
 68  69  69  68  66  64  64  65  68  64  60  56  54  51  47  44  47  45  42  37  32  28  25  23
 18  19  19  18  16  15  14  14  19  19  19  21  22  24  24  24  26  29  34  38  42  44  45  46
 48  48  49  50  52  54  55  56  58  58  58  57  55  55  57  59  53  52  50  48  48  47  46  44
 43  45  44  42  42  42  37  30   5   3   4   5   3   1   1   1   3   2   1   1   1   1   1   1
  1   3   1   2   4   4  20  49  48  48  45  41  39  40  38  37  38  39  39  38  36  35  37  37
 35  38  40  41  41  41  41  42  41  42  42  40  37  32  28  26  23  23  22  22  22  22  18  17
 17  15  14  13  15  12  11   9   9  10  10   9   9   9   8   6   4   3   2   1   2   1   1   0
  1   1   1   5   4   2   0   0   0   1   1   2   2   2   1   1   1   2   1   1   0   0   1   1
  0   0   0   0   1   1   1   1   1   1   1   0   0   0   0   0   0   0   0   0   0   1   1   1
  0   0   0   0   0   0   0   0   0   0   0   0   0   0   1   1   1   1   1   1   1   1   1   1
  0   0   0   0   0   0   0   0   0   0   0   1   1   1   1   1   2   2   1   1   1   1   0   0
  1   1   1   0   0   0   0   0   0   0   0   0   0   0   0   0   0   0   0   0   0   0   0   0
  0   0   0   0   0   0   0   0   0   1   1   1   1   1   1   1   2   1   1   1   1   0   0   0
  1   1   0   0   0   0   1   1   1   1   1   0   0   0   0
 77  80  82  80  79  81  81  80  77  78  77  77  77  77  75  72  80  76  80  83  77  76  77  71
 62  60  52  39  29  20  13   7   1   2   2   2  10  23  37  49  67  75  81  84  83  81  76  70
 66  66  63  60  57  56  54  52  50  51  51  47  43  40  41  43  44  44  42  39  38  39  38  36
 38  37  36  35  34  33  31  30  29  30  31  33  34  36  38  40  40  40  39  36  32  29  26  25
 29  25  21  21  22  21  20  20  17  15  16  19  21  17  14  14  10   8  10  17  21  19  18  20
 34  60  74  72  75  74  71  71  68  68  67  69  70  69  67  67  69  70  71  72  73  74  75  75
 76  76  76  75  75  74  73  73  70  69  68  66  65  65  64  64  55  53  51  48  45  42  39  38
 29  30  30  28  24  22  21  22  18  19  19  20  21  22  22  23  25  26  27  30  34  37  39  41
 44  46  48  49  51  53  56  57  58  58  59  59  59  59  60  60  59  56  53  51  49  48  48  48
 44  43  42  42  42  43  44  45  47  48  49  49  49  48  48  48  47  47  47  46  45  44  44  45
 47  47  46  46  47  47  45  42   6   4   4   6   6   3   2   3   3   3   3   3   4   4   4   4
  2   5   2   2   3   2  14  44  39  38  39  39  42  41  39  36  39  38  38  38  39  39  40  41
 40  39  38  37  35  32  29  27  26  27  27  25  21  19  18  18  17  13   9   7   7   8   8   8
 10   8   7   8   9   9   9  11   4   6   7   5   3   3   1   0   4   3   2   2   2   2   1   1
  3   1   0   0   0   0   1   3   4   3   2   0   0   0   1   0   1   1   1   1   1   2   3   3
  2   2   2   1   1   0   0   0   1   1   1   0   0   0   0   0   0   0   0   0   1   1   1   2
  0   0   0   0   0   0   0   1   0   0   0   0   0   0   0   0   1   0   0   0   0   0   0   0
  0   0   0   0   0   0   0   0   0   0   0   1   1   1   1   1   1   1   1   1   0   0   0   0
  1   1   1   1   1   0   0   0   0   0   0   0   0   0   0   0   0   0   0   0   0   0   0   0
  0   0   0   0   0   0   0   0   0   0   0   1   1   1   1   1   1   1   1   1   1   0   0   0
  1   0   0   0   0   1   1   2   1   1   1   0   0   0   0
 83  83  83  82  79  76  77  80  75  77  77  79  83  87  87  84  78  68  63  55  38  25  17   5
  2   2   2   2   4  10  17  22  33  43  53  65  78  82  78  74  70  73  70  61  56  57  58  57
 52  48  47  50  51  48  45  45  45  45  45  43  42  41  39  35  33  32  33  34  34  32  29  28
 26  25  23  23  23  22  21  19  16  17  17  16  12  10  10  10  10  11  10   7   5   3   4   5
  2   1   3   9  12  10   5   3   2   4  13  17  13   4   2   2   8   6  10  22  30  31  32  37
 25  65  87  85  89  94  92  88  92  91  89  90  89  85  82  81  75  74  71  66  61  57  53  51
 46  45  42  38  34  30  26  24  23  22  21  19  19  19  19  20  22  22  24  26  29  31  33  34
 39  41  45  47  49  51  54  56  60  62  64  64  63  63  65  67  68  66  64  62  62  61  59  58
 58  59  57  56  54  54  53  55  51  53  53  53  51  51  51  52  52  51  51  51  52  50  49  47
 45  44  43  43  43  44  46  47  46  47  48  50  51  50  47  45  47  47  47  46  44  43  43  44
 47  43  43  46  47  46  46  48  14   9   5   6   6   4   4   4   3   3   3   3   3   3   3   3
  3   6   3   3   7   3  13  41  42  41  40  40  38  37  38  42  38  39  39  39  39  38  36  36
 36  33  29  27  26  24  21  20  17  16  15  12   9   9  11  13  13  13  13  15  18  19  18  17
 19  19  19  21  17  11   6   4   3   4   5   3   2   1   1   1   2   2   1   1   1   1   1   0
  0   0   1   1   1   1   1   0   0   0   0   1   1   1   1   0   1   1   1   1   1   1   1   2
  1   1   1   1   1   1   1   1   1   1   1   0   0   0   0   0   0   0   0   1   1   2   2   2
  0   0   0   0   0   0   1   1   0   0   0   0   0   0   0   0   1   1   0   0   0   0   0   0
  0   0   0   0   0   0   0   0   0   0   0   1   1   1   1   1   1   1   0   0   0   0   0   0
  2   1   1   1   1   0   0   0   0   0   0   0   0   0   0   0   0   0   0   0   0   0   0   0
  0   0   0   0   0   0   0   0   0   0   0   0   1   1   1   1   1   1   1   1   1   1   1   0
  0   0   0   0   0   1   1   2   1   1   1   0   0   0   0
 80  82  83  81  79  79  81  82  83  86  85  76  65  53  37  23  11   4   1   1   2   3  12  23
 31  40  51  63  69  73  76  77  78  75  72  69  66  61  56  52  53  51  49  48  48  48  48  47
 45  42  40  40  41  39  37  36  35  34  32  31  29  26  22  18  16  14  12  12  12  13  14  15
 12  10   6   2   1   2   3   2   2   3   5   7   9  10  12  14  16  15  15  16  19  25  31  34
 37  38  40  42  44  47  51  53  59  62  66  71  73  73  75  77  77  78  80  84  91  94  90  83
 86  69  62  60  50  40  39  39  33  30  26  27  26  23  20  19  20  21  22  23  26  31  32  30
 40  41  41  40  42  47  50  51  56  57  58  60  63  63  62  61  65  65  65  66  66  65  64  63
 65  66  67  69  67  64  63  64  64  64  63  62  60  59  57  56  55  55  56  58  56  53  52  53
 54  54  53  53  53  52  51  50  49  49  49  50  51  51  51  50  51  52  52  52  52  51  50  49
 45  47  46  43  41  41  42  42  44  44  45  46  49  50  50  49  49  49  49  47  46  52  52  45
 43  46  47  45  44  45  46  45  17   8   8   8  11   4  10   4   4   5   4   7   7   7   5   4
  3   7   3   7   6   4  27  43  39  41  41  42  41  41  41  44  38  37  34  31  29  26  24  23
 22  21  19  17  17  18  19  19  16  16  17  19  22  23  23  23  22  21  18  17  18  16  16  14
 13  10   9   6   5   3   4   3   3   2   1   1   0   1   1   1   2   1   1   1   1   1   1   0
  1   1   1   1   1   1   1   1   1   1   1   2   2   1   1   1   1   1   1   1   1   2   2   3
  1   1   1   1   0   0   0   0   1   1   0   0   0   0   0   0   0   0   0   0   0   1   1   1
  1   0   0   0   0   0   0   1   0   0   0   0   0   0   0   0   1   1   1   0   0   0   0   0
  0   0   1   1   1   0   0   0   0   0   0   0   0   0   0   0   0   0   0   0   0   0   0   0
  1   1   1   1   1   1   1   1   0   0   0   0   0   0   0   0   0   0   0   0   0   0   0   0
  0   0   0   0   0   0   0   0   0   0   0   0   0   1   1   1   1   1   0   0   0   0   0   0
  1   0   0   0   0   1   1   1   1   1   1   1   0   0   0
 79  81  86  91  90  84  75  68  52  41  22   6   2   3   4   3  19  26  37  49  57  62  64  65
 72  73  75  74  73  71  69  68  57  54  51  50  50  50  50  50  48  46  43  41  40  39  39  39
 33  30  27  25  24  21  18  16  16  13   9   6   4   3   3   3   4   4   7  14  20  22  24  25
 28  26  22  18  18  22  27  28  34  41  49  53  54  55  60  65  62  63  64  64  63  60  57  55
 55  55  54  52  49  46  44  43  43  42  41  40  38  34  33  33  31  29  24  20  20  20  17  13
  6  11  21  36  36  51  54  49  51  56  60  63  64  64  68  73  72  73  73  73  73  75  75  75
 68  71  73  72  72  71  68  65  63  62  61  62  64  64  62  61  59  59  59  58  58  58  58  58
 60  60  61  63  62  61  61  62  64  63  61  60  59  59  60  60  57  57  58  58  57  55  54  55
 53  53  52  53  53  53  52  51  52  51  51  51  51  51  50  49  51  52  52  52  52  51  50  50
 49  49  47  45  43  43  43  43  44  44  44  43  42  43  45  46  47  47  47  46  46  52  54  52
 44  46  45  46  47  45  49  48  21  10  11  11   7  10   4   5   2   3   8   9   8   6   5   5
  4  10   5   8   8  13  36  42  42  41  40  37  36  35  34  33  27  24  22  21  20  20  19  18
 17  16  16  16  16  18  19  19  20  18  15  13  12  10   9   8   5   5   4   4   4   4   3   2
  3   3   3   3   3   4   5   5   2   1   1   1   0   0   0   0   1   1   1   1   2   1   1   0
  1   1   1   1   1   1   1   1   1   1   1   1   1   1   1   1   1   1   1   1   2   2   2   3
  1   1   1   1   0   0   0   0   1   1   1   1   1   0   0   0   0   0   0   0   0   0   1   1
  1   1   0   0   0   0   1   1   0   0   0   0   0   1   1   1   2   1   0   0   0   0   1   1
  0   0   0   0   0   0   0   0   0   0   0   0   0   0   0   0   0   0   0   0   0   0   0   0
  1   1   1   1   1   1   1   1   0   0   0   0   0   0   0   0   0   0   0   0   0   0   0   0
  0   0   0   0   0   0   0   0   0   0   0   0   0   0   1   1   1   1   1   0   0   0   0   0
  1   0   0   0   0   1   1   1   1   1   1   1   0   0   0
 96  85  69  52  34  16   4   2   2   2   8  21  36  49  58  61  61  64  65  63  65  68  70  70
 67  65  61  58  56  53  51  49  52  51  49  48  47  45  42  40  43  39  33  26  20  15  12  12
  7   6   6   9  11  11  10  11  13  17  22  27  30  32  33  33  43  43  46  52  54  49  44  41
 49  48  44  39  35  33  32  31  29  28  28  25  22  17  13  11  14  13  10   8   7   8   9   9
  9  10  12  13  14  15  16  16  20  18  17  19  20  20  21  23  21  21  20  19  18  18  17  16
 16  15  37  82  79  79  70  72  73  74  74  73  72  71  70  68  68  68  70  70  67  66  66  68
 66  65  63  60  59  60  60  60  64  63  61  61  61  62  61  60  63  62  61  60  60  60  61  62
 63  62  62  63  64  63  63  63  57  57  58  58  58  57  57  56  55  55  55  56  56  55  55  56
 57  56  56  57  57  57  56  55  54  53  53  53  54  55  55  55  49  50  50  50  49  49  48  47
 47  46  46  47  47  46  45  45  43  43  43  41  40  41  43  46  42  43  46  46  44  47  47  46
 51  53  44  45  45  42  46  43  35  16  32  31  12  10   7   8   5   6   8   7   4   4   4   4
  6   6   4  10  13  19  37  40  32  30  30  31  33  30  25  20  19  18  16  14  14  14  14  13
 15  16  16  17  17  16  16  15   7   7   5   5   5   5   5   5   3   2   2   3   3   3   3   2
  1   1   1   2   2   3   3   3   1   0   0   0   2   2   1   0   2   2   2   2   1   1   2   1
  1   2   1   1   1   0   0   0   0   0   0   0   0   0   0   0   1   1   2   2   2   2   2   2
  1   1   1   1   0   0   0   0   1   1   1   1   1   1   0   0   0   0   0   0   0   0   0   0
  1   1   1   1   1   1   1   1   1   1   1   1   1   1   1   1   1   2   3   3   3   2   1   1
  1   1   0   0   0   0   0   0   1   1   0   0   0   0   0   0   0   0   0   0   0   0   0   0
  0   0   0   0   0   0   0   0   0   0   0   0   0   0   0   0   0   0   0   0   0   0   0   0
  0   0   0   0   0   0   0   0   0   0   0   0   0   0   0   1   1   1   1   1   1   0   0   0
  0   0   0   0   0   1   1   1   1   1   1   0   0   0   0
  5   2   2   2   4  14  30  46  65  64  63  60  56  52  52  55  57  60  63  63  62  61  58  54
 52  51  49  47  46  44  42  40  39  39  39  38  36  33  30  27  30  30  30  29  30  31  33  35
 39  38  38  40  41  40  39  39  37  37  34  29  23  20  19  19  15  11   9   9   8   5   5   7
  1   4   7   9  10  12  13  13  16  15  14  16  19  22  21  19  26  26  27  28  30  32  34  35
 40  38  36  32  29  28  28  28  31  27  23  20  19  16  15  14   4   4   6   7   8   8   8   9
  7   4  25  66  68  73  69  70  70  70  69  68  68  71  69  66  70  69  70  70  67  64  63  65
 65  66  67  68  68  66  65  63  62  61  59  58  60  61  62  62  63  63  63  62  62  62  62  63
 63  62  61  63  63  62  61  61  58  58  58  57  57  56  56  57  56  56  55  55  55  55  55  56
 56  55  55  55  56  56  55  54  54  53  53  54  55  56  57  58  53  53  53  53  52  51  51  50
 47  47  49  52  52  50  48  48  48  46  45  44  43  41  41  42  41  38  39  41  39  38  38  35
 37  46  43  47  48  46  46  36  39  27  70  46   7   8   8   8  10   9   8   8   7   7   6   5
  7   3   8  26  30  28  38  40  37  32  27  26  25  23  21  19  20  19  17  15  16  17  17  18
 22  22  20  20  17  15  12   9   8   8   8   9  10   9   7   6   4   3   4   5   5   5   4   4
  4   5   5   5   4   4   3   3   1   1   1   2   3   3   2   1   1   1   1   2   1   1   2   1
  1   1   1   1   1   1   1   1   0   0   0   0   0   0   0   0   1   1   2   2   3   2   2   2
  1   1   1   1   0   0   0   0   1   1   1   1   1   1   0   0   0   0   0   0   0   0   0   0
  1   1   1   1   1   1   1   1   1   1   1   1   1   1   1   1   1   1   2   3   2   1   1   2
  2   1   0   0   0   0   0   1   1   1   1   1   0   0   0   0   0   0   0   0   0   0   0   0
  0   0   0   0   0   0   0   0   0   0   0   0   0   0   0   0   0   0   0   0   0   0   0   0
  0   0   0   0   0   0   0   0   0   0   0   0   0   0   0   0   1   1   1   1   1   1   1   1
  0   0   0   0   0   1   1   1   1   1   0   0   0   0   0
 14  26  46  64  69  64  60  61  50  47  48  56  62  62  57  54  57  55  53  55  55  53  50  50
 52  52  53  52  49  48  49  49  49  47  43  40  38  38  37  37  31  30  28  24  20  16  14  13
 11   9   8   8   5   3   3   3   2   3   5   5   6   7  11  14  15  16  18  20  20  18  18  20
 24  25  26  26  28  31  34  35  29  29  30  29  28  28  31  33  32  31  30  29  29  29  31  32
 33  32  30  28  26  26  26  28  23  20  18  18  18  17  17  17  14  10   7   7   7   7   8  10
  8   9  31  54  55  57  59  58  57  61  63  60  57  59  63  64  61  59  57  57  55  53  50  49
 52  52  52  52  51  49  48  47  47  46  44  44  47  50  51  51  47  48  49  49  48  47  47  48
 49  48  49  51  52  51  49  48  47  46  43  41  40  41  45  48  57  57  56  55  55  55  55  54
 55  55  55  56  56  57  56  56  56  56  55  55  54  55  55  56  53  53  52  52  51  50  49  49
 51  51  51  51  50  48  47  48  49  46  45  47  48  47  45  44  38  27  21  18  14  11   9   8
 12  35  45  48  45  43  39  25  11  28  46  84  43  12  12  12   4   6   9   8   6   4   4   4
 13  11  26  47  48  43  45  42  34  30  25  21  19  19  18  18  17  16  15  15  17  19  21  22
 22  20  19  16  13  11  10   9   9   9  11  11  11  10   8   6   3   3   3   3   4   3   3   2
  2   3   3   4   4   4   3   3   2   1   1   2   3   3   2   1   1   1   1   2   1   1   1   1
  1   1   1   1   1   1   1   1   0   0   0   0   0   0   0   0   1   1   2   2   2   2   1   1
  0   0   0   0   0   0   0   0   1   1   1   1   1   1   0   0   0   0   0   0   0   0   0   0
  1   1   1   1   1   1   1   1   1   1   1   1   1   1   1   1   4   2   1   1   0   0   2   5
  3   2   1   1   0   0   0   1   1   1   1   1   0   0   0   0   0   0   0   0   0   0   0   0
  0   0   0   0   0   0   0   0   0   0   0   0   0   0   0   0   1   1   0   0   0   0   0   0
  0   0   0   1   1   0   0   0   0   0   0   0   0   0   0   0   1   1   1   1   1   1   1   1
  0   0   0   1   1   1   1   1   0   0   0   0   0   0   0
 69  61  52  47  44  44  47  52  62  68  73  69  57  48  51  59  63  60  59  60  60  54  49  46
 41  40  36  31  25  21  20  20  11   9   7   5   3   3   3   3   3   4   6   9  13  15  16  16
 19  19  20  23  23  23  23  24  24  25  25  23  17  12   9   7   7  11  15  16  14  11   9   6
  4   6   9  12  17  23  25  25  22  23  25  25  27  26  27  26  32  29  25  21  20  23  25  27
 25  26  26  24  23  21  21  21  22  19  17  17  15  13  12  13  17  12  10  10  10   7   6   8
  6  12  32  44  42  39  41  40  45  45  43  39  36  34  33  33  34  33  32  32  32  33  31  28
 33  30  27  25  24  24  26  28  28  26  25  25  28  29  30  30  28  29  31  31  30  29  29  29
 30  30  32  35  37  36  34  34  40  42  43  43  42  41  43  43  42  42  43  43  44  46  47  46
 47  47  48  49  50  51  51  51  53  54  54  54  54  55  56  57  55  55  55  55  54  54  54  53
 53  54  52  50  50  51  52  52  52  49  47  47  46  44  46  49  31  19  14  21  24  23  23  22
 17  37  51  48  46  53  52  47  50  48  15  61  70  20  20  22  17  21  24  23  19  22  30  38
 42  43  51  56  53  54  55  49  57  47  33  19  11  11  16  19  10  10   9   8  10  12  14  15
 12  12  11  10   9   8   9  10   7   7   7   8   9  10  11   9   7   6   5   5   4   4   4   3
  1   2   2   3   3   3   3   3   2   1   1   1   3   2   2   1   1   1   1   2   1   1   1   1
  1   1   1   1   1   1   1   1   1   1   1   1   1   0   0   0   1   1   1   2   2   1   1   1
  0   0   0   0   0   0   0   0   0   0   1   1   1   1   0   0   0   0   0   0   0   0   0   0
  1   1   1   1   1   1   1   1   1   1   1   1   1   1   1   1   3   4   6   8   7   4   4   5
  3   3   2   2   0   0   0   0   1   1   0   0   0   0   0   0   0   0   0   0   0   0   0   0
  0   0   0   0   0   0   0   0   0   0   0   0   0   0   0   0   1   1   1   0   0   0   0   0
  0   0   1   1   1   1   0   0   1   1   1   1   1   1   0   0   0   0   0   1   1   1   1   1
  0   0   0   1   1   1   1   1   0   0   0   0   0   0   0
 40  44  52  62  70  73  73  71  71  64  56  54  53  48  37  28  32  25  14   6   3   3   4   3
  8   8   7   8  10  12  15  16  21  22  23  24  25  26  27  28  29  27  26  26  26  26  24  22
 17  17  19  22  22  22  23  24  24  21  18  13   9   8   8  10  10  10   6   2   4  12  15  14
 12  14  17  20  25  28  27  24  23  21  21  24  26  29  26  25  18  20  22  25  25  23  21  20
 16  17  17  18  19  19  20  21  19  18  18  18  18  17  18  20  20  17  18  20  19  14  13  16
 33  43  38  25  20  33  32  25  28  24  22  25  29  29  27  24  24  28  28  25  26  29  28  24
 19  20  23  26  26  23  21  20  22  21  20  20  22  23  22  21  18  20  21  20  19  19  19  20
 20  21  23  26  27  26  27  28  28  32  35  37  35  32  31  30  27  28  28  28  28  30  30  29
 28  28  28  29  30  31  30  30  36  37  39  41  42  44  46  47  53  53  54  55  55  56  56  56
 50  52  50  48  49  52  49  43  40  39  37  32  25  25  37  50  47  31  23  27  28  22  19  19
 23  24  29  25  35  56  58  61  63  50  48  31  66  64  42  41  41  38  30  20  11   8  10  16
 14  14  12   7   5  10  10  10   9  12  16  19  19  16  12   9  10   9   7   6   5   8   9  10
 10  10  11  10   8   7   9   9  11  10  10  10  10  10  11  10   8   8   6   5   4   4   3   3
  4   4   4   4   4   4   4   3   2   2   1   1   2   2   2   2   1   1   2   2   1   1   2   2
  0   0   0   1   2   2   2   2   1   1   1   1   1   0   0   0   2   2   1   1   1   1   1   1
  0   0   0   0   0   0   1   0   1   1   1   1   1   1   0   0   0   0   0   1   1   1   1   1
  0   0   1   1   1   1   1   1   1   1   1   1   1   1   1   1   2   4   9  14  13   7   4   4
  4   4   3   3   2   1   0   0   0   0   0   0   0   0   0   0   0   0   0   0   0   0   0   0
  0   0   0   0   0   0   0   0   0   0   0   0   0   0   0   0   1   1   1   1   0   0   0   0
  0   0   1   1   1   1   0   0   1   1   1   1   1   1   0   0   0   0   0   0   0   1   1   1
  0   0   0   1   1   1   1   0   0   0   0   0   0   0   0
 72  72  67  57  45  35  27  22  12  11   6   3   2   4   8  10  15  23  32  40  51  61  63  57
 32  30  27  27  28  27  25  22  27  25  22  19  18  19  22  24  24  22  20  20  23  24  23  20
 20  20  22  25  25  25  26  28  29  29  28  26  24  20  19  17   9  14  15  16  24  33  33  27
 25  23  20  20  22  27  27  25  23  24  24  22  18  18  20  23  22  21  21  20  20  21  22  23
 26  24  22  19  17  18  20  21  22  21  19  19  17  17  20  23  23  21  24  28  30  31  38  47
 56  47  26  28  27  35  26  32  23  22  24  25  26  23  22  22  24  30  29  23  22  23  23  18
 19  18  19  21  22  21  21  23  20  19  19  19  20  20  20  18  17  18  18  17  16  16  17  19
 20  20  22  24  24  23  24  27  27  28  27  25  22  21  23  25  27  27  25  23  21  21  17  14
 20  20  19  20  19  19  17  16  17  19  21  23  24  25  26  27  28  29  29  30  32  32  34  33
 34  37  37  35  36  36  26  13   3   5   9   6   4  12  38  64  54  32  20  21  22  20  25  31
 46  25  20  16  35  61  52  50  40  44  37  27  19  12  11   7   4   2   2   2   4   5   4   2
  3   2   3   2   5   6   2   6   6   6   7   9  11  14  13  14  12  10   9   8   9  11  13  14
 13  14  14  13   9   7   6   6   2   3   5   8  10  11   9   9  10   8   6   4   4   4   4   3
  2   2   2   3   4   5   6   6   5   4   1   1   3   3   3   3   2   2   2   2   1   1   2   2
  0   0   0   0   2   2   2   2   1   2   2   1   1   1   0   1   3   2   2   1   1   2   1   1
  0   0   0   0   0   0   0   0   1   1   1   1   2   2   1   1   0   0   0   1   1   1   2   2
  0   0   0   1   1   0   0   1   1   1   1   1   1   1   2   2   4   3   5   7   6   3   4   7
  4   4   4   4   3   2   0   0   0   0   0   0   0   0   0   0   0   0   0   0   0   0   0   0
  0   0   0   0   0   0   0   0   0   0   0   0   0   0   0   0   0   1   1   1   0   0   0   0
  0   0   1   1   1   1   0   0   1   1   2   2   2   1   1   0   0   0   0   0   0   0   1   1
  0   0   0   1   1   1   1   0   0   0   0   0   0   0   0
  7  11  10   6   7  16  26  29  35  45  56  65  71  77  81  80  86  83  83  77  67  63  50  27
 16  15  16  19  20  19  17  16  19  21  25  27  29  30  30  32  27  27  28  30  32  34  32  28
 26  24  24  23  24  24  25  25  26  29  30  29  26  25  26  30  24  25  26  28  31  32  31  30
 34  23  22  24  24  27  31  23  26  26  24  23  23  24  24  22  22  21  22  24  23  20  19  22
 28  24  21  20  20  19  21  24  28  21  18  21  26  26  26  27  36  42  56  57  57  57  46  43
 39  32  21  24  25  22  27  21  21  20  22  23  21  17  17  19  21  17  19  23  24  23  22  25
 17  22  26  25  23  23  23  22  20  21  17  17  23  23  18  19  19  22  21  15  15  15  18  22
 20  23  22  18  17  19  23  28  36  38  34  24  16  16  18  19  24  18  17  18  15  12  13  14
 15  16  16  16  16  15  14  12  17  16  13  13  13  16  19  13  14  13  14  14  12  14  14  12
 16  15  16  17  15  11  13  16  14  18  21  13  24  48  61  64  60  50  40  36  35  35  35  36
 29  27  24  20  17  14  10   8   9   5   4   2   4   5   1   7   1   2   4   4   3   2   4   8
 11   8  15  11   9  14  10  11  13  14  15  15  14  13  14  14  11  13  10   8   8   9  15  17
 16  19  22  21  19  16  16  16  19  24  24  18  17  21  22  18  19  16  10   8   5   4   6   4
  4   4   8   3   5   8   2   3   3   5   5   2   1   3   3   2   3   5   4   0   0   2   2   1
  0   1   3   3   2   0   1   4   2   0   1   2   0   0   1   0   0   1   1   1   0   1   2   1
  0   2   1   0   3   2   0   0   1   0   0   0   0   0   0   1   0   0   1   1   1   2   2   2
  1   0   1   1   1   1   1   0   0   1   1   1   2   2   2   2   1   1   1   1   1   1   1   1
  1   1   1   1   1   1   1   1   1   2   2   1   1   1   1   1   1   1   1   1   1   1   1   1
  1   1   1   1   2   2   2   1   1   1   1   1   1   1   1   1   1   0   0   0   0   0   1   2
  1   0   0   0   0   0   0   0   0   0   0   0   0   0   0   0   0   0   0   1   0   0   0   1
  0   0   0   0   0   0   0   0   0   0   0   0   0   0   0
 55  62  69  73  78  84  89  90  87  89  86  79  71  63  54  47  37  27  23  17   8  10  15  10
 18  20  23  24  23  20  19  20  22  22  24  27  29  32  33  33  33  31  28  27  28  28  26  23
 26  25  25  25  27  26  25  25  26  25  25  27  30  31  30  28  36  33  29  29  31  33  32  32
 25  25  41  52  40  26  26  30  24  25  25  24  24  25  26  25  30  27  24  24  25  27  28  31
 33  29  26  25  22  22  24  26  27  39  47  47  50  61  73  76  84  84  89  75  48  27  20  33
 36  19  34  24  26  26  19  29  22  21  20  18  15  16  21  26  19  20  21  22  23  24  24  24
 19  22  23  23  24  25  26  25  22  19  17  20  21  17  17  21  11  14  17  18  18  19  21  20
 21  23  21  19  19  17  12  11  10  14  19  17  16  16  15  13  13  11  12  12  14  20  19  15
 19  16  14  14  16  17  18  18  15  17  21  20  21  18  14  29  30  30  26  20  19  24  32  39
 29  28  27  29  35  38  38  35  29  32  28  27  25  22  19  12  15  20  19  11   7   7   6   1
  7   9  12  11   7   7  10  13   9   9   9   7   6   7   3   8   2   1   2   3   3   2   4   7
  5   7   7   8  11  12  15  15  13  14  16  18  19  21  25  27  42  46  45  40  43  47  47  46
 60  61  61  59  57  55  55  56  64  66  66  66  68  76  77  75  77  37   7   7  11   9   7   1
  5   7  11   4   4   7   3   7   3   5   5   4   4   5   3   2   3   0   0   5   4   0   1   5
  3   2   1   2   4   4   2   0   5   3   2   3   2   2   2   0   2   1   2   2   0   0   0   4
  0   2   3   1   0   0   1   4   0   0   2   2   2   1   0   0   0   0   1   1   1   1   2   2
  1   1   1   1   1   1   1   1   0   0   0   1   2   2   2   2   1   1   1   1   1   1   1   1
  1   1   1   1   1   1   1   1   1   1   1   1   1   1   1   1   1   1   1   1   1   1   1   1
  1   1   1   1   1   1   1   1   1   1   1   1   1   1   1   1   0   0   0   0   0   0   1   1
  1   0   0   0   0   0   0   0   0   0   0   0   0   0   0   0   0   0   0   0   0   0   0   0
  0   0   0   0   0   0   0   0   0   0   0   0   0   0   0
 83  83  83  81  78  74  71  70  69  66  57  41  27  19  15  13  16  11  16  21  18  18  22  22
 24  23  22  22  20  20  23  27  33  30  28  27  28  29  28  28  31  29  26  23  23  25  25  25
 24  23  22  23  25  27  27  27  27  29  30  31  33  34  36  38  32  31  30  32  37  38  36  34
 37  36  49  59  47  33  33  38  33  36  39  39  39  40  42  42  39  37  35  35  39  43  44  43
 46  46  42  36  29  24  20  17  37  36  40  52  63  65  61  55  39  33  31  24  21  24  25  31
 30  31  30  18  26  27  32  15  20  22  23  21  19  20  22  24  19  22  23  21  23  26  25  22
 21  22  22  23  23  24  24  23  25  20  17  18  16  16  18  19  23  20  20  18  15  16  18  15
 16  19  20  27  42  52  54  54  56  55  49  46  41  39  35  34  44  51  53  48  47  49  43  27
 45  43  43  46  45  41  36  35  43  42  43  35  37  33  30  63  67  61  44  31  29  28  28  31
 31  32  29  23  22  23  22  19  19  20  12  16  11   3  12  16  24  24  23  19  12   8   9  12
 13  12  10   8   7   8   9   9   6   6   8   5   6   7   3   2   8  15  18  13   9  12  15  16
 22  40  44  52  54  48  53  54  52  54  56  56  55  56  60  63  62  65  63  53  59  75  73  76
 80  79  77  74  73  73  74  76  78  76  74  75  78  83  83  81  84  77  68  49  21   6   3   4
  7   8   9   3   5  10   9  12  11   8   5   4   5   5   7  10   2   1   1   2   3   2   1   1
  2   3   1   0   1   3   6   6   1   3   5   3   1   2   3   1   1   1   1   3   6   5   2   0
  1   0   0   0   2   3   0   0   1   1   1   1   0   0   0   0   0   0   0   0   0   0   0   1
  0   0   0   0   1   1   1   1   0   0   0   0   1   1   2   2   1   1   1   1   1   1   1   1
  2   1   1   1   1   1   1   1   1   1   1   1   1   1   1   1   0   0   0   0   0   0   0   0
  1   1   1   1   1   1   1   1   1   0   0   0   0   0   1   1   0   0   0   1   1   0   1   1
  1   0   0   0   0   0   1   1   0   0   0   0   0   0   0   0   1   1   0   0   0   0   0   0
  0   0   0   0   0   0   0   0   0   0   0   0   0   0   0
 71  66  62  60  57  53  53  54  49  44  35  25  21  22  24  26  21  16  19  24  24  22  21  19
 27  24  22  23  25  26  27  29  24  22  21  20  21  21  22  22  20  22  21  21  20  21  22  21
 29  32  35  37  37  34  29  27  32  33  33  31  29  28  31  33  31  32  35  40  44  45  44  42
 50  48  49  48  46  49  53  51  49  50  50  48  47  47  48  47  48  47  43  40  41  42  40  36
 31  33  30  28  25  25  25  23   9  12  22  35  39  34  29  28  33  33  31  27  29  33  33  32
 27  29  31  64  63  22  33  32  29  29  24  18  17  21  24  25  23  24  23  21  22  23  24  21
 22  23  24  25  23  21  18  16  15  17  20  20  21  30  31  20  27  20  22  24  24  31  39  36
 20  21  19  21  31  36  35  34  29  28  29  32  33  32  31  30  35  46  50  42  37  42  42  33
 28  28  33  40  43  38  33  31  29  30  33  26  26  22  18  41  65  61  45  35  37  34  25  23
 25  25  24  22  21  24  27  29  27  23  18  19  18  15  17  18  22  20  22  24  19  10   9  14
  8  14  24  33  37  31  21  12  14   7   8   9  13  14  10   9  26  44  50  37  31  42  54  56
 53  66  65  66  70  65  65  67  66  66  68  65  61  60  61  64  64  67  64  51  58  83  79  85
 86  84  81  80  80  82  84  85  90  86  80  81  81  81  80  79  82  78  79  81  68  33   3   4
 39  43  44  42  43  37  20   8   9   7   7  10  10   6   4   6   7   6   4   3   2   4   5   5
 12  20  23  16   7   3   3   3   8   9   9   6   3   6   8   4   6   6   3   1   0   3   2   0
  1   1   5   4   2   0   1   1   3   1   0   0   0   2   1   0   0   0   0   0   0   0   0   0
  0   0   0   0   1   1   1   1   0   0   0   0   1   1   1   1   1   1   1   1   1   1   1   1
  1   1   1   1   0   0   0   0   0   0   0   0   1   1   1   0   0   0   0   1   0   1   1   1
  2   1   1   0   0   0   1   1   1   0   0   0   0   0   1   1   0   0   1   1   1   1   1   0
  0   0   0   1   1   1   1   1   1   1   1   0   0   0   0   0   1   0   0   0   0   1   1   0
  0   0   0   0   0   0   0   0   0   0   0   0   0   0   0
 51  46  43  41  38  33  31  31  34  28  22  19  21  23  20  16  25  24  25  25  24  25  24  22
 25  27  30  34  33  29  25  24  19  20  21  20  18  17  18  19  16  19  21  19  17  17  21  23
 30  31  34  35  34  34  36  38  37  37  39  45  52  57  59  56  68  68  69  69  68  68  70  71
 72  75  73  66  62  66  67  62  55  53  49  44  41  39  37  34  28  29  25  22  21  22  20  18
 15  17  16  17  20  29  37  39  37  45  48  39  32  31  32  34  33  32  36  44  41  30  29  33
 38  48  65  73  78  96  90  87  79  68  49  31  25  29  35  38  25  22  20  20  20  19  20  22
 23  24  25  24  22  18  16  15  18  18  17  14  19  42  61  63  35  28  29  31  27  27  28  20
 12  17  18  19  21  20  16  16  14  15  17  20  20  19  19  19  16  28  42  44  42  41  37  29
 20  19  21  25  27  26  25  25  23  26  27  26  24  23  25  27  25  32  29  27  33  32  28  31
 28  22  18  21  23  21  18  18  28  29  36  22  17  29  36  48  54  58  56  44  32  27  26  27
 47  58  73  82  82  76  67  62  34  17  14  15  13  11  12  18  14  41  63  67  64  65  64  59
 63  59  55  54  70  74  59  56  62  65  67  67  65  65  66  68  69  73  71  60  64  87  79  81
 80  79  77  78  79  81  83  83  88  84  82  80  80  80  80  81  80  81  78  80  81  42   2   8
 71  79  81  83  86  80  65  51  55  45  35  31  31  33  41  50  32  25  25  32  33  28  30  38
 69  72  65  50  38  39  50  58  57  54  49  43  39  41  39  33  10   8   6   6   4   2   4   6
  6   2   4   8   5   4   2   0   1   0   1   1   1   1   0   0   0   0   0   0   0   0   0   0
  0   0   0   0   0   0   1   1   1   1   0   0   1   1   1   1   1   1   1   1   1   1   0   0
  1   1   1   1   1   1   1   0   0   1   0   1   2   2   2   1   1   1   1   0   1   0   0   1
  2   1   1   0   0   0   0   1   1   0   0   0   0   0   0   0   0   0   1   1   1   1   0   0
  0   1   1   1   1   1   1   1   2   1   1   1   1   0   0   0   0   0   0   0   0   1   1   1
  0   0   0   0   0   0   0   0   0   0   0   0   0   0   0
 31  28  27  28  29  28  28  30  30  30  29  26  23  23  25  27  23  30  34  31  28  29  28  26
 23  28  32  32  26  20  19  21  21  24  26  24  21  19  19  20  19  24  26  27  27  33  39  44
 51  52  53  53  53  56  61  65  70  71  72  73  72  69  67  64  64  65  66  66  63  60  58  57
 44  44  43  42  39  35  31  30  32  30  26  21  19  17  14  11  17  21  24  26  25  24  21  20
 19  21  21  24  25  31  34  35  29  27  24  21  23  26  28  29  29  26  22  27  29  24  25  26
 23  21  38  52  69 106  87  83  72  64  49  37  31  31  32  32  23  19  18  20  19  17  18  22
 21  20  20  20  18  16  17  19  21  25  31  30  22  19  21  23  20  16  18  21  19  20  19  14
 11  17  17  16  17  16  14  16  23  25  26  26  25  26  28  30  33  29  26  25  24  26  28  26
 28  28  27  25  24  23  23  24  25  26  25  26  23  22  27  22  26  29  27  25  29  27  23  23
 30  29  33  43  48  45  45  50  55  67  90  75  71  89  90 102  98  98  93  79  61  53  57  66
 93  93  93  92  90  88  86  85  43  23  21  24  19  20  30  45  45  50  57  63  63  58  58  60
 63  56  57  59  72  78  60  55  58  61  64  67  68  69  70  71  72  73  69  65  62  83  80  81
 80  79  79  79  79  81  81  81  82  82  81  82  81  82  84  87  88  90  81  71  80  51   1   0
 65  75  75  74  76  78  81  79  77  73  72  74  73  70  69  72  66  65  67  72  74  72  72  75
 67  73  75  73  71  72  75  75  75  76  74  63  51  47  50  50  31  12   1   4   8   1   1   4
  8  10  21  27  19  10   5   1   4   3   2   1   1   1   0   3   1   0   0   0   0   0   0   0
  0   0   0   0   0   0   1   1   1   1   0   0   1   1   1   1   1   1   1   0   0   0   0   0
  1   1   1   1   1   1   1   1   0   0   0   1   2   3   2   1   1   1   0   0   0   0   0   1
  2   1   1   0   0   0   0   0   1   0   0   0   0   0   0   0   0   0   0   1   1   0   0   0
  0   1   1   1   1   1   1   1   2   2   1   1   1   0   0   0   0   0   1   1   1   0   1   1
  0   0   0   0   0   0   0   0   0   0   0   0   0   0   0
 30  29  26  25  23  23  24  26  23  25  25  21  16  16  25  33  30  34  32  25  22  21  21  21
 21  21  21  20  18  16  19  23  19  22  24  26  25  27  28  29  28  32  33  36  39  47  52  56
 56  57  58  58  55  51  46  43  35  38  41  40  36  34  36  39  40  42  46  49  49  46  39  35
 29  25  25  30  34  30  26  28  26  27  26  24  22  22  20  18  17  19  24  27  26  23  20  20
 25  26  28  30  29  28  26  26  23  22  25  31  30  24  25  31  23  28  24  23  22  22  30  29
 31  24  14  18  10  10   9  10  15  15  18  20  20  18  16  16  22  22  22  22  20  19  19  20
 17  16  16  17  19  20  22  25  31  36  39  37  30  21  18  22  21  17  15  16  17  17  17  17
 15  18  17  16  19  21  22  25  24  28  32  32  31  30  27  23  27  24  26  30  30  29  27  24
 24  28  30  28  27  29  30  30  31  35  43  49  48  37  30  37  40  44  49  57  67  74  77  76
 80  83  89  93  92  89  92  99 104  96  93  78  83 100  95  95  97  95  98  99  90  77  78  87
 89  86  82  83  86  87  84  81  53  36  41  50  51  56  69  82  81  77  76  77  75  69  66  66
 70  67  64  59  58  59  57  56  57  59  60  61  62  62  62  62  62  61  55  58  47  65  70  71
 69  70  70  69  69  68  67  67  72  73  73  72  72  73  75  76  72  68  71  76  76  41   1  10
 66  79  78  75  73  69  70  65  68  67  65  66  65  64  65  66  61  67  69  66  66  69  68  63
 65  64  66  67  70  73  73  74  71  74  76  71  58  53  57  61  67  38  12   8  10  10  14  19
 27  39  58  57  30  11  12  16  14   9   6   6   8  10   8   6   1   1   0   0   0   0   0   0
  0   0   0   0   1   1   0   0   0   0   0   0   1   1   1   1   1   1   1   0   0   0   0   0
  1   1   1   1   2   2   2   2   0   0   0   0   2   2   2   1   1   1   1   1   1   1   1   1
  1   1   2   2   2   1   1   1   2   1   1   1   1   1   1   1   0   0   0   0   0   0   0   0
  0   0   1   1   1   1   0   0   1   1   1   0   0   0   0   0   0   1   3   3   1   0   0   1
  0   0   0   0   0   0   0   0   0   0   0   0   0   0   0
 26  27  28  27  24  24  23  23  27  23  18  16  16  16  15  16  17  19  17  17  20  19  15  14
 21  16  14  17  22  25  25  25  32  31  33  33  34  34  34  34  40  40  40  40  43  46  46  44
 35  30  24  20  19  19  19  19  16  15  15  16  20  26  31  35  42  41  42  46  50  50  45  40
 37  37  36  35  34  27  22  24  24  27  28  27  25  23  22  20  22  19  18  22  26  30  36  42
 41  36  34  31  29  27  27  29  25  28  29  30  30  30  25  19  22  21  21  36  40  30  29  28
 27  26  19  25  22  18  23  18  23  22  23  24  22  19  21  25  23  27  28  24  22  21  19  16
 17  15  16  20  24  26  28  29  40  43  36  26  26  26  24  24  22  20  17  17  18  16  13  15
 15  17  16  17  22  24  21  20  26  28  29  28  31  39  43  43  39  46  58  68  68  65  63  58
 59  64  66  61  59  62  66  67  71  69  81  89  92  76  64  93  98 103 111 114 111 112 113 111
107 105  99  94  90  87  87  88  88  86  86  82  83  91  95  99  94  92  90  86  83  80  77  74
 75  74  71  70  72  77  81  85  84  65  66  75  76  80  81  82  81  85  84  79  77  77  74  69
 69  74  71  73  69  63  69  63  60  60  58  57  56  55  54  53  50  49  46  55  38  50  55  52
 59  61  62  62  60  59  58  58  57  58  57  55  53  55  55  54  53  49  55  56  55  37   4   2
 48  61  60  63  66  67  70  64  66  65  65  64  64  65  66  68  68  67  67  69  69  67  68  70
 66  65  66  69  72  73  75  76  78  74  73  75  77  77  78  75  73  65  53  44  44  51  59  64
 74  68  68  62  41  28  26  22  22  16  12  20  30  29  15   2   2   1   2   0   1   0   1   0
  1   0   1   1   0   0   0   0   1   1   0   0   1   1   1   1   2   1   1   0   0   0   0   0
  1   1   1   2   2   2   3   3   0   0   0   0   2   3   1   1   0   1   0   1   0   1   0   1
  1   1   2   2   2   2   1   1   2   1   1   1   0   1   1   1   1   0   0   0   0   0   0   1
  0   0   1   1   1   0   0   0   0   0   0   0   0   0   0   0   0   3   5   5   2   0   0   1
  0   0   0   0   0   0   0   0   0   0   0   0   0   0   0
 23  24  23  22  20  21  22  24  28  25  23  22  23  20  17  16  17  21  22  23  26  31  33  32
 34  34  39  34  31  34  28  30  28  22  23  23  18  20  23  23  28  37  43  42  39  41  41  39
 32  18  24  22  22  28  21  24  24  25  29  36  42  43  39  34  40  37  39  47  53  53  51  50
 42  41  37  30  24  19  18  18  20  20  20  18  17  19  21  24  27  37  42  43  44  45  42  40
 32  34  36  33  32  26  30  24  23  26  21  25  24  18  22  19  20  27  31  30  30  34  35  33
 34  37  30  22  23  25  23  25  27  28  27  24  23  24  27  29  31  32  29  26  26  24  23  24
 26  22  23  29  30  29  33  41  41  30  26  30  31  28  25  24  23  20  19  20  19  18  20  25
 22  22  21  20  21  28  42  55  82  68  57  65  73  81  95  93  88  93  98  96  93  90  89  88
 85  84  85  86  85  85  86  86  90  92  98  98 102  96  63 111 112 114 114 113 111 110 108 107
103  98  94  90  85  80  76  74  74  77  77  73  74  82  88  89  87  84  81  79  74  68  64  62
 58  58  58  58  60  62  66  66  61  61  61  59  65  71  74  83  90  86  82  79  77  76  75  75
 75  78  80  82  82  78  76  74  71  68  64  60  58  56  55  54  53  56  53  56  43  62  67  64
 68  71  68  67  66  65  64  55  58  56  55  54  53  51  51  52  49  52  48  51  54  30   4   5
 41  49  56  62  63  73  69  68  68  68  69  70  71  73  74  74  74  76  78  80  79  77  74  74
 71  71  71  71  71  71  70  69  74  75  75  75  73  72  72  72  65  68  69  71  70  70  69  67
 68  69  66  64  65  66  63  56  22  25  33  42  40  29  21  20  22  11   2   2   2   3   3   1
  2   5   5   4   4   8   8   5   0   3   4   2   0   0   1   0   0   0   1   2   0   0   1   4
  1   3   2   1   1   1   1   0   2   2   4   1   2   7   4   3   1   1   2   1   2   4   3   0
  2   4   4   5   6   3   0   1   0   4   4   1   1   1   1   1   0   0   0   1   0   2   2   0
  1   1   0   0   2   1   0   0   1   1   0   0   0   0   0   0   0   0   0   0   0   0   0   0
  0   0   0   0   0   0   0   0   0   0   1   1   1   1   0
 20  20  20  21  22  23  25  26  26  24  20  18  21  26  30  34  38  37  36  34  30  25  23  23
 24  18  15  10  13  21  19  19  14  14  16  15  15  15  14   9  19  28  36  40  38  38  41  44
 45  32  25  21  21  22  23  25  24  31  40  47  49  43  38  38  42  35  33  41  49  51  47  44
 35  33  30  27  25  26  28  30  33  38  46  54  59  60  57  54  52  50  43  38  36  37  36  34
 34  35  36  35  37  22  23  32  20  25  25  24  21  19  24  24  29  25  25  33  37  34  32  33
 29  30  28  24  24  26  25  26  26  28  29  30  32  34  36  36  37  37  34  31  31  28  25  26
 28  39  38  27  33  51  51  35  42  39  43  52  55  50  36  21  26  23  18  19  21  25  24  21
 22  21  25  36  55  78  98 112 126 123 117 119 111 105 108 104 107 107 104  97  90  87  85  84
 81  79  79  81  84  87  92  98 103 103 106 103 103  94  70 115 108 112 114 114 112 109 105 100
 89  85  80  78  76  74  73  75  71  73  73  72  73  76  77  76  74  72  70  69  66  61  58  56
 58  57  56  56  55  56  59  60  66  66  67  69  75  82  85  92  94  90  84  78  74  72  72  71
 75  79  85  88  88  85  80  77  71  68  66  64  63  63  63  63  53  56  55  62  53  73  78  77
 80  86  86  87  84  77  76  77  66  63  59  58  58  56  55  55  56  55  52  56  59  29   2   1
 37  56  64  70  70  74  72  70  72  72  73  73  74  75  75  76  78  80  81  79  77  75  73  71
 69  69  68  66  66  66  66  64  62  62  63  63  61  62  61  61  61  63  65  65  64  65  64  63
 65  67  66  63  63  65  64  59  54  52  53  57  55  51  51  54  39  23   7   0   0   0   3   5
  8   3   4  15  27  27  15   2   3   0   0   2   5   5   2   2   1   3   4   3   1   0   0   0
  1   1   1   3   1   2  10   9   6   1   5  15  18  12   2   5   1   8   7   5   7   1   1  15
  8  13  11   7   6   5   2   1   6   1   6   7   0   1   5   0   2   0   2   3   1   1   1   0
  1   2   1   1   0   0   0   2   1   1   0   0   0   0   0   0   0   0   0   0   0   0   0   0
  0   0   0   0   0   0   0   0   0   0   1   1   1   1   0
 19  18  18  21  25  27  27  27  23  34  44  45  41  40  41  41  28  26  26  27  23  17  15  17
 14  15  20  19  19  21  17  16  20  22  18  14  17  21  22  23  20  24  31  38  40  39  41  45
 45  47  38  34  30  23  28  32  40  42  41  41  42  39  39  49  48  46  46  50  53  54  55  56
 54  56  57  61  65  67  68  69  61  56  49  46  45  43  38  35  40  34  30  29  29  30  31  27
 21  26  30  26  28  23  24  28  38  31  31  32  31  30  27  30  22  35  42  35  29  29  28  23
 26  30  34  32  29  34  49  59  64  67  70  74  79  84  85  84  85  83  76  68  62  52  42  38
 36  32  36  50  65  73  77  79  81  82  85  88  91  92  81  66  41  30  31  42  48  42  39  43
 36  46  62  80  93 102 108 112 118 120 121 122 115 110 113 108 110 107  99  91  84  81  79  78
 83  81  80  82  85  89  97 102 104 104 109 109 110  98  85 119 110 110 108 104 100  97  95  93
 89  86  83  81  80  78  76  76  69  68  67  66  68  69  67  66  71  69  68  66  63  59  56  55
 54  55  55  55  56  58  60  61  67  70  74  78  82  84  84  85  79  78  74  72  71  71  71  71
 72  73  75  76  76  75  74  73  68  65  60  55  51  47  45  43  48  45  39  39  24  30  27  25
 35  74  89  87  86  83  80  79  77  72  68  65  62  57  50  48  49  47  45  40  46  21   5   6
 40  65  68  73  74  76  76  75  75  74  75  76  76  76  75  75  77  76  75  75  71  69  67  66
 67  66  64  62  62  62  61  61  62  61  60  61  60  59  60  60  57  58  58  58  58  59  58  58
 61  63  64  62  62  64  62  62  56  56  55  56  55  54  55  57  26  15   6   5  10  22  36  44
 39  33  32  43  52  50  41  33  32  16   5   4   2   1   1   2   4   4   1   0   0   2   4   4
  1   3  12  13  10  30  54  56  34  29  42  61  62  40  15  10  28  35  20  10  20  17  14  33
 46  45  32  16   8   6   5   5   9   9  15  15   7   4   4   0   1   1   1   3   1   0   4   6
  6   0   0   0   1   0   0   0   1   1   0   0   0   0   0   0   0   0   0   0   0   1   1   1
  0   0   0   0   0   0   0   0   0   0   0   1   1   0   0
 19  18  19  20  23  24  23  22  17  31  44  47  41  33  24  16  23  22  23  24  23  22  21  22
 20  24  29  29  27  25  23  23  20  25  23  21  22  20  17  20  20  22  28  37  43  45  43  43
 40  48  46  42  46  52  55  58  54  55  55  63  73  71  69  77  66  69  73  74  71  68  66  67
 62  60  58  56  52  48  42  38  41  37  34  36  40  41  38  36  35  32  33  36  33  31  31  29
 29  28  34  31  26  27  30  29  39  38  51  51  39  25  21  40  59  87 100  80  64  67  66  57
 55  59  67  70  66  77  99 112 115 116 114 112 111 109 106 102  91  93  91  90  90  85  78  75
 52  53  65  84  94  92  90  92  93  95  96  95  94  99  99  93  88  80  81  91  90  81  82  93
 83  88  97 104 106 106 107 110 124 122 118 113 107 102  97  92  81  79  73  70  67  66  65  65
 71  71  72  76  80  84  91  95  99 100 105 105 103  81  68  87  83  83  80  76  76  78  80  80
 78  77  77  77  75  72  69  67  65  61  60  61  61  62  63  66  74  73  72  69  65  61  58  58
 58  57  56  55  55  56  57  58  58  61  63  67  62  55  53  50  48  47  46  47  45  43  40  38
 44  41  35  28  24  22  21  22  21  20  18  15  12  10   9   9  15  14  11  15   9  14  14  15
 19  71  90  80  81  79  71  63  50  49  49  49  47  41  34  31  28  39  52  47  52  24   7   1
 52  76  67  69  73  75  76  74  74  74  74  74  73  73  72  70  69  70  69  68  66  64  64  63
 62  62  60  59  61  62  63  63  63  63  60  59  59  59  58  60  57  56  56  56  54  54  55  55
 55  57  57  57  59  60  60  59  52  55  55  55  54  55  55  55  56  49  44  43  43  46  53  56
 58  56  54  56  55  54  55  56  55  44  35  31  27  22  26  35  36  30  16   3   0   3   5   4
  6  11  11   7  23  62  84  78  85  73  69  66  65  60  50  49  59  63  43  29  43  51  46  51
 61  60  52  40  30  19   8   1   5  21  20  13  14   7   0   1   1   1   0   4   2   3  11  17
 16   4   0   0   0   0   3   1   1   1   0   0   0   0   0   0   0   0   0   0   1   1   1   1
  0   0   0   0   0   0   0   0   0   0   0   0   0   0   0
 17  19  22  26  29  31  32  32  26  28  29  30  34  39  38  33  27  28  26  23  23  26  25  22
 21  22  21  24  26  26  25  22  20  23  21  21  21  16  15  22  19  22  25  29  36  45  50  52
 59  65  72  70  87 105  91  83  83  80  76  79  80  71  60  60  67  64  59  55  52  53  53  54
 49  46  45  44  45  47  48  47  47  46  46  51  52  49  44  41  39  35  33  32  30  29  29  29
 30  25  27  30  28  22  23  47  66  76 100 106  96  82  73  81 113 123 128 121 112 107 106 103
102 100 105 108 104 105 109 109 116 116 114 111 109 107 106 104 104 106 104 105 110 110 108 109
110 109 104 100 102 109 113 112 106 107 110 113 112 114 115 113 104 105 102  96  95 100 107 111
117 111 107 108 113 118 122 125 117 117 115 112 110 104  92  85  78  75  72  70  71  70  70  68
 66  67  68  71  73  73  76  80  91  91  92  91  88  66  51  63  62  64  64  64  64  65  64  63
 62  63  63  62  61  60  57  55  58  56  56  57  58  58  60  65  69  69  68  66  63  61  59  60
 57  56  56  56  56  57  57  58  57  57  56  56  40  23  24  22  21  21  20  20  18  15  10   7
  9   9  10  11  13  13  15  14  11  12  12  13  14  15  17  19  16  14  12  16  12  14  12  14
 15  53  60  52  56  51  42  39  36  38  43  47  47  46  45  45  49  52  60  54  57  27  11   5
 59  81  69  70  71  71  71  69  70  71  71  70  69  68  68  67  69  69  67  64  63  61  61  62
 58  58  57  59  60  62  63  63  64  62  60  59  57  56  57  56  55  55  54  54  52  52  52  53
 54  54  53  53  55  56  56  54  56  56  55  52  52  53  56  56  52  49  51  53  51  51  52  52
 50  52  52  51  52  54  53  52  53  53  52  53  51  50  53  55  52  44  27  10   2   3   3   1
 14  41  53  50  61  78  78  72  71  68  66  61  60  62  58  58  58  65  62  56  62  70  70  69
 72  69  66  63  54  35  14   4  11  25  19   9  18  22  15  15   6   3   4   6   4   6  16  24
 13  12  18  15  13   2   3   2   1   1   1   1   0   0   0   0   0   0   0   0   1   1   1   1
  0   0   0   0   0   0   0   0   0   0   0   0   0   0   0
 35  34  33  30  26  22  19  17  20  21  19  17  18  27  37  42  42  44  40  32  29  32  30  24
 25  25  21  22  20  16  18  17  18  18  18  23  29  34  41  50  62  72  81  80  74  65  57  52
 56  56  64  56  65  78  59  49  52  48  46  48  46  45  47  50  52  54  55  53  53  57  60  61
 54  52  51  52  53  54  54  54  56  52  49  49  47  44  40  40  41  39  34  31  34  34  32  33
 31  35  32  30  36  29  25  66 103 103 106 105 111 122 126 129 127 124 121 120 117 112 112 114
113 113 115 115 112 109 106 102 106 106 101  95  91  88  87  85  90  92  91  94 102 108 114 120
112 109 108 112 115 116 115 114 116 107 105 109 112 115 118 118 115 116 113 109 111 117 119 118
118 117 118 120 122 122 122 121 124 124 124 118 113 103  88  84  81  76  71  69  68  66  66  66
 70  69  69  71  70  70  71  72  77  77  74  74  74  63  50  65  64  66  69  69  69  68  65  62
 63  61  60  58  57  57  57  54  55  54  56  58  57  56  57  61  61  63  64  63  61  62  63  63
 66  65  65  65  65  64  64  63  64  62  59  57  33  10  16  18  13  13  12  12  12  12  12  12
 11  12  13  14  14  11  10   8   8   8   8   7   6   7   8   8  12  10   9  10  10   9   7   8
 14  62  77  68  68  64  57  55  47  47  48  48  46  44  46  49  51  42  44  47  50  20   2   1
 51  73  71  73  71  68  67  66  66  66  66  66  66  66  66  66  69  68  66  64  60  59  58  57
 57  56  57  57  58  60  61  61  63  63  61  58  57  57  56  57  53  53  52  52  51  51  51  51
 53  51  50  51  52  53  52  51  51  50  50  49  48  49  50  50  52  50  51  52  48  49  51  50
 46  50  51  50  51  53  52  47  47  49  50  48  50  52  51  48  53  51  43  37  34  35  34  32
 34  65  83  84  84  75  62  65  56  51  50  48  49  52  52  56  52  52  56  59  57  59  63  64
 75  71  69  69  63  45  26  19  20  16  12  11  21  42  48  37  16  13  12  11   7   9  17  24
 18  21  30  28  30  10   2   0   1   1   1   1   1   0   0   0   0   0   0   0   0   1   1   1
  0   0   0   0   0   0   0   0   0   0   0   0   0   0   0
 19  19  18  19  20  20  18  17  18  22  23  20  16  15  20  25  38  40  38  31  25  24  23  20
 17  22  22  29  34  41  59  69  73  74  78  83  90 100 104 100  95  93  88  78  64  54  51  52
 49  47  49  42  39  45  46  46  42  41  50  60  61  67  75  73  71  84  98 103 103 103 100  97
 87  87  88  88  88  85  82  79  54  49  47  48  48  44  41  40  33  41  35  27  30  29  27  33
 35  31  30  33  33  33  26  52  91 101 108 110 112 116 124 126 130 130 125 119 115 115 117 118
129 131 125 113 103  95  91  90  80  80  77  75  76  77  78  77  78  80  78  79  84  88  93  98
103 109 111 108 110 115 113 107 104  95  90  92  95 102 108 110 124 118 116 120 122 119 116 115
110 113 117 118 116 115 116 119 112 110 112 108 108 100  86  86  83  79  74  73  72  71  72  73
 73  71  72  74  73  72  73  74  70  72  70  70  70  66  48  69  70  72  72  72  72  73  73  72
 68  68  65  62  60  59  58  56  56  56  57  58  58  58  58  58  59  62  63  62  62  63  65  65
 75  75  75  73  70  67  64  62  64  62  60  65  36   5  10  12  14  12  11  11  11  11  10  10
  8   9   8   9  10   9  10  10   7   8   7   7   6   6   6   7   9   8   7   6   8   6   5   6
  4  63  86  73  65  60  55  50  58  54  49  45  41  38  37  41  44  33  27  30  35  25  21  26
 51  65  70  73  69  69  65  66  64  64  62  62  62  62  62  63  65  63  63  60  58  55  54  54
 56  56  55  56  56  57  58  57  58  57  55  54  54  52  52  52  51  50  50  49  49  49  50  50
 51  50  50  49  50  49  49  50  50  50  50  52  52  50  49  50  51  50  50  50  46  49  50  50
 48  50  51  48  46  46  48  51  53  51  51  51  54  58  59  56  53  53  52  51  49  49  47  46
 50  52  49  50  56  54  48  49  50  47  50  48  47  48  44  49  52  45  45  48  47  47  49  50
 49  52  55  59  58  47  35  30  21  13  14  20  28  46  54  43  29  27  26  22  17  18  25  28
 39  35  30  21  31  12   4   4   2   2   2   2   1   1   0   0   0   0   0   0   0   0   0   0
  0   0   0   0   0   0   0   0   0   0   0   0   0   0   0
 18  17  16  16  20  21  19  16  22  21  20  25  29  31  31  31  22  26  32  33  32  33  37  41
 52  55  56  66  73  74  83  83  75  70  62  54  52  60  60  47  33  30  34  43  47  46  48  51
 49  55  67  84  89  91  96  94  90  88 102 114 115 122 128 121 112 113 114 111 112 115 118 116
121 119 117 114 110 108 107 105  58  51  48  51  56  58  60  62  73  90  87  75  78  79  85 103
 85  51  66  94  89  90  87  96 114 115 115 124 125 118 124 128 127 125 121 117 116 117 117 116
116 119 110  98  96  92  85  82  79  78  75  73  74  75  75  72  73  76  76  76  78  79  80  85
 96 105 113 113 107  99  94  92  85  85  89  92  93  97 100 100  99 100 100  99 103 110 113 111
104 102 101 103 103 103 104 105 108 105 107 109 114 106  87  86  81  80  80  81  84  85  86  89
 91  90  89  87  81  75  70  69  70  78  79  82  81  81  58  81  87  88  87  84  81  77  73  70
 69  69  68  67  65  65  62  59  61  59  57  57  59  60  60  58  58  61  62  61  60  61  62  62
 63  64  66  68  68  68  67  66  64  63  66  74  45   7   9   9   5   5   6   7   9   9   8   7
  6   7   7   8   7   7   6   6   6   6   6   5   4   3   4   4   7   8   6   4   7   6   4   5
 11  49  62  54  49  41  40  42  44  40  36  34  33  34  35  37  43  50  55  60  64  68  67  68
 67  69  70  71  67  71  64  66  65  63  62  61  59  59  58  58  59  58  58  56  55  55  55  57
 55  54  54  55  56  55  55  54  54  53  54  53  52  51  50  51  50  49  49  49  49  49  49  48
 47  48  50  49  48  47  48  50  48  46  45  47  47  46  46  49  49  48  49  49  49  50  51  50
 53  49  47  50  52  50  50  52  50  51  55  57  59  59  59  58  57  55  52  51  49  47  47  47
 44  46  47  45  42  45  46  43  43  46  48  44  44  48  45  44  42  45  46  45  47  49  49  48
 48  49  46  42  41  39  38  40  26  28  30  34  41  42  39  39  40  40  39  35  30  31  36  37
 37  40  36  26  34   9   0   1   2   2   2   2   2   1   1   0   0   0   0   0   0   0   0   0
  0   0   0   0   0   0   0   0   0   0   0   0   0   0   0
 18  16  20  21  26  22  27  30  30  33  35  35  38  43  44  42  34  34  33  32  31  34  32  32
 37  38  39  34  32  36  40  42  42  44  49  55  58  53  56  68  84  97 111 116 110 105 106 109
111 118 129 136 135 132 131 131 129 129 128 126 123 120 116 113 114 114 112 109 109 111 112 112
111 107 104 104 105 104 103 107 102 101 102 109 121 130 131 128 142 146 149 144 135 128 124 123
122  86  97 134 134 121 120 116 111 113 117 120 125 126 123 122 121 120 120 119 116 114 112 110
101 100  97  93  90  89  86  84  73  74  74  73  71  70  70  69  73  75  78  79  77  77  84  90
103 107 111 112 109 104  98  95  91  96 103 109 113 115 114 111 104 102  99 100 104 106 107 106
 99  98  97  98  99 101 106 111 112 108 109 111 108 104 100  97  96  96  96  96  99 101 102 101
101 102 101  96  88  82  80  80  81  82  82  84  85  84  71  88  97  97  95  95  95  92  86  80
 79  78  77  74  71  68  67  66  62  62  62  62  61  59  59  60  58  57  56  56  55  55  54  53
 51  51  52  53  55  55  56  56  53  55  61  61  48   7   8   7   9   8   6   6   6   6   5   4
  1   3   8   4   5   7   6   6   2   4   4   5   7   8   6   2   5   2   6  12  10   5   5   7
  6  38  54  40  44  48  48  54  60  58  56  60  67  73  74  72  76  78  79  80  77  73  69  65
 68  69  70  70  70  69  69  67  68  65  61  58  56  55  56  57  55  55  56  55  55  55  55  55
 54  53  53  53  53  53  52  53  52  52  51  51  50  50  50  49  50  49  48  49  48  47  47  48
 48  47  45  45  45  46  45  45  42  43  45  44  44  46  47  50  53  56  57  55  53  53  53  53
 50  50  51  51  49  50  52  53  58  58  59  62  65  67  66  63  62  58  54  51  50  48  45  42
 44  45  45  45  46  45  45  44  45  45  46  47  47  48  48  47  48  48  48  46  47  47  46  46
 46  46  45  42  38  36  38  38  38  37  37  40  43  45  46  44  46  45  43  43  41  40  37  35
 37  39  35  35  36  25   9   3   5   5   4   3   2   1   0   0   0   0   1   2   0   0   3   1
  1   1   1   0   1   3   0   1   0   0   0   0   0   0   0
 30  36  37  38  34  33  36  38  42  37  32  33  37  40  41  40  38  44  47  42  35  33  39  45
 39  43  48  58  70  82  91  94  93 103 113 118 120 118 121 129 140 143 147 148 145 140 137 135
126 124 126 128 127 122 115 110 107 106 106 105 104 105 106 107 107 109 110 110 112 113 113 112
113 115 116 119 122 127 129 130 127 127 131 137 143 146 142 136 132 129 125 120 117 114 111 109
119 115 119 120 109 104 104 100 108 110 113 117 122 125 126 127 125 123 121 118 113 109 104 100
 98  97  94  88  83  80  76  72  75  74  74  73  74  73  73  74  75  76  77  77  77  81  91 100
103 104 106 108 109 108 105 103 104 110 118 123 125 125 124 122 109 106 103 102 104 102 100  98
101  99  97  99 100 103 107 112 113 109 112 112 107 105 105 106 108 107 104 103 103 102 101 100
 99  99  98  97  95  95  96  97 101  95  90  87  92  96  80  92 100 105 110 110 108 104  99  95
 83  85  84  82  77  72  71  71  65  65  66  66  64  61  58  56  51  51  51  51  51  51  51  49
 45  44  43  43  43  42  42  42  42  42  45  47  39   5  10   7   5   6   5   5   6   6   5   4
 11   6   4   4   5   5   3   3   5   5   4   5   6   8   6   3   5   8   3   3  13  14   6   4
  9  52  85  76  78  77  75  77  79  81  82  80  77  74  74  75  73  75  76  76  75  71  67  62
 62  63  65  66  66  65  66  64  65  63  58  56  55  54  55  55  54  53  53  53  54  54  53  53
 53  53  52  52  52  52  52  52  51  51  49  49  48  48  48  48  49  47  47  47  47  46  46  47
 46  45  45  44  45  45  44  44  41  42  43  42  42  43  46  47  54  57  58  59  58  57  55  54
 52  52  53  52  53  51  52  52  58  60  62  63  66  68  68  67  62  58  53  51  50  49  48  46
 44  45  46  45  45  44  44  43  44  45  45  46  47  48  49  50  51  50  49  48  48  48  47  46
 45  45  44  43  39  38  38  38  36  35  36  40  45  47  46  45  47  46  42  42  39  38  37  35
 35  35  36  38  41  33  22  18  12  10   8   4   2   1   1   1   0   3   2   0   4   3   0   0
  2   1   1   0   0   2   0   1   0   0   0   0   0   0   0
 53  44  32  41  41  37  44  59  51  49  54  67  78  80  80  81  78  86  90  83  73  72  79  87
100 101 105 111 117 122 126 130 135 142 144 139 138 138 138 139 136 134 130 128 127 125 123 120
124 119 113 111 110 106 102  98  98  99 100 101 103 104 105 105 112 110 111 114 122 126 126 123
121 122 125 126 128 135 139 138 137 139 139 140 140 138 133 127 126 120 113 110 111 111 113 112
108 111 107 102 100  97  95 101 106 111 118 124 127 131 131 131 125 122 118 114 111 105  98  93
 86  85  84  82  81  80  79  77  74  73  73  72  74  76  77  76  77  78  79  80  79  81  86  91
 90  91  93  98 103 106 107 107 110 115 120 121 118 115 112 109 107 106 104 102 101 101  97  95
 93  90  90  93  97 101 104 109 113 113 116 113 105 101 104 105 106 105 103 102 102 100 101 100
 98  97  96  98 101 105 107 108 108 104 106 105 110 114  87  93 106 108 112 114 114 111 104  98
 96  96  95  91  84  79  77  77  75  74  69  64  61  62  60  57  53  52  51  51  50  49  47  46
 44  43  42  41  41  41  42  42  43  40  41  42  36   7   7   5   6   5   6   7   9  10  10  11
  7   5   4   4   4   4   4   4   4   4   3   4   6   8   6   3   3   2   2   2   3  11  18  19
  1  49  86  79  80  81  80  81  80  81  82  82  80  78  77  75  73  72  71  70  68  66  62  61
 58  59  59  60  61  61  62  62  60  58  56  53  52  53  53  52  51  51  52  51  52  51  51  51
 51  51  51  51  50  50  49  48  48  48  47  47  47  47  47  47  47  46  45  45  45  44  43  44
 43  43  42  42  43  42  42  41  41  40  41  40  40  43  43  45  54  56  59  60  61  63  61  58
 57  56  58  57  54  53  53  53  61  64  67  67  67  67  68  67  62  61  60  59  56  53  50  47
 46  45  45  46  46  46  46  45  47  47  48  49  50  52  53  52  53  53  53  53  53  53  51  50
 47  46  46  45  42  41  39  37  36  36  38  41  46  48  49  48  50  48  44  42  39  38  36  35
 38  37  34  34  33  25  15  14  17  13   8   3   3   2   5   7  14  22  12   1   3   2   0   7
  4   0   0   0   0   1   0   1   0   0   0   0   0   0   0
 99  84  74  84  84  60  71  93  91  96 107 119 123 120 116 116 112 115 117 114 110 110 112 113
115 116 119 120 118 118 123 129 134 134 130 128 134 138 135 132 136 134 131 126 123 121 122 123
114 112 108 104 102  99  99 101  98  99 101 103 107 109 112 113 114 119 127 132 136 135 132 129
133 133 137 139 138 141 142 140 143 145 147 148 148 145 141 136 129 125 119 114 110 106 106 106
104  99  93  97 103  99  94 102 100 107 114 119 122 123 125 126 126 123 118 113 108 101  96  92
 87  85  84  82  82  81  81  79  79  78  79  81  84  85  85  84  83  83  85  84  81  79  78  78
 84  86  90  95 100 103 104 104 105 108 107 106 101  97  93  90  94  92  92  93  94  94  92  91
 84  84  87  91  95 100 101 103 107 110 114 113 104  99 100 100  99  98  97  98 101 104 105 106
106 104 104 105 107 109 110 109 111 109 116 110 111 116  92  98 117 117 117 118 119 118 111 104
111 110 107 100  94  88  85  85  84  83  79  71  67  67  65  60  54  52  50  48  47  47  46  46
 44  43  42  42  43  43  44  44  42  40  41  42  37  12   8   5   6   6   6   6   8  10  11  13
 12  14  10   6   5   6   8   5   5   5   5   6   6   5   4   3   6   1  21  30   5   2  16  11
  5  47  80  73  76  79  80  79  82  81  80  80  81  81  78  74  76  72  67  62  58  57  58  58
 56  56  56  55  56  57  57  58  56  56  53  51  52  51  50  50  49  49  49  49  50  50  49  49
 50  50  49  49  48  48  47  46  46  45  45  44  45  45  45  45  45  44  44  44  44  43  42  43
 41  41  41  42  42  41  40  40  41  40  39  40  41  41  43  45  48  49  51  53  55  57  58  54
 54  54  53  52  49  49  47  49  59  65  69  68  68  69  69  67  65  63  61  61  60  58  56  53
 49  49  49  47  48  49  49  50  50  50  51  52  53  53  54  55  57  57  57  57  58  58  56  55
 53  50  49  47  45  43  41  39  37  37  38  39  44  47  50  49  52  51  47  45  42  38  36  36
 37  34  32  33  31  25  19  17  18  14   8   4   5  11  16  19  35  41  29  11   5   4   7  14
  9   2   2   0   0   2   0   2   0   0   0   0   0   0   0
115 115 115 106 102  67  92 116 114 117 122 125 126 126 125 124 120 120 120 121 123 123 119 114
119 117 115 112 108 106 110 115 120 121 122 129 138 141 138 136 131 130 128 124 119 115 113 113
111 110 109 106 100  97  99 103 102 103 106 109 114 121 127 132 131 139 145 143 138 136 141 146
148 146 147 149 145 139 138 139 140 143 147 148 145 138 127 118 114 110 107 105 102  97  95  94
100 100 100  99  98 101 102 100 100 103 105 106 109 115 122 126 127 124 120 112 103  96  91  91
 90  87  85  83  82  82  82  82  92  93  94  97  99  98  97  95  96  97  94  90  86  83  83  83
 86  88  90  91  90  90  92  94  94  92  91  87  87  88  86  84  81  79  78  78  79  79  80  79
 82  85  89  95  99  98  97  98  98 101 108 110 106 104 104 101 100 100 103 106 109 111 112 112
111 112 113 113 110 109 107 106 104 104 111 106 104 109  90  95 116 119 123 122 121 120 118 117
112 109 104 100  96  92  89  86  86  91  91  87  84  80  71  63  59  56  53  51  50  50  50  50
 46  45  45  44  44  44  44  43  44  42  42  41  34  14   7   3   5   5   4   4   6   9  12  14
 11   9   4   8   8   3   9  10   8   9   9   7   5   4   6   8  10   3  26  34   8   2  12   7
  4  43  78  74  75  78  79  76  80  83  84  84  80  77  76  77  73  68  63  58  55  54  55  54
 54  53  53  52  52  54  55  54  55  53  51  51  50  50  49  49  48  48  48  48  48  48  47  47
 47  47  47  46  46  45  46  46  44  44  44  43  42  42  42  42  43  42  41  42  42  41  41  42
 40  40  41  41  40  40  39  39  38  38  38  39  40  41  43  45  44  44  43  43  44  46  45  44
 41  42  40  38  39  39  41  42  55  63  69  69  67  68  68  68  65  63  60  59  60  62  65  65
 56  55  54  53  53  53  52  52  54  54  53  55  54  56  56  57  59  59  59  60  60  60  59  57
 58  54  49  48  47  44  41  40  38  37  36  38  41  44  46  47  50  50  48  46  43  38  35  34
 36  32  31  32  30  27  25  23  19  15  11  10  12  21  27  31  43  42  36  24  15  17  20  18
 15   4   3   3   1   2   0   0   0   0   0   0   0   0   0
125 122 124 113 114  70 101 128 128 126 123 120 121 121 117 113 120 120 120 120 120 118 112 106
103  99  97 100 104 109 113 117 114 114 114 119 124 121 119 123 118 117 115 112 111 109 107 104
109 108 106 108 108 108 109 110 114 116 120 125 129 132 133 133 135 137 136 134 135 139 145 148
139 133 125 121 121 117 121 133 145 146 145 140 133 123 112 104  97  93  92  95  98  96  95  94
 96  96 100  99  96 100 105  99 101 104 107 107 109 114 119 121 118 116 111 103  95  89  88  88
 85  83  82  83  83  85  87  89  97  98 100 102 102 101 101 100 106 107 106 101  95  91  90  88
 86  87  86  82  79  78  82  85  85  84  81  80  82  84  85  83  76  72  70  68  68  68  69  69
 73  75  81  89  91  92  91  91  95  98 105 110 110 111 109 105 103 104 107 108 108 105 102  99
 99 101 103 103 101  99  98  98  94  95 100 103 105 110  97  97 108 111 115 118 119 120 119 117
113 107 101  96  94  92  89  86  93  95  95  93  89  84  77  71  68  65  60  56  54  53  52  52
 48  49  49  50  50  49  48  46  48  46  46  44  39  28  23  22  22  23  24  26  30  35  41  45
 66  66  64  65  43   8   4  10   4   4   3   2   1   1   5   9   3   3   4   3   4   9  11  10
  7  37  69  67  67  66  69  71  73  75  78  80  79  77  73  69  63  61  58  56  53  53  51  51
 52  51  50  50  49  51  51  50  51  52  50  49  49  49  49  49  48  48  48  47  47  47  46  46
 45  45  45  44  44  44  44  44  43  42  42  42  40  41  41  41  42  40  40  41  40  39  40  41
 40  40  40  40  40  39  39  39  36  37  36  36  39  42  45  45  51  49  47  44  42  41  40  38
 37  35  35  34  33  35  38  42  56  63  69  68  67  67  67  65  64  64  63  64  64  65  65  65
 63  62  61  59  57  56  55  54  57  57  56  56  56  56  57  57  58  57  57  58  58  58  57  56
 57  54  49  46  46  45  42  40  39  37  35  35  36  38  40  41  43  44  44  43  40  37  34  34
 36  33  31  30  28  28  25  20  20  17  13  14  19  24  31  34  39  30  26  22  22  32  35  28
 22   6   2   3   1   2   1   0   0   0   0   0   0   0   0
120 114 114 116 123  71  88 108  95  95  99 108 115 116 114 113 109 111 111 108 103  99  96  93
 99  97  95  95  99 104 106 105 103 101 101 103 106 105 105 110 113 112 111 110 109 108 104 103
100  99 102 105 110 110 110 110 104 107 112 116 117 115 110 109 106 107 110 116 123 128 127 123
121 119 106  99 106 110 119 138 141 142 140 133 124 117 113 109 103 100  98 101 102 100 100 100
109 106 108 111 109 104 102 101 104 110 114 113 112 111 109 105 103 100  96  91  89  88  86  85
 86  83  80  80  80  81  82  85  90  91  93  94  94  93  93  94  98 101 102  97  92  88  86  85
 85  84  82  79  76  76  79  83  82  83  81  81  81  81  80  76  72  69  65  63  62  62  62  62
 61  66  70  77  78  80  83  87  94  98 108 115 116 116 112 104  98  97  97  95  93  89  86  83
 82  84  86  87  87  89  91  93  97  97  94 102 106 113 111 112 110 110 109 111 114 116 114 110
114 109 103  99  98  98  97  96  99  98  96  90  86  81  79  78  72  69  64  60  58  56  54  52
 53  54  56  57  57  55  53  50  48  46  47  49  49  49  47  49  46  47  49  51  56  59  64  68
 61  69  71  74  49  12   9  14  17  17  19  23  25  26  27  29  36  38  33  33  42  44  37  35
 36  48  65  60  62  62  66  70  76  75  74  74  73  69  62  56  55  53  52  53  52  52  51  50
 51  50  49  49  49  48  48  49  49  49  49  49  49  49  47  46  46  47  47  47  47  46  46  46
 44  44  44  44  43  43  42  42  41  40  40  40  40  40  40  40  40  39  39  40  40  39  39  40
 40  41  40  39  37  36  37  37  35  35  35  36  40  44  46  48  55  57  55  53  49  47  43  41
 39  39  37  36  36  37  38  40  51  59  65  64  63  63  62  60  58  58  60  61  61  62  61  60
 66  65  63  62  60  59  58  58  58  58  58  56  55  55  56  56  56  55  54  54  54  54  53  53
 54  52  50  48  45  44  43  42  39  37  35  34  34  34  35  34  36  37  38  37  35  35  34  33
 33  31  31  30  29  34  34  25  21  19  17  18  22  25  29  29  34  26  18  19  29  39  42  41
 32  10   3   2   1   1   0   0   1   1   1   1   0   0   0
 90  94  90  90  95  58  75  89  88  90 100 112 117 111 111 115 105 106 106 101  99  97  97  97
 96  98  98  95  94  95  96  93  92  93  94 100 110 111 108 108 107 107 104  99  92  87  87  88
 88  88  89  91  91  89  88  89  83  83  85  86  86  87  87  89  93  96  97  97  99 105 115 121
133 138 126 117 124 123 125 139 141 144 144 136 124 114 109 105 102 104 108 110 108 103 105 109
117 126 130 128 127 122 116 117 120 122 122 118 114 110 106 100  96  93  88  88  89  89  86  84
 82  78  75  75  76  76  78  81  83  85  86  86  85  85  88  89  89  89  88  81  78  78  83  85
 81  80  78  75  73  72  73  73  76  77  78  76  75  72  69  67  64  63  61  60  60  61  62  62
 63  65  70  72  74  75  81  87  90  96 110 119 121 119 112 103  94  91  87  83  81  80  80  80
 78  79  80  81  84  88  93  96  95 101 101 115 115 114 114 112 112 113 111 106 102 102 103 104
102 100  96  95  96  98 102 104  99  99  98  94  86  81  78  78  77  75  73  71  70  69  67  65
 67  68  69  69  68  63  59  55  55  51  50  51  52  53  48  48  47  47  47  47  46  46  48  49
 49  56  54  61  56  46  50  49  55  57  64  72  79  78  75  72  66  61  61  64  62  60  62  66
 63  57  61  56  62  61  60  59  65  68  70  66  59  54  52  53  51  51  49  49  50  49  49  49
 49  50  50  49  49  48  48  48  49  48  48  48  47  46  45  44  45  45  46  46  46  45  45  45
 43  42  42  42  42  42  41  41  40  40  40  39  39  39  40  40  39  38  38  38  38  37  38  38
 39  39  40  38  37  36  36  37  36  36  35  38  42  46  49  50  51  55  58  56  53  50  47  44
 41  40  39  37  35  34  36  35  39  47  54  56  57  61  61  58  52  50  47  46  48  54  60  64
 65  64  64  63  63  62  61  61  58  59  58  57  55  55  56  56  56  55  54  53  53  52  52  51
 52  51  50  49  47  45  44  43  40  39  38  36  35  33  33  31  32  32  33  33  34  34  34  35
 31  30  30  28  28  34  34  21  25  22  21  22  24  27  27  25  26  30  23  23  36  40  38  45
 41  14   4   2   1   1   1   0   1   1   1   1   1   1   0
 83  82  81  86  96  59  80  95  94  94  98 104 106 106 104 106 103 101 100 102 106 110 110 108
110 108 104 100  95  91  86  83  85  84  84  82  80  80  81  81  81  81  82  82  81  81  82  82
 83  82  82  80  80  78  78  78  78  78  79  81  82  85  87  87  92  92  92  97 100 105 138 142
150 144 138 135 137 138 139 140 143 142 144 140 126 115 111 110 111 112 113 110 105 103 107 113
118 128 135 138 135 132 131 130 132 125 114 108 102 100 100  99  95  93  89  86  84  82  79  76
 75  75  74  73  74  76  78  79  80  80  80  81  82  83  83  84  80  79  78  77  77  78  80  80
 77  75  73  71  71  72  71  72  75  76  74  72  68  66  62  60  59  62  61  57  58  63  65  64
 62  63  66  70  73  76  83  85  95 108 120 122 118 115 112 110  98  93  88  85  86  85  82  80
 84  79  73  74  84  98 105 104 105 111 116 118 116 114 110 107 104 105 106 104 100  96  94  93
 89  86  79  75  79  89  97  99  97  97  94  89  84  82  81  81  82  80  80  83  85  83  81  80
 74  72  69  66  63  61  59  58  56  56  56  57  57  56  55  53  52  50  50  49  48  47  48  48
 48  50  51  54  59  63  65  62  64  62  65  71  73  73  70  70  64  60  55  54  56  60  62  63
 63  60  56  56  56  56  57  58  63  62  60  57  53  50  50  50  50  50  48  48  47  48  49  49
 47  47  47  48  47  46  46  46  44  44  44  44  44  44  44  44  41  42  42  43  44  43  42  41
 40  40  40  40  39  39  39  39  39  38  38  37  36  36  36  36  37  37  36  35  34  36  36  36
 37  37  37  36  36  35  34  34  34  36  38  43  47  52  54  55  57  57  57  56  54  53  51  51
 44  41  38  37  35  34  34  36  35  36  40  42  45  45  43  43  39  39  37  35  40  48  57  60
 62  62  63  66  67  66  65  65  62  62  60  59  60  59  57  56  58  57  56  56  56  55  53  52
 50  49  49  47  45  44  41  40  40  39  38  37  36  35  34  32  32  32  31  30  30  30  30  31
 31  27  26  26  26  26  26  27  23  23  23  26  26  25  24  24  17  23  28  32  34  34  36  38
 40  34  19   4   1   2   1   0   3   1   0   2   1   0   0
 87  92  94  97 100  64  85 104  98  96  97  99 100 100 101 103 105 104 104 107 110 113 114 113
 91  87  83  79  77  75  74  74  72  71  71  72  74  76  78  80  79  79  80  81  82  81  81  81
 80  81  80  80  79  78  79  79  81  81  82  83  85  86  88  88  87  90  93  96 100 111 147 153
144 141 139 135 135 135 137 138 144 142 142 140 131 123 119 115 115 112 109 105 102 102 107 113
119 125 133 139 143 142 136 131 131 124 114 109 104 101  99  96  94  91  86  83  82  80  78  77
 76  76  76  76  77  78  80  81  83  83  84  83  81  79  79  79  78  79  77  78  76  77  76  78
 74  73  71  71  70  70  70  70  72  71  70  68  65  63  62  61  59  61  58  56  61  68  67  61
 62  64  65  68  73  78  84  88 100 110 117 119 117 115 112 108 102 101 100 101 103 101  98  95
 90  90  90  91  97 106 110 108 112 116 119 119 115 112 108 105 102 102 101  97  91  85  81  77
 75  78  84  87  91  95  93  89  90  89  87  85  82  81  80  81  82  80  80  83  85  84  81  79
 73  69  64  60  58  57  58  58  56  56  56  56  57  57  57  56  55  54  53  52  51  50  51  51
 52  52  53  56  64  70  71  69  68  68  69  73  75  74  71  70  66  62  58  56  58  62  63  66
 67  62  58  55  54  53  53  53  55  55  53  52  51  50  50  49  49  48  48  47  48  48  48  48
 45  46  46  46  46  45  45  45  43  43  43  43  42  42  42  42  41  41  42  42  42  41  40  39
 38  38  38  38  38  38  38  38  37  37  36  36  36  36  36  36  37  37  36  35  35  35  34  34
 36  36  36  36  35  35  34  34  35  35  38  42  47  52  56  57  59  57  55  54  53  52  51  49
 46  43  37  35  35  33  32  32  31  31  32  32  32  31  31  30  34  33  34  33  38  45  53  55
 62  65  65  65  66  68  69  68  64  63  62  62  62  61  60  58  58  58  57  57  58  57  55  54
 52  52  51  49  47  44  42  41  40  39  38  37  36  35  34  32  29  30  29  29  29  29  30  29
 28  26  25  26  27  26  26  26  23  23  23  24  26  27  26  24  19  23  26  30  30  30  32  34
 40  36  28  15   7   4   4   2   0   0   2   4   3   1   1
 89  94 100 103 108  75  96 115 108 105 103 102 100  98  98  99  93  91  87  84  83  80  76  73
 74  72  70  69  69  70  71  72  71  72  72  72  75  77  78  80  77  78  78  78  79  81  81  81
 79  79  80  79  79  78  78  79  80  81  83  84  86  87  89  88  91  93  93  95  98 113 144 146
141 142 140 134 130 132 138 140 138 135 134 136 131 127 124 118 112 107 102 100 101 104 109 112
120 126 134 139 141 139 136 133 123 117 109 106 104 102  98  94  90  87  82  79  78  78  77  77
 77  78  79  80  81  82  83  85  85  86  86  84  80  77  77  78  79  78  79  77  77  75  75  74
 71  70  69  69  69  69  70  69  69  67  66  65  64  62  61  60  60  56  57  62  68  70  65  59
 61  62  63  65  69  76  84  88  99 104 107 107 106 105 101  96  95  97 101 104 106 104 100  97
103 106 108 107 107 110 112 111 113 115 116 113 109 106 103 100  97  96  95  93  89  83  77  73
 74  77  80  82  87  91  92  91  85  83  80  79  79  78  77  77  76  74  74  75  75  72  68  66
 64  61  57  54  54  54  56  57  56  55  55  55  56  57  57  57  56  56  55  54  54  53  53  53
 54  53  54  59  67  73  73  71  70  70  71  73  75  72  70  68  64  61  59  58  59  61  64  64
 65  60  55  53  51  49  49  51  50  49  47  49  49  51  49  48  48  48  48  47  46  46  46  46
 45  45  46  45  44  44  43  43  43  43  42  41  41  40  39  39  40  40  40  40  40  39  38  37
 37  37  37  36  36  36  36  36  35  35  35  34  34  35  35  35  37  36  35  34  33  33  32  32
 34  34  35  36  36  36  34  34  34  34  38  43  48  55  60  64  58  58  55  53  52  49  49  50
 49  42  36  34  33  31  30  29  31  30  31  31  31  30  30  32  30  31  31  30  32  36  40  40
 49  56  61  62  63  67  70  69  63  62  60  60  61  60  59  58  59  58  58  58  60  59  58  57
 55  54  53  51  48  45  44  43  41  39  38  37  36  35  34  33  30  31  31  30  28  29  28  27
 26  26  25  26  27  26  24  25  23  23  23  24  26  26  27  25  24  26  28  30  30  30  30  31
 29  31  29  21  10   3   1   1   1   2   1   0   0   0   1
 97  97  95  95  98  69  80  93  85  85  83  80  78  73  73  72  67  67  66  67  69  70  69  69
 69  69  71  72  72  73  73  74  74  74  73  73  72  72  72  72  73  74  74  75  77  78  77  78
 78  78  79  79  79  79  79  80  80  81  83  85  87  88  89  90  89  91  90  93 101 122 144 138
139 145 145 139 136 138 142 142 137 134 132 131 127 124 120 113 105 102  99  98 101 103 107 109
120 126 132 134 134 131 128 125 111 107 103  99  98  96  93  89  85  82  79  76  76  76  77  77
 78  79  81  82  84  85  88  90  91  90  88  85  80  77  78  78  76  77  78  78  77  76  74  73
 70  69  69  69  69  68  68  67  66  64  63  63  63  61  59  58  57  53  58  69  72  63  57  58
 60  61  62  64  68  74  81  85  91  91  91  89  88  88  86  83  84  88  95 101 104 105 105 105
111 114 114 110 107 107 109 110 112 114 113 110 107 105 103 102  95  93  94  93  91  86  80  75
 77  80  85  89  93  96  95  93  84  81  76  75  73  72  71  69  67  65  62  61  61  59  56  54
 54  54  54  54  55  55  56  55  55  54  54  54  55  56  56  55  55  54  54  53  53  53  53  53
 55  53  53  57  62  67  68  68  69  68  69  68  68  66  64  62  62  60  57  57  57  59  61  61
 60  57  54  51  51  49  49  51  49  49  48  49  48  48  47  46  47  47  46  45  45  45  44  44
 43  44  44  44  43  41  41  41  42  42  41  40  39  39  38  38  38  38  38  38  38  38  37  37
 36  36  36  36  36  35  35  35  34  34  33  33  33  33  33  33  34  34  34  33  31  32  32  31
 33  33  34  35  35  34  35  35  36  35  37  41  48  56  60  63  59  56  54  52  51  50  50  51
 48  41  34  30  31  29  28  27  29  29  29  29  30  30  31  32  29  30  30  29  29  29  28  29
 34  44  56  61  63  66  66  64  62  60  60  58  59  60  59  59  60  60  59  59  61  60  59  58
 55  54  53  51  48  46  45  44  42  40  39  37  37  36  36  34  34  33  32  31  29  29  27  26
 27  26  27  27  26  26  23  24  24  22  23  22  23  26  26  27  27  27  28  29  30  30  29  30
 29  30  29  28  19   8   1   2   1   2   2   1   1   5   6
 90  87  80  77  78  51  54  65  70  71  72  73  70  70  67  67  71  71  72  72  71  71  69  68
 69  69  71  73  73  74  74  74  72  72  73  73  73  73  72  72  72  73  74  75  76  76  76  76
 77  78  79  79  79  79  80  81  82  83  84  85  87  88  89  90  90  93  94  97 103 127 142 134
134 142 146 145 145 146 146 144 145 143 139 133 128 124 117 109 105 103 102 101 102 102 106 110
124 124 126 128 131 128 119 112 105 103  98  94  90  86  84  83  81  79  77  76  76  77  79  79
 81  82  83  84  87  89  92  94  97  93  87  81  77  74  73  72  73  74  75  76  76  74  72  71
 71  70  70  69  70  68  66  65  64  62  61  63  62  59  57  57  56  58  64  68  64  56  54  57
 61  62  64  66  68  72  75  78  78  78  78  77  77  77  77  76  83  86  91  94  96  97  99 100
105 108 109 107 106 107 109 111 111 111 111 108 105 104 101  99  98  96  95  93  90  85  77  72
 73  78  86  92  96  97  94  91  85  82  75  71  68  66  63  61  60  58  56  55  56  56  55  54
 54  54  55  57  58  58  58  56  55  55  54  54  55  54  53  52  51  50  50  49  49  50  51  52
 52  52  53  55  57  60  61  64  67  66  64  63  62  61  60  59  61  60  58  55  56  56  56  58
 57  56  55  54  51  50  48  49  49  49  49  48  47  45  46  45  46  44  44  43  42  42  42  42
 41  42  42  42  41  41  41  42  40  39  40  40  39  39  38  37  37  36  37  37  37  37  37  37
 37  37  36  36  37  36  36  36  35  34  34  33  33  33  32  33  32  32  32  30  31  31  31  30
 31  31  32  32  33  33  34  34  38  36  35  39  48  55  58  59  59  57  55  52  52  50  50  49
 49  42  34  31  30  28  27  26  26  26  27  27  27  26  26  27  27  27  27  27  28  28  28  29
 30  39  52  63  66  62  60  62  60  58  58  56  57  59  60  62  60  60  59  59  60  59  58  57
 54  54  53  51  49  47  47  46  43  42  40  39  38  38  36  36  35  36  36  35  34  32  30  30
 31  32  32  30  29  26  24  23  24  23  22  21  23  23  24  26  27  26  26  26  27  28  28  26
 30  28  29  30  24  14   3   1   1   5  11  16  23  25  20
 70  71  70  69  71  52  57  71  70  72  72  71  69  69  70  70  68  69  70  71  70  69  69  69
 71  71  71  71  71  72  74  75  74  74  75  76  76  76  75  75  74  74  76  76  77  78  78  78
 80  81  81  81  81  81  82  83  83  84  85  86  87  89  90  91  93  95  98  99  99 123 135 130
130 133 135 135 136 141 145 147 148 147 143 137 132 128 122 113 108 108 108 108 109 112 117 122
124 127 129 129 125 118 108 101  97  97  93  89  85  82  82  82  79  79  77  77  78  79  81  81
 84  85  86  87  90  92  94  95  92  88  81  77  75  73  72  70  71  72  73  74  74  74  72  71
 72  72  71  70  70  68  65  64  63  61  61  63  61  58  57  58  59  67  69  62  56  56  59  59
 59  60  62  63  64  66  67  68  65  67  68  68  69  70  72  73  77  77  79  80  80  81  84  87
 94  98 102 106 108 110 111 112 110 111 110 108 105 103  99  97 100  97  95  92  89  84  77  72
 73  75  79  83  87  89  89  89  84  80  75  70  66  64  61  59  58  57  55  54  55  57  57  57
 58  57  56  57  58  58  59  59  58  57  57  56  56  55  53  52  49  49  48  47  47  47  49  49
 48  49  51  53  54  56  60  63  63  64  64  63  63  64  64  62  58  58  57  56  55  55  54  54
 54  53  52  54  52  49  49  49  49  49  49  47  45  44  45  45  45  43  43  42  41  41  41  41
 41  41  42  43  42  41  41  42  40  39  38  38  38  38  38  38  36  35  36  36  36  36  37  37
 36  36  36  36  36  36  36  35  34  33  33  32  31  31  30  31  30  30  30  30  29  30  29  30
 31  30  30  31  31  32  32  33  34  33  33  38  46  55  60  62  60  58  56  54  53  49  49  47
 50  42  36  32  30  28  26  25  27  28  27  29  27  28  27  27  27  25  25  26  27  26  27  28
 29  33  42  54  58  57  56  60  53  53  51  51  52  54  57  59  58  57  57  56  57  57  56  55
 53  53  52  51  50  49  49  48  44  43  41  40  39  39  38  37  39  39  39  41  40  40  40  40
 38  39  38  37  33  30  27  25  24  21  21  21  21  23  23  23  25  24  23  23  24  25  25  26
 28  24  25  27  27  20  13   8  12  17  23  28  35  38  32
 69  72  73  72  73  57  60  75  73  75  76  73  71  70  71  70  71  72  73  73  71  70  69  69
 71  71  71  71  71  72  74  77  74  74  74  74  75  75  74  74  75  76  77  78  80  81  82  81
 84  85  85  85  84  84  85  86  84  85  86  88  91  94  96  98  97  98 101 104 103 127 135 130
128 127 124 123 124 130 139 146 144 144 143 139 135 135 129 118 113 114 116 119 121 124 127 130
124 128 130 124 114 104  97  95  93  92  90  88  86  85  85  85  81  81  81  81  81  82  83  84
 86  86  87  89  93  93  92  91  84  81  78  76  75  75  73  73  72  72  73  73  73  74  74  74
 73  72  72  71  69  68  65  64  64  62  61  62  60  58  59  63  65  66  63  57  55  58  60  59
 57  57  58  59  59  60  60  60  59  60  62  63  63  64  65  66  62  65  68  70  73  78  83  87
 88  93 100 104 106 106 105 104 105 107 108 108 106 105 102  99  97  96  92  90  87  84  79  76
 73  76  82  86  88  87  84  83  81  79  75  72  70  67  64  61  59  60  59  58  59  61  61  60
 61  60  59  60  60  61  63  63  63  62  60  59  59  58  57  56  52  51  49  48  48  47  47  47
 47  47  49  53  55  56  59  62  65  66  67  67  66  67  66  63  58  58  57  57  57  57  58  58
 54  53  55  55  53  51  49  51  48  48  47  46  44  43  43  43  44  42  43  42  42  42  42  42
 42  42  43  43  42  41  41  42  40  40  39  39  38  38  38  38  37  36  36  35  35  35  36  36
 35  36  35  35  35  34  34  34  31  31  30  30  29  29  29  30  29  29  29  30  30  29  29  29
 29  30  30  30  30  31  31  31  29  30  30  34  41  49  55  59  56  56  57  56  54  52  49  47
 46  41  35  31  28  27  25  25  24  25  25  26  26  25  26  25  26  26  26  27  27  24  24  26
 27  27  30  37  43  45  48  49  44  43  41  42  44  48  51  54  56  55  53  53  53  53  53  53
 52  52  51  50  49  48  48  47  45  44  42  40  39  39  39  39  40  41  42  43  44  47  48  48
 43  44  43  39  35  33  30  26  24  22  20  21  21  21  22  22  22  22  22  23  23  23  24  24
 24  24  25  26  27  26  24  21  24  25  28  31  34  36  37
 73  75  73  72  73  57  55  65  71  74  77  75  72  72  71  70  67  69  72  72  72  71  71  72
 68  69  72  73  73  74  74  76  76  76  76  78  78  77  77  76  76  76  77  79  81  83  84  85
 86  86  86  85  85  84  85  86  87  88  90  93  98 102 106 107 114 114 114 116 114 135 133 122
124 124 123 124 125 126 133 140 145 144 141 138 137 137 130 118 118 119 124 128 129 127 125 125
125 123 119 111 107 101  96  91  92  91  91  89  88  86  84  82  84  84  83  82  82  83  84  86
 86  86  87  90  93  93  90  86  83  82  81  79  77  76  75  75  75  76  75  76  75  77  76  77
 73  72  72  70  69  68  66  64  65  64  62  62  61  59  63  69  67  58  52  56  58  55  54  56
 57  56  56  56  56  57  57  56  57  57  58  61  62  62  61  61  62  63  66  69  70  74  77  80
 87  92  97  99  98  94  91  90  91  94  99 101 101 100  97  94  94  92  90  87  85  81  79  77
 75  77  79  81  82  81  79  78  79  79  77  76  74  70  66  63  60  61  64  63  66  68  70  68
 63  63  63  64  66  68  69  68  66  64  62  60  60  59  59  59  56  54  53  50  49  48  48  48
 48  47  49  52  56  58  60  62  67  70  71  71  69  68  65  61  62  62  62  62  63  63  64  64
 64  62  61  59  56  51  51  52  51  49  46  45  44  44  43  43  43  43  42  42  42  41  41  41
 41  41  42  42  41  42  42  41  42  42  42  41  40  39  39  38  36  35  35  34  33  34  35  35
 33  34  34  33  33  33  32  32  30  30  29  29  28  30  29  29  29  28  28  29  29  29  29  28
 28  28  28  29  29  29  29  30  28  29  30  31  34  37  42  47  52  53  55  56  54  52  50  49
 43  38  33  29  27  26  25  26  27  27  26  26  25  26  26  26  26  25  25  27  27  27  26  28
 28  26  25  27  31  35  36  35  39  38  37  36  38  42  49  52  52  52  52  52  51  52  51  50
 51  50  50  49  49  48  46  47  45  44  42  41  39  39  39  39  38  39  40  42  44  44  46  47
 46  47  46  42  37  33  30  27  23  23  22  21  21  22  20  21  21  21  21  21  20  20  21  22
 21  22  22  22  21  22  22  22  22  27  31  32  35  36  38
 77  75  78  73  58  57  67  68  72  72  73  73  72  71  71  71  71  72  74  74  73  73  73  73
 73  73  74  75  77  78  77  76  78  78  78  76  75  76  78  80  81  82  83  83  82  84  85  86
 91  90  90  89  88  89  91  89  96  94  95  97 100 104 108 112 119 128 127 121 125 129 124 118
120 121 120 122 127 130 133 138 142 140 139 137 134 130 125 122 123 125 127 129 128 125 123 122
118 117 111 102  96  94  93  91  90  89  88  87  87  88  87  85  87  86  84  83  84  84  84  85
 85  85  86  89  89  90  92  93  92  91  89  87  85  83  81  79  77  78  80  79  78  77  77  77
 74  76  74  71  69  69  66  62  62  65  64  59  59  69  72  65  55  54  55  55  55  54  54  53
 54  52  52  53  54  56  56  56  57  57  57  58  59  60  61  62  63  63  64  66  70  75  81  83
 97  99 100  97  93  88  85  83  82  81  82  88  93  95  90  86  84  84  83  82  78  75  74  75
 74  77  79  79  76  73  72  72  72  72  74  75  73  69  65  63  60  64  67  69  70  68  68  68
 66  66  65  67  69  70  71  70  71  70  68  68  70  72  70  67  66  63  57  55  53  52  50  49
 49  49  50  50  52  56  61  65  71  71  73  72  71  68  66  64  65  65  66  67  69  70  70  71
 75  75  73  69  63  59  56  55  55  53  50  48  46  44  42  42  41  40  40  41  42  42  43  42
 42  42  42  41  42  42  44  46  48  47  46  45  43  41  39  39  39  37  36  35  34  35  34  33
 32  31  30  30  29  29  29  29  28  28  29  28  28  28  29  30  28  27  27  27  27  27  28  27
 27  27  27  26  26  25  25  25  28  27  27  28  28  30  30  33  39  41  45  48  50  49  47  45
 36  33  29  27  25  27  27  26  26  25  24  23  24  24  24  24  24  23  23  24  25  26  25  27
 24  25  26  26  24  25  25  26  30  32  34  31  29  37  46  49  52  52  50  49  49  49  49  46
 49  49  48  48  47  47  45  43  44  44  43  42  42  40  39  38  36  37  39  42  43  43  44  44
 40  46  48  43  38  34  32  29  22  21  19  19  20  20  20  19  20  20  21  21  20  20  21  22
 21  21  21  22  21  21  22  21  23  24  29  33  36  35  37
 79  77  81  80  71  70  75  73  71  71  71  72  73  74  75  75  75  75  75  75  74  74  75  76
 75  75  75  76  77  77  77  77  77  78  79  79  79  79  81  82  84  85  87  87  88  90  93  93
 92  92  91  91  94 104 110 107  98  96  96  97  99 100 104 107 118 128 129 122 118 117 114 114
119 120 121 123 123 125 125 125 125 126 127 127 127 124 121 119 122 123 124 125 124 122 121 122
120 116 107  98  94  92  90  89  90  91  91  89  88  89  89  87  87  87  84  83  83  83  83  84
 85  86  85  86  87  89  92  93  95  94  92  90  88  85  84  83  81  82  83  84  83  82  81  81
 78  77  73  70  68  68  67  65  66  60  60  66  71  71  63  54  54  55  55  55  55  55  55  55
 54  53  54  54  55  56  56  56  57  57  58  58  59  61  62  62  61  63  66  68  71  77  84  88
 97 101 101  99  93  84  76  72  68  70  76  84  91  91  86  81  76  74  71  69  66  65  67  70
 71  73  75  75  74  71  71  71  71  71  74  75  74  69  66  65  70  68  66  66  67  68  70  72
 70  70  69  71  73  73  74  74  73  75  76  79  81  81  77  73  70  66  62  58  56  55  53  52
 51  51  50  50  51  53  57  60  68  69  69  68  67  64  62  61  63  64  66  68  69  70  71  70
 76  78  79  78  74  69  63  60  60  57  54  51  47  44  42  40  40  40  41  42  42  43  42  41
 43  44  43  42  42  43  47  49  49  48  47  45  45  43  42  42  38  38  37  36  35  34  33  33
 30  30  29  29  28  28  28  28  28  28  27  27  27  27  29  29  28  28  28  27  27  27  27  27
 27  27  27  26  25  25  25  25  27  27  28  27  28  29  29  31  28  29  33  35  36  34  32  31
 31  28  26  24  24  25  26  26  24  24  24  24  24  23  23  23  23  24  23  24  24  24  25  26
 24  25  26  26  26  26  26  26  28  29  29  29  27  34  44  50  51  50  48  47  47  47  48  49
 47  47  48  48  47  45  43  41  43  41  41  40  40  40  38  37  32  34  36  39  41  42  41  41
 43  45  46  39  34  31  29  25  22  22  21  20  19  19  19  19  19  20  20  19  18  18  19  20
 21  21  21  20  20  21  20  20  24  25  27  30  34  34  37
 79  76  79  81  77  77  78  73  74  74  75  75  76  77  77  77  79  80  80  80  79  78  78  78
 76  76  75  75  76  77  78  78  77  79  81  82  82  83  84  86  92  92  94  94  94  95  96  97
 96  97  96  94 101 118 124 118 100  99  98  98  98  98  98 101 105 115 120 117 113 111 114 118
118 117 121 125 120 121 120 116 118 119 121 122 122 122 121 120 119 119 120 119 120 119 117 116
110 105  97  91  89  90  90  90  90  91  92  90  89  90  90  89  87  87  86  84  84  83  84  84
 84  84  84  84  85  87  91  93  97  96  94  92  89  88  86  86  85  86  86  87  87  86  85  83
 79  77  73  70  68  66  65  65  62  60  65  71  70  64  59  55  56  56  56  56  56  56  56  56
 54  55  55  55  55  55  55  57  58  58  59  60  61  62  63  63  62  65  67  69  72  77  84  89
 94  95  94  89  81  73  67  64  62  65  72  79  83  82  76  71  69  67  63  60  58  57  61  65
 67  69  71  72  72  71  70  69  69  71  74  76  73  70  69  69  69  70  73  76  78  79  77  76
 74  74  73  75  77  78  78  79  77  79  82  86  88  87  81  77  71  70  66  63  61  59  56  55
 53  53  52  51  51  51  53  54  55  55  56  56  57  57  56  56  58  60  64  66  67  68  70  70
 72  74  77  79  78  74  70  66  65  62  59  54  51  46  44  41  42  42  42  42  43  44  43  42
 45  44  43  41  41  44  47  48  50  47  46  45  46  46  46  46  40  40  38  36  35  32  31  30
 30  29  29  28  29  29  29  29  29  29  27  27  28  27  27  28  28  27  27  27  26  26  27  27
 26  26  26  25  25  25  24  24  26  26  27  26  27  27  28  30  28  28  29  31  31  29  27  25
 25  25  25  25  24  24  24  24  24  24  23  22  23  23  23  22  22  22  22  22  23  23  24  24
 25  26  27  26  25  26  26  27  26  25  26  26  24  31  40  45  54  51  48  44  41  41  42  44
 45  46  48  47  45  42  38  36  41  41  41  40  40  38  37  35  34  35  37  38  38  38  38  38
 46  46  43  35  29  25  22  20  21  20  19  19  20  20  18  18  19  19  19  18  18  18  18  18
 20  20  20  20  20  19  20  19  23  23  25  28  33  34  37
 78  75  75  76  74  76  76  73  75  76  79  79  78  77  78  79  82  83  85  85  83  80  77  75
 75  74  74  74  76  78  79  80  81  83  86  86  86  87  90  93  98  99 102 105 105 103 103 104
108 109 108 107 111 120 122 114 102 100  98  98  98  97  97  98 104 108 113 114 113 110 109 113
117 115 122 127 122 123 122 116 118 118 117 116 116 115 114 114 113 114 115 115 115 113 109 108
100  95  89  85  85  88  89  89  87  91  93  92  90  90  90  89  86  87  86  85  84  84  85  85
 82  83  84  85  84  86  89  91  95  94  92  90  88  87  86  86  86  86  86  87  88  88  85  82
 78  75  73  72  68  64  64  66  67  70  73  69  61  59  62  62  58  58  58  57  57  56  56  56
 55  56  57  56  55  55  56  58  59  59  60  61  63  64  65  65  64  65  65  66  68  71  75  79
 80  79  79  75  69  64  61  60  60  63  67  70  72  70  67  64  63  62  60  58  56  56  58  61
 63  66  70  73  74  72  72  70  69  71  73  75  72  70  72  74  72  77  85  90  91  90  85  81
 79  78  78  77  78  80  81  82  81  83  85  86  87  86  82  79  71  68  64  61  59  58  57  56
 56  55  54  53  52  51  51  51  45  45  46  47  48  50  50  50  52  55  60  63  64  65  67  69
 68  68  69  71  73  74  73  72  67  66  61  59  55  52  49  47  45  45  45  46  46  46  44  43
 43  42  41  40  40  42  44  45  48  47  47  47  49  49  49  47  44  42  38  36  32  31  29  28
 31  30  29  29  30  29  29  29  28  28  27  27  27  27  27  26  27  27  26  26  25  25  26  26
 25  25  24  24  24  24  23  23  25  25  26  26  25  26  26  27  27  29  29  28  28  26  25  24
 23  24  24  25  24  24  24  24  23  22  22  23  23  22  23  22  22  21  22  22  23  24  25  25
 26  25  26  27  27  26  26  26  27  27  27  26  24  26  33  37  48  46  42  37  33  31  33  35
 39  40  41  40  37  33  30  29  32  32  34  35  35  35  33  32  34  34  34  34  33  32  31  30
 38  38  36  31  24  22  21  19  19  19  18  18  18  19  18  18  18  18  18  18  18  17  17  18
 18  18  18  18  17  17  18  17  20  20  24  28  33  36  36
 77  76  76  76  76  78  79  78  76  80  84  84  80  78  78  80  82  83  84  83  80  76  73  71
 72  72  73  74  76  78  81  83  87  88  89  90  92  94 100 104 103 108 115 119 119 115 114 116
122 121 124 123 121 121 117 110 106 103  99  99  99  98  98  99 102 107 110 112 112 107 106 109
114 113 123 132 128 127 126 118 109 108 106 103 101 101 102 103 108 107 107 106 106 105 104 102
 98  94  89  85  85  85  87  87  88  92  94  94  92  91  92  90  87  87  85  84  83  83  84  84
 82  84  86  86  84  85  87  89  91  90  88  87  86  86  86  86  86  85  84  85  86  86  83  80
 75  73  72  71  68  66  68  73  81  75  70  65  62  63  64  62  62  61  60  59  57  57  56  56
 56  57  57  57  56  55  56  58  60  61  61  62  64  65  66  67  64  62  61  60  60  62  64  66
 64  66  68  68  66  61  57  53  55  57  60  62  63  63  61  61  58  57  56  56  54  55  56  59
 64  68  72  76  77  77  74  70  69  70  72  72  72  72  75  80  85  90  94  94  92  90  87  85
 82  81  80  79  82  83  84  84  88  89  90  88  88  86  82  79  68  65  60  57  56  56  56  55
 56  56  55  54  52  51  51  50  50  49  48  48  49  49  49  49  49  52  56  59  60  62  65  67
 67  65  64  65  69  73  73  74  68  66  64  61  59  57  54  51  50  50  50  50  50  50  48  47
 45  43  41  39  38  39  41  42  46  46  47  50  51  51  49  48  47  43  38  34  31  30  29  28
 31  30  30  30  29  29  29  28  27  27  28  27  27  26  26  24  25  26  25  25  24  23  24  24
 24  24  23  23  23  23  22  22  24  25  25  25  24  25  26  27  26  26  26  27  27  26  25  25
 22  22  23  24  25  24  24  24  23  22  22  22  22  22  22  22  22  22  23  24  25  25  26  26
 28  28  28  29  30  30  29  29  29  27  28  27  25  24  28  30  34  33  32  29  27  26  26  27
 26  27  28  27  25  23  22  22  20  21  22  25  27  29  28  29  30  30  29  28  26  24  24  23
 24  24  24  23  21  21  21  21  18  18  18  18  17  17  19  19  18  18  18  18  18  18  18  17
 16  16  16  16  16  16  17  16  17  18  20  26  29  33  36
 75  77  78  79  80  80  81  82  84  88  90  88  82  77  77  78  80  79  78  76  72  71  70  71
 72  73  74  76  78  82  85  88  89  93  96  99 100 104 111 116 118 123 130 134 132 126 124 126
131 131 132 130 126 122 118 114 109 106 102 101 101 100 100 100  99 105 108 110 107 103 103 110
115 117 128 135 132 128 123 115 104 102  99  97  96  96  96  96 102 100  98  98  99 100 101 101
 95  90  87  85  84  84  85  86  88  93  96  97  96  94  94  91  89  89  86  85  84  84  84  84
 85  87  89  88  87  86  86  88  89  89  88  87  86  86  86  86  86  84  84  84  84  83  81  78
 75  73  71  70  69  71  75  80  78  67  63  67  68  66  65  65  65  64  62  60  59  58  57  57
 58  58  57  57  56  56  57  59  61  61  61  62  63  63  63  63  61  59  57  57  57  59  60  60
 63  63  64  64  62  58  55  54  54  55  58  60  60  59  57  56  57  55  54  52  53  54  56  61
 66  69  75  80  80  77  72  70  69  69  70  70  71  72  77  82  86  92  95  93  90  88  87  86
 85  84  83  82  84  84  85  85  90  92  92  90  87  83  79  74  67  63  58  55  55  55  55  55
 54  54  53  52  52  52  51  50  50  49  48  48  49  50  50  49  48  50  53  56  58  60  62  64
 65  63  61  62  66  69  69  69  69  67  65  63  62  58  56  55  52  51  51  51  51  50  49  48
 47  44  41  40  39  39  39  39  42  43  45  48  49  49  48  46  43  41  36  33  30  29  30  30
 29  29  29  29  28  28  27  27  26  26  27  26  26  25  25  23  24  25  24  24  22  22  22  22
 23  23  23  23  23  23  22  22  22  24  24  24  23  23  24  25  25  26  26  27  27  26  26  27
 22  22  22  22  23  23  23  24  24  24  24  23  23  23  22  22  22  24  25  26  26  27  27  29
 32  32  33  33  34  33  33  32  28  26  28  30  27  25  27  28  27  28  28  26  25  25  24  26
 22  22  23  22  22  22  21  21  19  19  20  21  23  24  25  24  27  26  25  24  23  21  20  20
 20  21  22  21  20  20  20  20  19  19  19  18  18  17  17  19  18  18  18  18  18  18  18  17
 16  16  16  16  16  16  17  16  16  16  17  18  23  26  32
